Resources/LUT/Action.3dl
# 17x17x17 .3dl lookup table from LUT Buddy
   0   64   128   192   256   320   384   448   512   576   640   704   768   832   896   960   1023
   0   0   2
   0   0   26
   0   0   317
   0   0   584
   0   0   861
   0   0   1147
   0   0   1442
   0   0   1731
   0   0   1989
   0   0   2216
   0   0   2413
   0   0   2585
   0   0   2740
   0   0   2880
   1   2   3006
   15   15   3120
   30   30   3226
   0   81   1
   0   81   1
   0   74   299
   0   69   566
   0   64   840
   0   59   1127
   0   56   1418
   0   55   1709
   0   55   1970
   0   56   2197
   0   59   2395
   0   65   2569
   0   72   2724
   2   82   2865
   14   95   2992
   28   112   3107
   46   134   3214
   0   244   0
   0   243   0
   0   236   283
   0   229   548
   0   224   820
   0   221   1102
   0   219   1391
   0   220   1681
   0   224   1942
   0   232   2171
   3   243   2371
   12   257   2546
   24   274   2703
   39   294   2843
   57   317   2971
   81   342   3088
   100   360   3197
   0   501   1
   0   501   1
   0   499   277
   0   499   537
   2   499   803
   5   502   1080
   11   507   1364
   19   514   1650
   29   524   1911
   42   538   2139
   54   549   2342
   64   559   2522
   73   567   2682
   83   575   2827
   93   584   2960
   104   592   3080
   115   601   3192
   13   804   16
   13   804   16
   17   808   291
   21   812   544
   26   817   804
   31   823   1077
   37   829   1358
   44   835   1644
   52   842   1907
   61   850   2137
   71   858   2342
   80   866   2522
   91   873   2682
   102   882   2827
   114   890   2959
   127   898   3078
   140   905   3191
   25   1178   27
   25   1177   27
   29   1181   311
   34   1186   561
   39   1190   820
   46   1195   1092
   54   1202   1373
   63   1208   1656
   73   1215   1916
   83   1223   2146
   95   1231   2348
   107   1238   2526
   120   1245   2685
   134   1252   2829
   147   1260   2961
   161   1268   3079
   174   1275   3190
   43   1611   46
   43   1610   46
   49   1613   342
   55   1617   589
   63   1622   847
   71   1626   1119
   82   1632   1398
   93   1639   1679
   106   1645   1935
   120   1651   2162
   134   1658   2360
   149   1665   2537
   163   1671   2693
   177   1678   2836
   190   1685   2966
   204   1690   3085
   217   1696   3194
   73   2034   77
   73   2032   97
   82   2035   387
   89   2037   630
   99   2041   887
   111   2044   1157
   124   2047   1435
   138   2052   1711
   153   2057   1962
   168   2061   2185
   183   2066   2380
   197   2071   2553
   212   2075   2708
   226   2078   2848
   240   2083   2977
   254   2088   3093
   268   2091   3201
   121   2405   126
   124   2405   189
   133   2406   445
   144   2407   686
   155   2409   942
   168   2412   1209
   182   2414   1486
   197   2417   1757
   212   2419   1999
   228   2423   2216
   243   2427   2407
   258   2429   2576
   273   2432   2728
   287   2435   2866
   302   2436   2991
   316   2440   3106
   331   2443   3213
   182   2728   186
   185   2727   275
   193   2727   513
   202   2728   752
   213   2729   1006
   224   2730   1272
   236   2732   1546
   248   2733   1809
   261   2735   2043
   274   2737   2254
   286   2738   2440
   298   2739   2604
   310   2741   2752
   321   2742   2887
   333   2742   3010
   344   2744   3123
   355   2744   3228
   191   3007   196
   195   3006   316
   202   3004   549
   209   3004   790
   218   3004   1047
   227   3004   1315
   237   3003   1590
   247   3004   1848
   257   3004   2079
   267   3003   2286
   278   3004   2468
   287   3003   2630
   297   3002   2775
   307   3002   2909
   319   3000   3029
   331   3000   3139
   343   2999   3243
   184   3240   188
   187   3238   347
   192   3237   578
   198   3236   823
   205   3234   1084
   212   3232   1354
   220   3231   1630
   228   3230   1885
   236   3229   2113
   244   3228   2316
   254   3227   2495
   264   3225   2655
   275   3224   2798
   285   3221   2929
   295   3220   3047
   305   3217   3156
   316   3216   3259
   152   3451   156
   155   3449   360
   159   3447   596
   163   3444   848
   168   3442   1113
   174   3440   1387
   180   3439   1665
   189   3437   1918
   198   3435   2144
   206   3433   2344
   215   3429   2520
   223   3425   2677
   232   3422   2819
   240   3420   2947
   249   3418   3064
   258   3414   3173
   267   3412   3273
   88   3611   92
   91   3609   354
   96   3606   600
   100   3604   859
   105   3603   1131
   110   3600   1410
   115   3598   1690
   121   3595   1944
   127   3593   2168
   133   3591   2366
   140   3588   2541
   147   3585   2697
   154   3582   2837
   161   3580   2965
   168   3577   3081
   176   3574   3188
   184   3570   3287
   22   3732   17
   24   3731   322
   27   3728   584
   30   3726   853
   32   3723   1132
   35   3721   1419
   38   3718   1704
   41   3716   1960
   44   3714   2184
   48   3711   2383
   52   3708   2557
   57   3705   2712
   61   3703   2851
   66   3699   2980
   72   3695   3095
   77   3692   3201
   83   3689   3299
   22   3838   22
   25   3835   258
   27   3834   543
   29   3831   826
   32   3828   1115
   34   3825   1409
   37   3823   1703
   39   3820   1965
   42   3818   2193
   46   3814   2391
   50   3811   2565
   54   3808   2721
   58   3804   2861
   62   3801   2989
   67   3798   3104
   71   3794   3211
   76   3791   3311
   35   3926   44
   37   3923   176
   40   3922   487
   42   3919   786
   45   3916   1086
   48   3914   1389
   51   3911   1691
   53   3908   1959
   56   3904   2192
   60   3901   2391
   65   3898   2567
   69   3894   2724
   74   3891   2866
   79   3888   2994
   84   3884   3110
   88   3880   3217
   94   3877   3317
   3   0   2
   4   0   2
   4   0   309
   4   0   576
   5   0   851
   5   0   1138
   6   0   1432
   6   0   1722
   6   0   1981
   7   0   2208
   7   0   2407
   8   0   2580
   8   0   2735
   9   0   2874
   11   1   3001
   24   14   3114
   40   30   3222
   5   81   1
   6   81   1
   6   74   294
   6   69   561
   7   64   835
   7   59   1119
   8   56   1412
   8   55   1702
   9   55   1963
   9   56   2191
   10   59   2391
   10   65   2565
   11   72   2720
   14   82   2861
   26   95   2988
   41   112   3103
   60   133   3210
   7   243   0
   8   243   0
   8   235   280
   9   229   545
   9   224   816
   10   220   1098
   10   219   1386
   11   220   1677
   11   224   1937
   12   232   2167
   16   243   2367
   26   257   2543
   39   274   2699
   54   294   2840
   73   317   2968
   98   342   3083
   117   360   3193
   10   501   1
   10   500   1
   11   499   275
   12   498   535
   14   499   801
   18   502   1078
   25   506   1362
   33   514   1647
   44   524   1908
   58   537   2137
   70   549   2339
   81   559   2519
   91   567   2680
   102   576   2825
   113   584   2957
   125   592   3078
   138   601   3190
   26   804   16
   26   803   16
   31   807   291
   36   812   543
   41   816   804
   47   822   1077
   54   828   1358
   62   835   1642
   71   842   1905
   81   850   2136
   91   858   2341
   102   865   2520
   114   873   2680
   126   881   2825
   139   889   2957
   153   897   3077
   167   905   3187
   40   1177   27
   41   1176   27
   46   1181   312
   52   1184   562
   58   1190   822
   66   1195   1093
   75   1201   1374
   85   1208   1657
   96   1214   1916
   108   1222   2145
   120   1230   2348
   134   1237   2526
   148   1244   2683
   163   1252   2829
   177   1259   2959
   192   1267   3078
   207   1274   3189
   62   1609   46
   63   1608   46
   70   1612   345
   77   1616   592
   86   1621   851
   96   1625   1121
   107   1631   1400
   120   1637   1681
   134   1643   1936
   149   1650   2162
   165   1657   2360
   181   1663   2537
   196   1670   2693
   211   1676   2835
   227   1683   2966
   242   1689   3083
   257   1695   3193
   96   2032   77
   98   2032   112
   107   2033   391
   116   2037   635
   127   2039   892
   140   2042   1161
   155   2046   1439
   170   2050   1716
   186   2055   1966
   203   2059   2186
   219   2064   2381
   235   2069   2554
   251   2072   2709
   267   2077   2848
   283   2081   2977
   299   2085   3093
   315   2089   3201
   149   2403   126
   153   2402   199
   164   2404   451
   176   2405   692
   189   2406   948
   203   2409   1216
   219   2412   1492
   235   2415   1762
   252   2418   2005
   269   2421   2219
   286   2424   2409
   303   2426   2579
   320   2430   2729
   336   2432   2867
   353   2435   2992
   370   2438   3106
   387   2440   3213
   215   2726   186
   220   2724   285
   230   2725   520
   240   2726   760
   253   2727   1014
   266   2728   1281
   279   2729   1554
   294   2731   1815
   308   2733   2049
   323   2735   2258
   338   2736   2444
   352   2737   2607
   366   2738   2754
   380   2739   2889
   394   2740   3011
   408   2741   3123
   421   2742   3228
   230   3005   196
   236   3002   328
   244   3002   559
   254   3001   801
   265   3002   1058
   276   3001   1326
   288   3001   1601
   300   3001   1857
   313   3001   2087
   326   3001   2291
   338   3001   2473
   351   3001   2634
   363   2999   2779
   376   2998   2911
   388   2998   3030
   400   2996   3141
   413   2995   3244
   230   3238   188
   236   3235   359
   243   3233   590
   251   3232   836
   260   3231   1097
   270   3230   1368
   280   3230   1642
   291   3229   1896
   302   3227   2121
   313   3226   2324
   323   3224   2501
   334   3222   2659
   345   3219   2802
   356   3218   2932
   367   3217   3050
   378   3215   3159
   390   3211   3260
   206   3449   157
   212   3447   375
   219   3443   611
   226   3442   864
   234   3439   1129
   242   3439   1403
   251   3436   1680
   260   3434   1931
   269   3430   2155
   278   3428   2352
   288   3425   2528
   297   3422   2684
   307   3420   2824
   317   3417   2952
   327   3414   3069
   337   3410   3176
   348   3407   3275
   151   3609   93
   157   3606   372
   162   3604   619
   168   3602   879
   174   3600   1150
   181   3598   1431
   188   3596   1709
   195   3593   1960
   203   3591   2181
   211   3588   2379
   220   3585   2551
   228   3582   2705
   237   3580   2843
   247   3577   2971
   257   3574   3085
   267   3570   3191
   278   3567   3290
   82   3731   64
   86   3728   346
   90   3726   608
   94   3723   878
   98   3721   1158
   102   3718   1443
   107   3716   1727
   112   3714   1980
   117   3711   2202
   122   3709   2396
   128   3705   2568
   134   3703   2722
   141   3699   2861
   149   3695   2986
   157   3692   3100
   166   3689   3206
   176   3686   3304
   73   3835   38
   76   3834   289
   78   3831   573
   82   3828   856
   85   3825   1146
   88   3823   1440
   91   3820   1731
   95   3818   1989
   98   3814   2213
   102   3811   2408
   106   3809   2580
   110   3805   2733
   114   3801   2871
   118   3798   2997
   122   3795   3111
   126   3791   3216
   131   3788   3314
   83   3923   52
   86   3921   209
   89   3918   523
   93   3916   821
   96   3914   1122
   100   3911   1424
   104   3908   1723
   107   3904   1987
   111   3901   2213
   116   3898   2410
   120   3894   2584
   124   3892   2739
   129   3888   2878
   133   3884   3004
   138   3880   3120
   143   3877   3224
   148   3873   3322
   67   0   2
   67   0   2
   62   0   302
   62   0   569
   62   0   844
   63   0   1130
   63   0   1423
   63   0   1714
   64   0   1974
   64   0   2201
   65   0   2401
   65   0   2575
   65   0   2730
   66   0   2869
   76   2   2997
   89   15   3111
   106   31   3217
   67   81   1
   68   81   1
   63   74   289
   64   69   555
   64   64   829
   65   59   1114
   65   56   1405
   65   55   1697
   66   55   1957
   66   56   2185
   67   60   2385
   67   66   2561
   69   73   2716
   79   83   2857
   92   96   2984
   107   113   3099
   128   135   3206
   67   243   0
   68   243   0
   65   235   277
   66   229   542
   66   224   813
   67   221   1093
   67   219   1382
   68   220   1672
   68   225   1934
   74   233   2163
   81   244   2363
   92   258   2539
   105   276   2695
   121   296   2837
   143   319   2964
   169   344   3080
   189   361   3190
   72   500   1
   73   500   1
   74   499   274
   75   498   534
   79   499   800
   83   502   1076
   90   507   1359
   98   514   1644
   110   525   1906
   125   538   2134
   138   549   2337
   150   559   2517
   161   568   2677
   172   576   2822
   185   584   2955
   197   593   3077
   211   602   3187
   90   803   16
   91   802   16
   96   807   292
   101   812   544
   106   816   805
   113   821   1077
   121   828   1357
   129   835   1642
   139   842   1904
   150   850   2135
   161   858   2339
   173   865   2519
   186   873   2678
   199   881   2822
   213   890   2956
   228   897   3076
   242   905   3186
   105   1176   28
   106   1176   28
   112   1180   315
   118   1184   564
   126   1189   824
   134   1195   1096
   144   1201   1374
   155   1207   1658
   167   1215   1917
   180   1222   2146
   194   1230   2347
   209   1237   2525
   224   1244   2683
   239   1252   2827
   254   1259   2959
   269   1267   3076
   284   1274   3187
   129   1609   46
   130   1608   46
   139   1611   349
   147   1616   596
   156   1620   855
   167   1625   1125
   180   1630   1403
   194   1636   1683
   209   1643   1939
   225   1650   2164
   241   1657   2361
   257   1663   2537
   273   1669   2693
   289   1676   2835
   305   1682   2965
   320   1688   3083
   336   1694   3192
   167   2031   77
   170   2030   126
   179   2033   397
   190   2035   640
   202   2038   898
   216   2042   1166
   231   2045   1444
   247   2050   1720
   264   2055   1969
   281   2058   2188
   297   2063   2384
   314   2068   2555
   331   2071   2709
   347   2076   2849
   364   2080   2977
   380   2085   3093
   397   2088   3200
   224   2403   126
   229   2401   210
   240   2402   458
   252   2404   700
   266   2406   956
   281   2409   1224
   297   2411   1499
   313   2414   1768
   331   2417   2009
   349   2420   2224
   366   2422   2413
   384   2426   2581
   401   2428   2731
   419   2432   2868
   436   2434   2993
   454   2437   3106
   472   2439   3212
   290   2724   187
   296   2723   295
   307   2724   530
   318   2724   769
   331   2725   1024
   345   2727   1290
   359   2728   1564
   374   2730   1823
   390   2731   2056
   405   2733   2263
   420   2734   2449
   436   2736   2610
   451   2737   2758
   466   2738   2891
   481   2739   3012
   496   2739   3124
   511   2739   3228
   308   3002   196
   315   3002   340
   325   3001   569
   335   3001   812
   346   3000   1070
   359   3000   1338
   372   2999   1612
   385   3000   1867
   399   2999   2095
   412   2999   2299
   426   2999   2478
   440   2998   2638
   454   2998   2782
   468   2997   2914
   481   2996   3033
   496   2995   3142
   510   2993   3244
   311   3235   189
   319   3233   371
   327   3232   603
   337   3232   851
   347   3230   1111
   358   3229   1382
   370   3228   1656
   381   3227   1908
   394   3224   2131
   406   3223   2332
   419   3222   2508
   431   3219   2665
   444   3218   2807
   457   3217   2935
   470   3215   3054
   483   3211   3161
   497   3209   3261
   294   3447   158
   302   3444   390
   310   3441   628
   319   3440   881
   328   3439   1146
   338   3436   1421
   348   3434   1696
   359   3430   1945
   370   3428   2166
   382   3425   2362
   393   3423   2536
   405   3420   2690
   417   3417   2830
   430   3415   2957
   442   3411   3071
   456   3407   3178
   470   3404   3278
   246   3606   94
   254   3604   391
   262   3603   639
   271   3600   900
   279   3598   1171
   289   3596   1451
   298   3593   1728
   308   3591   1975
   319   3588   2196
   330   3586   2390
   341   3583   2560
   353   3580   2712
   366   3577   2851
   379   3575   2975
   392   3571   3090
   406   3568   3195
   421   3564   3293
   168   3729   96
   174   3726   370
   181   3724   632
   188   3722   903
   195   3720   1183
   203   3716   1468
   211   3714   1749
   220   3711   1998
   229   3709   2218
   240   3706   2410
   251   3703   2579
   264   3700   2732
   277   3697   2868
   293   3694   2993
   308   3689   3105
   325   3686   3210
   343   3682   3306
   125   3834   58
   128   3831   321
   131   3828   603
   134   3826   886
   137   3824   1177
   140   3820   1471
   143   3818   1758
   147   3815   2011
   150   3812   2232
   154   3809   2424
   162   3805   2593
   171   3801   2744
   181   3798   2881
   193   3795   3004
   206   3791   3117
   221   3788   3222
   239   3783   3318
   135   3922   60
   138   3919   248
   141   3917   559
   144   3914   857
   148   3911   1157
   152   3908   1460
   155   3905   1754
   159   3901   2014
   163   3899   2236
   167   3895   2431
   172   3892   2600
   176   3888   2753
   180   3884   2890
   185   3880   3014
   190   3877   3127
   195   3873   3231
   200   3868   3328
   150   0   1
   150   0   1
   143   0   294
   138   0   561
   132   0   835
   127   0   1121
   124   0   1413
   122   0   1705
   122   0   1966
   124   0   2194
   127   0   2393
   133   0   2568
   141   0   2723
   152   0   2863
   165   7   2990
   183   21   3105
   206   37   3213
   151   80   0
   151   80   0
   145   73   284
   141   68   550
   136   64   823
   133   60   1107
   131   57   1398
   130   56   1688
   131   56   1950
   134   58   2178
   139   63   2380
   147   69   2555
   157   78   2710
   170   88   2851
   187   103   2979
   209   121   3093
