Resources/LUT/Action.3dl
# 17x17x17 .3dl lookup table from LUT Buddy
0 128 256 384 512 640 768 896 1023
   0   0   2
   0   0   317
   0   0   861
   0   0   1442
   0   0   1989
   0   0   2413
   0   0   2740
   1   2   3006
   30   30   3226
   0   244   0
   0   236   283
   0   224   820
   0   219   1391
   0   224   1942
   3   243   2371
   24   274   2703
   57   317   2971
   100   360   3197
   13   804   16
   17   808   291
   26   817   804
   37   829   1358
   52   842   1907
   71   858   2342
   91   873   2682
   114   890   2959
   140   905   3191
   43   1611   46
   49   1613   342
   63   1622   847
   82   1632   1398
   106   1645   1935
   134   1658   2360
   163   1671   2693
   190   1685   2966
   217   1696   3194
   121   2405   126
   133   2406   445
   155   2409   942
   182   2414   1486
   212   2419   1999
   243   2427   2407
   273   2432   2728
   302   2436   2991
   331   2443   3213
   191   3007   196
   202   3004   549
   218   3004   1047
   237   3003   1590
   257   3004   2079
   278   3004   2468
   297   3002   2775
   319   3000   3029
   343   2999   3243
   152   3451   156
   159   3447   596
   168   3442   1113
   180   3439   1665
   198   3435   2144
   215   3429   2520
   232   3422   2819
   249   3418   3064
   267   3412   3273
   22   3732   17
   27   3728   584
   32   3723   1132
   38   3718   1704
   44   3714   2184
   52   3708   2557
   61   3703   2851
   72   3695   3095
   83   3689   3299
   35   3926   44
   40   3922   487
   45   3916   1086
   51   3911   1691
   56   3904   2192
   65   3898   2567
   74   3891   2866
   84   3884   3110
   94   3877   3317
   67   0   2
   62   0   302
   62   0   844
   63   0   1423
   64   0   1974
   65   0   2401
   65   0   2730
   76   2   2997
   106   31   3217
   67   243   0
   65   235   277
   66   224   813
   67   219   1382
   68   225   1934
   81   244   2363
   105   276   2695
   143   319   2964
   189   361   3190
   90   803   16
   96   807   292
   106   816   805
   121   828   1357
   139   842   1904
   161   858   2339
   186   873   2678
   213   890   2956
   242   905   3186
   129   1609   46
   139   1611   349
   156   1620   855
   180   1630   1403
   209   1643   1939
   241   1657   2361
   273   1669   2693
   305   1682   2965
   336   1694   3192
   224   2403   126
   240   2402   458
   266   2406   956
   297   2411   1499
   331   2417   2009
   366   2422   2413
   401   2428   2731
   436   2434   2993
   472   2439   3212
   308   3002   196
   325   3001   569
   346   3000   1070
   372   2999   1612
   399   2999   2095
   426   2999   2478
   454   2998   2782
   481   2996   3033
   510   2993   3244
   294   3447   158
   310   3441   628
   328   3439   1146
   348   3434   1696
   370   3428   2166
   393   3423   2536
   417   3417   2830
   442   3411   3071
   470   3404   3278
   168   3729   96
   181   3724   632
   195   3720   1183
   211   3714   1749
   229   3709   2218
   251   3703   2579
   277   3697   2868
   308   3689   3105
   343   3682   3306
   135   3922   60
   141   3917   559
   148   3911   1157
   155   3905   1754
   163   3899   2236
   172   3892   2600
   180   3884   2890
   190   3877   3127
   200   3868   3328
   299   0   0
   290   0   284
   274   0   825
   263   0   1401
   262   0   1954
   273   0   2384
   299   1   2714
   338   18   2982
   388   53   3204
   302   238   0
   299   233   270
   296   226   803
   300   226   1370
   316   238   1920
   345   263   2351
   386   301   2684
   436   346   2954
   464   369   3185
   336   806   19
   348   811   299
   366   821   811
   389   833   1361
   414   848   1906
   442   863   2339
   470   880   2677
   498   896   2953
   528   913   3182
   401   1611   52
   416   1616   364
   439   1624   868
   467   1634   1415
   498   1648   1947
   531   1661   2367
   565   1675   2696
   598   1687   2965
   633   1700   3191
   507   2404   136
   527   2405   481
   555   2407   978
   588   2412   1521
   625   2419   2024
   664   2425   2423
   704   2431   2737
   745   2435   2996
   788   2441   3214
   598   3002   202
   620   3001   596
   647   3000   1098
   678   2999   1638
   712   2999   2114
   747   2998   2492
   784   2997   2791
   822   2994   3038
   861   2992   3248
   616   3444   159
   641   3439   662
   668   3435   1183
   698   3429   1729
   731   3424   2190
   767   3420   2552
   804   3414   2841
   845   3406   3079
   889   3399   3282
   551   3726   150
   580   3721   679
   612   3716   1232
   645   3710   1792
   682   3704   2249
   724   3698   2600
   771   3691   2883
   823   3684   3115
   881   3676   3312
   353   3918   77
   392   3912   631
   436   3907   1229
   484   3900   1816
   538   3893   2279
   599   3886   2628
   672   3878   2909
   753   3870   3139
   843   3861   3335
   821   0   0
   818   0   264
   812   0   802
   810   0   1371
   818   1   1924
   836   13   2356
   865   41   2689
   904   86   2959
   933   117   3189
   826   237   0
   828   237   269
   833   243   795
   845   258   1356
   868   287   1903
   898   324   2334
   925   348   2673
   951   368   2950
   979   389   3181
   849   819   29
   863   824   317
   883   835   825
   906   848   1375
   933   864   1915
   963   881   2343
   994   897   2679
   1026   915   2953
   1060   932   3180
   916   1626   68
   935   1629   391
   961   1639   893
   992   1650   1439
   1027   1664   1962
   1064   1679   2377
   1104   1692   2702
   1145   1705   2968
   1188   1719   3192
   1025   2413   164
   1051   2413   518
   1085   2417   1015
   1126   2423   1555
   1169   2429   2049
   1217   2435   2440
   1267   2442   2749
   1318   2447   3004
   1371   2452   3217
   1129   3007   214
   1160   3005   630
   1196   3004   1134
   1237   3004   1671
   1282   3002   2138
   1329   3002   2508
   1378   3000   2802
   1431   2997   3046
   1487   2994   3251
   1186   3445   167
   1222   3439   699
   1264   3436   1222
   1308   3430   1763
   1357   3424   2216
   1410   3419   2570
   1467   3412   2853
   1529   3404   3087
   1594   3396   3286
   1184   3723   188
   1230   3719   720
   1280   3714   1275
   1334   3708   1830
   1395   3702   2275
   1461   3695   2619
   1534   3688   2895
   1615   3680   3121
   1701   3672   3315
   1122   3914   109
   1183   3908   702
   1250   3902   1300
   1325   3895   1876
   1407   3888   2318
   1502   3880   2655
   1605   3872   2927
   1718   3863   3149
   1836   3853   3340
   1593   6   8
   1594   10   280
   1599   22   803
   1608   43   1361
   1627   67   1907
   1649   86   2340
   1670   108   2679
   1694   132   2956
   1718   158   3186
   1594   280   30
   1605   289   309
   1621   303   817
   1642   321   1365
   1666   341   1908
   1691   363   2339
   1718   385   2676
   1746   407   2951
   1776   429   3180
   1635   846   52
   1651   852   351
   1675   864   854
   1701   879   1400
   1730   897   1932
   1762   915   2354
   1795   934   2686
   1829   954   2957
   1866   974   3183
   1706   1654   106
   1728   1659   437
   1756   1669   934
   1790   1682   1476
   1826   1696   1989
   1865   1712   2395
   1904   1726   2714
   1945   1741   2978
   1987   1755   3197
   1811   2431   216
   1840   2433   578
   1876   2438   1073
   1915   2444   1605
   1957   2450   2084
   2001   2457   2464
   2044   2462   2766
   2089   2467   3014
   2135   2470   3224
   1910   3016   233
   1943   3015   672
   1980   3014   1175
   2022   3013   1709
   2064   3011   2165
   2109   3010   2527
   2155   3007   2817
   2203   3005   3053
   2253   3001   3257
   1987   3449   235
   2027   3444   734
   2069   3439   1260
   2114   3434   1796
   2162   3427   2240
   2212   3420   2585
   2264   3414   2863
   2321   3405   3093
   2380   3397   3288
   2034   3723   210
   2083   3719   750
   2135   3713   1310
   2190   3706   1860
   2248   3700   2296
   2311   3693   2632
   2376   3685   2902
   2445   3676   3124
   2517   3668   3315
   2072   3911   161
   2138   3905   772
   2209   3898   1369
   2282   3891   1931
   2359   3883   2355
   2440   3874   2681
   2524   3865   2943
   2614   3855   3158
   2706   3845   3343
   2413   60   61
   2419   66   341
   2428   79   842
   2439   98   1388
   2451   121   1925
   2465   148   2352
   2481   175   2687
   2496   202   2961
   2513   229   3189
   2428   334   70
   2437   343   357
   2448   358   855
   2463   378   1399
   2478   400   1931
   2497   424   2355
   2515   449   2687
   2535   473   2958
   2556   497   3184
   2455   895   105
   2467   903   409
   2483   917   905
   2502   934   1446
   2522   954   1965
   2545   976   2377
   2568   997   2702
   2593   1018   2967
   2619   1040   3189
   2498   1703   180
   2515   1709   506
   2536   1720   998
   2560   1734   1535
   2586   1751   2031
   2614   1767   2426
   2643   1783   2736
   2673   1799   2993
   2704   1815   3207
   2563   2462   277
   2585   2464   644
   2610   2468   1134
   2639   2473   1661
   2669   2478   2121
   2701   2483   2492
   2734   2488   2785
   2767   2491   3028
   2802   2494   3235
   2633   3032   252
   2659   3030   714
   2688   3028   1220
   2719   3027   1747
   2753   3025   2193
   2787   3022   2547
   2822   3019   2830
   2860   3015   3063
   2898   3010   3261
   2698   3455   271
   2730   3450   761
   2763   3444   1291
   2799   3438   1823
   2837   3433   2258
   2877   3424   2598
   2917   3416   2870
   2960   3408   3096
   3006   3399   3288
   2752   3724   207
   2791   3719   763
   2834   3713   1327
   2876   3705   1875
   2922   3699   2305
   2970   3691   2636
   3020   3683   2901
   3072   3673   3121
   3127   3663   3308
   2822   3909   221
   2871   3902   842
   2924   3895   1438
   2980   3887   1985
   3038   3879   2390
   3099   3869   2704
   3161   3859   2957
   3226   3848   3165
   3294   3836   3343
   3060   144   146
   3063   154   415
   3068   173   904
   3076   197   1443
   3084   224   1964
   3093   253   2380
   3103   281   2706
   3112   308   2974
   3124   336   3198
   3068   421   161
   3073   431   437
   3080   449   925
   3090   471   1462
   3101   495   1975
   3112   522   2385
   3125   547   2708
   3138   574   2973
   3152   600   3194
   3083   976   206
   3091   985   497
   3100   1001   984
   3112   1021   1518
   3127   1044   2016
   3142   1069   2414
   3158   1093   2727
   3173   1118   2985
   3192   1143   3203
   3105   1778   288
   3118   1785   610
   3132   1798   1095
   3148   1814   1623
   3165   1832   2091
   3183   1850   2470
   3203   1867   2768
   3223   1882   3014
   3246   1896   3223
   3144   2499   322
   3159   2500   702
   3176   2503   1191
   3195   2507   1710
   3216   2511   2156
   3237   2514   2517
   3260   2516   2804
   3285   2518   3042
   3310   2518   3242
   3188   3050   273
   3206   3048   748
   3227   3046   1255
   3249   3043   1777
   3273   3040   2214
   3299   3036   2561
   3325   3032   2839
   3355   3027   3067
   3385   3020   3263
   3232   3463   289
   3255   3458   770
   3281   3452   1304
   3308   3445   1834
   3337   3437   2264
   3368   3430   2599
   3399   3419   2869
   3433   3411   3091
   3463   3399   3280
   3275   3725   168
   3306   3719   746
   3338   3713   1316
   3372   3705   1867
   3407   3698   2296
   3444   3689   2625
   3474   3680   2888
   3505   3670   3106
   3538   3659   3290
   3337   3907   297
   3377   3900   917
   3418   3892   1511
   3457   3883   2038
   3491   3875   2426
   3526   3864   2727
   3561   3853   2971
   3596   3841   3170
   3632   3826   3343
   3512   282   282
   3513   292   530
   3516   312   1005
   3520   336   1535
   3522   364   2027
   3527   393   2425
   3533   423   2740
   3537   452   2998
   3542   483   3217
   3513   547   297
   3516   558   555
   3520   578   1032
   3525   602   1559
   3530   629   2043
   3536   659   2435
   3541   688   2744
   3548   718   3000
   3555   749   3215
   3518   1098   346
   3522   1109   627
   3528   1129   1103
   3534   1153   1625
   3540   1180   2090
   3548   1208   2469
   3556   1237   2769
   3564   1265   3017
   3574   1290   3224
   3527   1864   396
   3535   1869   713
   3541   1879   1188
   3549   1890   1698
   3558   1901   2142
   3567   1912   2503
   3577   1921   2792
   3587   1931   3030
   3597   1938   3233
   3545   2535   350
   3552   2536   744
   3560   2537   1232
   3570   2539   1746
   3580   2540   2182
   3591   2542   2534
   3603   2542   2815
   3614   2541   3047
   3627   2539   3244
   3564   3068   348
   3573   3064   757
   3584   3061   1267
   3595   3057   1787
   3607   3053   2220
   3619   3048   2562
   3633   3042   2836
   3647   3036   3062
   3662   3028   3256
   3584   3472   283
   3595   3465   744
   3608   3458   1283
   3622   3450   1818
   3636   3442   2250
   3652   3433   2584
   3667   3420   2853
   3684   3411   3073
   3702   3397   3260
   3605   3727   129
   3619   3721   688
   3636   3713   1269
   3653   3705   1828
   3670   3697   2263
   3690   3687   2595
   3709   3677   2861
   3729   3666   3081
   3750   3653   3265
   3634   3906   382
   3654   3898   1000
   3674   3889   1592
   3696   3881   2096
   3718   3870   2466
   3741   3858   2753
   3765   3846   2986
   3788   3831   3178
   3814   3815   3344
   3748   471   467
   3750   481   700
   3750   502   1163
   3752   529   1673
   3754   559   2124
   3756   581   2493
   3759   601   2788
   3763   619   3032
   3765   637   3240
   3747   731   484
   3749   743   732
   3750   761   1191
   3754   779   1690
   3757   798   2131
   3761   818   2495
   3764   836   2788
   3768   853   3029
   3773   870   3234
   3749   1225   473
   3751   1233   746
   3754   1246   1208
   3758   1261   1708
   3763   1277   2145
   3767   1292   2504
   3771   1306   2793
   3776   1320   3030
   3783   1330   3233
   3754   1918   430
   3757   1922   755
   3761   1928   1228
   3766   1935   1731
   3771   1942   2164
   3777   1949   2519
   3782   1953   2801
   3789   1957   3036
   3796   1959   3235
   3760   2565   352
   3765   2563   750
   3770   2563   1240
   3775   2562   1751
   3783   2561   2184
   3789   2559   2533
   3797   2555   2811
   3803   2552   3041
   3812   2547   3236
   3767   3081   344
   3774   3075   720
   3781   3071   1235
   3788   3067   1760
   3795   3061   2197
   3804   3052   2540
   3813   3045   2815
   3822   3035   3041
   3832   3027   3233
   3777   3478   220
   3784   3469   662
   3793   3461   1210
   3802   3452   1757
   3812   3441   2201
   3822   3430   2542
   3833   3418   2813
   3844   3404   3035
   3856   3389   3224
   3788   3730   179
   3797   3722   696
   3808   3715   1285
   3820   3706   1846
   3832   3697   2275
   3845   3687   2599
   3858   3677   2860
   3872   3665   3072
   3887   3651   3252
   3803   3907   544
   3816   3897   1103
   3831   3888   1691
   3845   3877   2164
   3860   3865   2515
   3877   3852   2789
   3895   3835   3011
   3912   3817   3192
   3933   3792   3346
