Resources/LUT/Action.3dl
# 17x17x17 .3dl lookup table from LUT Buddy
0 256 512 768 1023
   0   0   2
   0   0   861
   0   0   1989
   0   0   2740
   30   30   3226
   13   804   16
   26   817   804
   52   842   1907
   91   873   2682
   140   905   3191
   121   2405   126
   155   2409   942
   212   2419   1999
   273   2432   2728
   331   2443   3213
   152   3451   156
   168   3442   1113
   198   3435   2144
   232   3422   2819
   267   3412   3273
   35   3926   44
   45   3916   1086
   56   3904   2192
   74   3891   2866
   94   3877   3317
   299   0   0
   274   0   825
   262   0   1954
   299   1   2714
   388   53   3204
   336   806   19
   366   821   811
   414   848   1906
   470   880   2677
   528   913   3182
   507   2404   136
   555   2407   978
   625   2419   2024
   704   2431   2737
   788   2441   3214
   616   3444   159
   668   3435   1183
   731   3424   2190
   804   3414   2841
   889   3399   3282
   353   3918   77
   436   3907   1229
   538   3893   2279
   672   3878   2909
   843   3861   3335
   1593   6   8
   1599   22   803
   1627   67   1907
   1670   108   2679
   1718   158   3186
   1635   846   52
   1675   864   854
   1730   897   1932
   1795   934   2686
   1866   974   3183
   1811   2431   216
   1876   2438   1073
   1957   2450   2084
   2044   2462   2766
   2135   2470   3224
   1987   3449   235
   2069   3439   1260
   2162   3427   2240
   2264   3414   2863
   2380   3397   3288
   2072   3911   161
   2209   3898   1369
   2359   3883   2355
   2524   3865   2943
   2706   3845   3343
   3060   144   146
   3068   173   904
   3084   224   1964
   3103   281   2706
   3124   336   3198
   3083   976   206
   3100   1001   984
   3127   1044   2016
   3158   1093   2727
   3192   1143   3203
   3144   2499   322
   3176   2503   1191
   3216   2511   2156
   3260   2516   2804
   3310   2518   3242
   3232   3463   289
   3281   3452   1304
   3337   3437   2264
   3399   3419   2869
   3463   3399   3280
   3337   3907   297
   3418   3892   1511
   3491   3875   2426
   3561   3853   2971
   3632   3826   3343
   3748   471   467
   3750   502   1163
   3754   559   2124
   3759   601   2788
   3765   637   3240
   3749   1225   473
   3754   1246   1208
   3763   1277   2145
   3771   1306   2793
   3783   1330   3233
   3760   2565   352
   3770   2563   1240
   3783   2561   2184
   3797   2555   2811
   3812   2547   3236
   3777   3478   220
   3793   3461   1210
   3812   3441   2201
   3833   3418   2813
   3856   3389   3224
   3803   3907   544
   3831   3888   1691
   3860   3865   2515
   3895   3835   3011
   3933   3792   3346
