Resources/LUT/Auto Art.3dl
# 17x17x17 .3dl lookup table from LUT Buddy
0 256 512 768 1023
   0   0   0
   38   38   38
   498   498   498
   838   838   838
   1121   1121   1121
   233   233   233
   398   398   398
   698   698   698
   983   983   983
   1231   1231   1231
   798   798   798
   879   879   879
   1070   1070   1070
   1282   1282   1282
   1519   1519   1519
   1275   1275   1275
   1347   1347   1347
   1522   1522   1522
   1757   1757   1757
   2029   2029   2029
   1923   1923   1923
   2040   2040   2040
   2252   2252   2252
   2486   2486   2486
   2725   2725   2725
   142   142   142
   334   334   334
   665   665   665
   960   960   960
   1217   1217   1217
   503   503   503
   613   613   613
   850   850   850
   1107   1107   1107
   1342   1342   1342
   947   947   947
   1028   1028   1028
   1204   1204   1204
   1418   1418   1418
   1672   1672   1672
   1408   1408   1408
   1501   1501   1501
   1696   1696   1696
   1950   1950   1950
   2237   2237   2237
   2114   2114   2114
   2257   2257   2257
   2480   2480   2480
   2713   2713   2713
   2948   2948   2948
   718   718   718
   800   800   800
   1005   1005   1005
   1232   1232   1232
   1473   1473   1473
   899   899   899
   977   977   977
   1159   1159   1159
   1371   1371   1371
   1625   1625   1625
   1235   1235   1235
   1311   1311   1311
   1487   1487   1487
   1728   1728   1728
   2012   2012   2012
   1713   1713   1713
   1833   1833   1833
   2062   2062   2062
   2330   2330   2330
   2600   2600   2600
   2469   2469   2469
   2628   2628   2628
   2846   2846   2846
   3066   3066   3066
   3286   3286   3286
   1187   1187   1187
   1244   1244   1244
   1404   1404   1404
   1634   1634   1634
   1910   1910   1910
   1317   1317   1317
   1384   1384   1384
   1560   1560   1560
   1805   1805   1805
   2094   2094   2094
   1642   1642   1642
   1738   1738   1738
   1950   1950   1950
   2221   2221   2221
   2502   2502   2502
   2195   2195   2195
   2333   2333   2333
   2559   2559   2559
   2803   2803   2803
   3045   3045   3045
   2914   2914   2914
   3077   3077   3077
   3277   3277   3277
   3475   3475   3475
   3663   3663   3663
   1716   1716   1716
   1781   1781   1781
   1975   1975   1975
   2237   2237   2237
   2515   2515   2515
   1865   1865   1865
   1947   1947   1947
   2155   2155   2155
   2412   2412   2412
   2675   2675   2675
   2234   2234   2234
   2343   2343   2343
   2551   2551   2551
   2790   2790   2790
   3031   3031   3031
   2758   2758   2758
   2883   2883   2883
   3085   3085   3085
   3297   3297   3297
   3503   3503   3503
   3375   3375   3375
   3530   3530   3530
   3696   3696   3696
   3844   3844   3844
   3973   3973   3973
