Resources/LUT/Auto Art.3dl
# 17x17x17 .3dl lookup table from LUT Buddy
   0   64   128   192   256   320   384   448   512   576   640   704   768   832   896   960   1023
   0   0   0
   0   0   0
   0   0   0
   4   4   4
   38   38   38
   129   129   129
   261   261   261
   387   387   387
   498   498   498
   594   594   594
   681   681   681
   761   761   761
   838   838   838
   914   914   914
   985   985   985
   1054   1054   1054
   1121   1121   1121
   0   0   0
   0   0   0
   2   2   2
   21   21   21
   77   77   77
   185   185   185
   309   309   309
   425   425   425
   528   528   528
   619   619   619
   704   704   704
   782   782   782
   858   858   858
   931   931   931
   1002   1002   1002
   1069   1069   1069
   1135   1135   1135
   10   10   10
   10   10   10
   28   28   28
   71   71   71
   153   153   153
   263   263   263
   373   373   373
   477   477   477
   570   570   570
   655   655   655
   735   735   735
   812   812   812
   885   885   885
   957   957   957
   1026   1026   1026
   1094   1094   1094
   1159   1159   1159
   79   79   79
   79   79   79
   118   118   118
   185   185   185
   270   270   270
   363   363   363
   457   457   457
   544   544   544
   627   627   627
   707   707   707
   783   783   783
   857   857   857
   928   928   928
   996   996   996
   1063   1063   1063
   1128   1128   1128
   1190   1190   1190
   233   233   233
   233   233   233
   274   274   274
   330   330   330
   398   398   398
   474   474   474
   549   549   549
   623   623   623
   698   698   698
   772   772   772
   845   845   845
   914   914   914
   983   983   983
   1048   1048   1048
   1111   1111   1111
   1173   1173   1173
   1231   1231   1231
   397   397   397
   396   396   396
   428   428   428
   471   471   471
   524   524   524
   583   583   583
   646   646   646
   713   713   713
   779   779   779
   849   849   849
   917   917   917
   983   983   983
   1047   1047   1047
   1108   1108   1108
   1169   1169   1169
   1226   1226   1226
   1284   1284   1284
   542   542   542
   542   542   542
   566   566   566
   600   600   600
   642   642   642
   692   692   692
   747   747   747
   808   808   808
   871   871   871
   935   935   935
   998   998   998
   1060   1060   1060
   1119   1119   1119
   1177   1177   1177
   1232   1232   1232
   1290   1290   1290
   1349   1349   1349
   672   672   672
   672   672   672
   693   693   693
   722   722   722
   759   759   759
   804   804   804
   855   855   855
   910   910   910
   969   969   969
   1028   1028   1028
   1086   1086   1086
   1144   1144   1144
   1198   1198   1198
   1252   1252   1252
   1307   1307   1307
   1365   1365   1365
   1426   1426   1426
   798   798   798
   800   800   800
   818   818   818
   844   844   844
   879   879   879
   919   919   919
   966   966   966
   1017   1017   1017
   1070   1070   1070
   1126   1126   1126
   1178   1178   1178
   1230   1230   1230
   1282   1282   1282
   1336   1336   1336
   1396   1396   1396
   1454   1454   1454
   1519   1519   1519
   924   924   924
   926   926   926
   942   942   942
   967   967   967
   999   999   999
   1035   1035   1035
   1079   1079   1079
   1125   1125   1125
   1173   1173   1173
   1223   1223   1223
   1273   1273   1273
   1326   1326   1326
   1379   1379   1379
   1436   1436   1436
   1496   1496   1496
   1558   1558   1558
   1621   1621   1621
   1045   1045   1045
   1048   1048   1048
   1064   1064   1064
   1086   1086   1086
   1115   1115   1115
   1150   1150   1150
   1190   1190   1190
   1232   1232   1232
   1277   1277   1277
   1327   1327   1327
   1379   1379   1379
   1433   1433   1433
   1488   1488   1488
   1549   1549   1549
   1610   1610   1610
   1677   1677   1677
   1745   1745   1745
   1161   1161   1161
   1167   1167   1167
   1182   1182   1182
   1201   1201   1201
   1227   1227   1227
   1261   1261   1261
   1298   1298   1298
   1342   1342   1342
   1390   1390   1390
   1441   1441   1441
   1499   1499   1499
   1554   1554   1554
   1616   1616   1616
   1677   1677   1677
   1742   1742   1742
   1809   1809   1809
   1881   1881   1881
   1275   1275   1275
   1283   1283   1283
   1296   1296   1296
   1318   1318   1318
   1347   1347   1347
   1381   1381   1381
   1422   1422   1422
   1469   1469   1469
   1522   1522   1522
   1578   1578   1578
   1634   1634   1634
   1695   1695   1695
   1757   1757   1757
   1822   1822   1822
   1885   1885   1885
   1955   1955   1955
   2029   2029   2029
   1404   1404   1404
   1416   1416   1416
   1432   1432   1432
   1459   1459   1459
   1491   1491   1491
   1527   1527   1527
   1569   1569   1569
   1620   1620   1620
   1675   1675   1675
   1731   1731   1731
   1792   1792   1792
   1855   1855   1855
   1918   1918   1918
   1984   1984   1984
   2053   2053   2053
   2124   2124   2124
   2193   2193   2193
   1554   1554   1554
   1571   1571   1571
   1592   1592   1592
   1618   1618   1618
   1654   1654   1654
   1693   1693   1693
   1740   1740   1740
   1793   1793   1793
   1850   1850   1850
   1909   1909   1909
   1970   1970   1970
   2035   2035   2035
   2101   2101   2101
   2166   2166   2166
   2235   2235   2235
   2300   2300   2300
   2369   2369   2369
   1732   1732   1732
   1746   1746   1746
   1771   1771   1771
   1799   1799   1799
   1838   1838   1838
   1882   1882   1882
   1932   1932   1932
   1986   1986   1986
   2044   2044   2044
   2105   2105   2105
   2170   2170   2170
   2229   2229   2229
   2294   2294   2294
   2359   2359   2359
   2418   2418   2418
   2483   2483   2483
   2548   2548   2548
   1923   1923   1923
   1942   1942   1942
   1967   1967   1967
   2003   2003   2003
   2040   2040   2040
   2091   2091   2091
   2142   2142   2142
   2198   2198   2198
   2252   2252   2252
   2312   2312   2312
   2371   2371   2371
   2428   2428   2428
   2486   2486   2486
   2548   2548   2548
   2607   2607   2607
   2668   2668   2668
   2725   2725   2725
   0   0   0
   0   0   0
   0   0   0
   5   5   5
   42   42   42
   135   135   135
   268   268   268
   392   392   392
   502   502   502
   598   598   598
   684   684   684
   764   764   764
   843   843   843
   917   917   917
   989   989   989
   1058   1058   1058
   1124   1124   1124
   0   0   0
   0   0   0
   4   4   4
   26   26   26
   86   86   86
   196   196   196
   318   318   318
   433   433   433
   535   535   535
   624   624   624
   709   709   709
   787   787   787
   863   863   863
   936   936   936
   1006   1006   1006
   1075   1075   1075
   1141   1141   1141
   15   15   15
   15   15   15
   36   36   36
   83   83   83
   169   169   169
   277   277   277
   385   385   385
   487   487   487
   578   578   578
   663   663   663
   743   743   743
   819   819   819
   893   893   893
   964   964   964
   1034   1034   1034
   1099   1099   1099
   1166   1166   1166
   93   93   93
   94   94   94
   136   136   136
   204   204   204
   288   288   288
   379   379   379
   470   470   470
   556   556   556
   638   638   638
   717   717   717
   793   793   793
   866   866   866
   936   936   936
   1005   1005   1005
   1072   1072   1072
   1137   1137   1137
   1197   1197   1197
   253   253   253
   253   253   253
   294   294   294
   349   349   349
   416   416   416
   489   489   489
   562   562   562
   636   636   636
   711   711   711
   784   784   784
   855   855   855
   925   925   925
   993   993   993
   1058   1058   1058
   1121   1121   1121
   1183   1183   1183
   1241   1241   1241
   414   414   414
   414   414   414
   447   447   447
   489   489   489
   541   541   541
   598   598   598
   660   660   660
   726   726   726
   793   793   793
   862   862   862
   930   930   930
   995   995   995
   1059   1059   1059
   1121   1121   1121
   1180   1180   1180
   1238   1238   1238
   1298   1298   1298
   558   558   558
   558   558   558
   583   583   583
   616   616   616
   658   658   658
   708   708   708
   763   763   763
   823   823   823
   886   886   886
   950   950   950
   1012   1012   1012
   1074   1074   1074
   1134   1134   1134
   1191   1191   1191
   1246   1246   1246
   1304   1304   1304
   1364   1364   1364
   688   688   688
   689   689   689
   710   710   710
   738   738   738
   776   776   776
   821   821   821
   872   872   872
   927   927   927
   985   985   985
   1043   1043   1043
   1103   1103   1103
   1159   1159   1159
   1213   1213   1213
   1268   1268   1268
   1323   1323   1323
   1383   1383   1383
   1447   1447   1447
   814   814   814
   816   816   816
   835   835   835
   862   862   862
   896   896   896
   938   938   938
   985   985   985
   1034   1034   1034
   1089   1089   1089
   1143   1143   1143
   1196   1196   1196
   1247   1247   1247
   1300   1300   1300
   1356   1356   1356
   1415   1415   1415
   1478   1478   1478
   1542   1542   1542
   939   939   939
   943   943   943
   960   960   960
   985   985   985
   1017   1017   1017
   1055   1055   1055
   1097   1097   1097
   1145   1145   1145
   1192   1192   1192
   1242   1242   1242
   1293   1293   1293
   1346   1346   1346
   1401   1401   1401
   1460   1460   1460
   1520   1520   1520
   1585   1585   1585
   1651   1651   1651
   1061   1061   1061
   1066   1066   1066
   1081   1081   1081
   1105   1105   1105
   1136   1136   1136
   1171   1171   1171
   1209   1209   1209
   1251   1251   1251
   1298   1298   1298
   1349   1349   1349
   1402   1402   1402
   1458   1458   1458
   1516   1516   1516
   1576   1576   1576
   1639   1639   1639
   1704   1704   1704
   1771   1771   1771
   1178   1178   1178
   1184   1184   1184
   1199   1199   1199
   1221   1221   1221
   1248   1248   1248
   1283   1283   1283
   1321   1321   1321
   1366   1366   1366
   1415   1415   1415
   1470   1470   1470
   1523   1523   1523
   1582   1582   1582
   1643   1643   1643
   1704   1704   1704
   1769   1769   1769
   1839   1839   1839
   1908   1908   1908
   1293   1293   1293
   1300   1300   1300
   1318   1318   1318
   1340   1340   1340
   1370   1370   1370
   1407   1407   1407
   1450   1450   1450
   1498   1498   1498
   1549   1549   1549
   1606   1606   1606
   1662   1662   1662
   1722   1722   1722
   1786   1786   1786
   1851   1851   1851
   1917   1917   1917
   1987   1987   1987
   2058   2058   2058
   1425   1425   1425
   1436   1436   1436
   1455   1455   1455
   1483   1483   1483
   1514   1514   1514
   1553   1553   1553
   1598   1598   1598
   1649   1649   1649
   1704   1704   1704
   1762   1762   1762
   1823   1823   1823
   1885   1885   1885
   1951   1951   1951
   2017   2017   2017
   2088   2088   2088
   2157   2157   2157
   2227   2227   2227
   1580   1580   1580
   1596   1596   1596
   1617   1617   1617
   1643   1643   1643
   1680   1680   1680
   1722   1722   1722
   1770   1770   1770
   1823   1823   1823
   1882   1882   1882
   1942   1942   1942
   2005   2005   2005
   2067   2067   2067
   2138   2138   2138
   2204   2204   2204
   2270   2270   2270
   2334   2334   2334
   2401   2401   2401
   1753   1753   1753
   1772   1772   1772
   1794   1794   1794
   1828   1828   1828
   1865   1865   1865
   1914   1914   1914
   1965   1965   1965
   2020   2020   2020
   2081   2081   2081
   2144   2144   2144
   2207   2207   2207
   2268   2268   2268
   2332   2332   2332
   2395   2395   2395
   2456   2456   2456
   2522   2522   2522
   2585   2585   2585
   1948   1948   1948
   1967   1967   1967
   2000   2000   2000
   2032   2032   2032
   2077   2077   2077
   2124   2124   2124
   2179   2179   2179
   2234   2234   2234
   2293   2293   2293
   2354   2354   2354
   2410   2410   2410
   2469   2469   2469
   2530   2530   2530
   2586   2586   2586
   2647   2647   2647
   2709   2709   2709
   2767   2767   2767
   0   0   0
   0   0   0
   8   8   8
   35   35   35
   102   102   102
   215   215   215
   334   334   334
   446   446   446
   545   545   545
   634   634   634
   717   717   717
   795   795   795
   871   871   871
   943   943   943
   1013   1013   1013
   1082   1082   1082
   1148   1148   1148
   12   12   12
   12   12   12
   32   32   32
   77   77   77
   162   162   162
   272   272   272
   381   381   381
   483   483   483
   575   575   575
   661   661   661
   741   741   741
   817   817   817
   891   891   891
   962   962   962
   1031   1031   1031
   1098   1098   1098
   1163   1163   1163
   58   58   58
   58   58   58
   95   95   95
   159   159   159
   248   248   248
   344   344   344
   441   441   441
   532   532   532
   617   617   617
   698   698   698
   775   775   775
   850   850   850
   921   921   921
   991   991   991
   1058   1058   1058
   1124   1124   1124
   1186   1186   1186
   172   172   172
   173   173   173
   218   218   218
   280   280   280
   355   355   355
   436   436   436
   518   518   518
   597   597   597
   675   675   675
   750   750   750
   824   824   824
   895   895   895
   964   964   964
   1031   1031   1031
   1097   1097   1097
   1161   1161   1161
   1220   1220   1220
   324   324   324
   324   324   324
   361   361   361
   410   410   410
   471   471   471
   536   536   536
   603   603   603
   675   675   675
   745   745   745
   816   816   816
   887   887   887
   954   954   954
   1021   1021   1021
   1084   1084   1084
   1146   1146   1146
   1205   1205   1205
   1265   1265   1265
   469   469   469
   469   469   469
   499   499   499
   536   536   536
   584   584   584
   638   638   638
   697   697   697
   760   760   760
   827   827   827
   893   893   893
   960   960   960
   1023   1023   1023
   1086   1086   1086
   1147   1147   1147
   1204   1204   1204
   1261   1261   1261
   1320   1320   1320
   599   599   599
   600   600   600
   623   623   623
   655   655   655
   695   695   695
   745   745   745
   798   798   798
   855   855   855
   917   917   917
   979   979   979
   1041   1041   1041
   1101   1101   1101
   1160   1160   1160
   1215   1215   1215
   1271   1271   1271
   1330   1330   1330
   1390   1390   1390
   723   723   723
   725   725   725
   746   746   746
   774   774   774
   811   811   811
   855   855   855
   905   905   905
   959   959   959
   1015   1015   1015
   1073   1073   1073
   1130   1130   1130
   1185   1185   1185
   1239   1239   1239
   1293   1293   1293
   1351   1351   1351
   1411   1411   1411
   1474   1474   1474
   846   846   846
   850   850   850
   868   868   868
   894   894   894
   929   929   929
   969   969   969
   1016   1016   1016
   1066   1066   1066
   1117   1117   1117
   1172   1172   1172
   1222   1222   1222
   1274   1274   1274
   1329   1329   1329
   1386   1386   1386
   1444   1444   1444
   1508   1508   1508
   1571   1571   1571
   970   970   970
   974   974   974
   991   991   991
   1017   1017   1017
   1047   1047   1047
   1085   1085   1085
   1128   1128   1128
   1173   1173   1173
   1220   1220   1220
   1270   1270   1270
   1321   1321   1321
   1376   1376   1376
   1432   1432   1432
   1492   1492   1492
   1552   1552   1552
   1617   1617   1617
   1685   1685   1685
   1090   1090   1090
   1096   1096   1096
   1111   1111   1111
   1136   1136   1136
   1165   1165   1165
   1199   1199   1199
   1237   1237   1237
   1280   1280   1280
   1328   1328   1328
   1379   1379   1379
   1434   1434   1434
   1491   1491   1491
   1550   1550   1550
   1610   1610   1610
   1674   1674   1674
   1742   1742   1742
   1810   1810   1810
   1204   1204   1204
   1211   1211   1211
   1226   1226   1226
   1249   1249   1249
   1277   1277   1277
   1312   1312   1312
   1353   1353   1353
   1399   1399   1399
   1450   1450   1450
   1505   1505   1505
   1561   1561   1561
   1619   1619   1619
   1682   1682   1682
   1743   1743   1743
   1809   1809   1809
   1880   1880   1880
   1949   1949   1949
   1321   1321   1321
   1329   1329   1329
   1346   1346   1346
   1372   1372   1372
   1403   1403   1403
   1441   1441   1441
   1485   1485   1485
   1533   1533   1533
   1587   1587   1587
   1643   1643   1643
   1703   1703   1703
   1763   1763   1763
   1828   1828   1828
   1895   1895   1895
   1964   1964   1964
   2034   2034   2034
   2109   2109   2109
   1455   1455   1455
   1470   1470   1470
   1490   1490   1490
   1517   1517   1517
   1550   1550   1550
   1590   1590   1590
   1636   1636   1636
   1691   1691   1691
   1747   1747   1747
   1805   1805   1805
   1868   1868   1868
   1932   1932   1932
   1997   1997   1997
   2064   2064   2064
   2134   2134   2134
   2207   2207   2207
   2275   2275   2275
   1612   1612   1612
   1630   1630   1630
   1650   1650   1650
   1683   1683   1683
   1719   1719   1719
   1764   1764   1764
   1813   1813   1813
   1868   1868   1868
   1927   1927   1927
   1989   1989   1989
   2054   2054   2054
   2120   2120   2120
   2186   2186   2186
   2253   2253   2253
   2317   2317   2317
   2384   2384   2384
   2455   2455   2455
   1794   1794   1794
   1811   1811   1811
   1838   1838   1838
   1869   1869   1869
   1909   1909   1909
   1959   1959   1959
   2012   2012   2012
   2072   2072   2072
   2132   2132   2132
   2193   2193   2193
   2256   2256   2256
   2317   2317   2317
   2384   2384   2384
   2445   2445   2445
   2508   2508   2508
   2568   2568   2568
   2632   2632   2632
   1993   1993   1993
   2013   2013   2013
   2040   2040   2040
   2081   2081   2081
   2125   2125   2125
   2175   2175   2175
   2230   2230   2230
   2285   2285   2285
   2344   2344   2344
   2402   2402   2402
   2461   2461   2461
   2521   2521   2521
   2581   2581   2581
   2637   2637   2637
   2699   2699   2699
   2759   2759   2759
   2816   2816   2816
   30   30   30
   30   30   30
   60   60   60
   116   116   116
   207   207   207
   311   311   311
   414   414   414
   511   511   511
   599   599   599
   683   683   683
   761   761   761
   836   836   836
   909   909   909
   980   980   980
   1048   1048   1048
   1114   1114   1114
   1179   1179   1179
   72   72   72
   73   73   73
   113   113   113
   180   180   180
   267   267   267
   362   362   362
   455   455   455
   544   544   544
   628   628   628
   708   708   708
   785   785   785
   859   859   859
   930   930   930
   1000   1000   1000
   1066   1066   1066
   1131   1131   1131
