Resources/LUT/Auto Art.3dl
# 17x17x17 .3dl lookup table from LUT Buddy
0 128 256 384 512 640 768 896 1023
   0   0   0
   0   0   0
   38   38   38
   261   261   261
   498   498   498
   681   681   681
   838   838   838
   985   985   985
   1121   1121   1121
   10   10   10
   28   28   28
   153   153   153
   373   373   373
   570   570   570
   735   735   735
   885   885   885
   1026   1026   1026
   1159   1159   1159
   233   233   233
   274   274   274
   398   398   398
   549   549   549
   698   698   698
   845   845   845
   983   983   983
   1111   1111   1111
   1231   1231   1231
   542   542   542
   566   566   566
   642   642   642
   747   747   747
   871   871   871
   998   998   998
   1119   1119   1119
   1232   1232   1232
   1349   1349   1349
   798   798   798
   818   818   818
   879   879   879
   966   966   966
   1070   1070   1070
   1178   1178   1178
   1282   1282   1282
   1396   1396   1396
   1519   1519   1519
   1045   1045   1045
   1064   1064   1064
   1115   1115   1115
   1190   1190   1190
   1277   1277   1277
   1379   1379   1379
   1488   1488   1488
   1610   1610   1610
   1745   1745   1745
   1275   1275   1275
   1296   1296   1296
   1347   1347   1347
   1422   1422   1422
   1522   1522   1522
   1634   1634   1634
   1757   1757   1757
   1885   1885   1885
   2029   2029   2029
   1554   1554   1554
   1592   1592   1592
   1654   1654   1654
   1740   1740   1740
   1850   1850   1850
   1970   1970   1970
   2101   2101   2101
   2235   2235   2235
   2369   2369   2369
   1923   1923   1923
   1967   1967   1967
   2040   2040   2040
   2142   2142   2142
   2252   2252   2252
   2371   2371   2371
   2486   2486   2486
   2607   2607   2607
   2725   2725   2725
   0   0   0
   8   8   8
   102   102   102
   334   334   334
   545   545   545
   717   717   717
   871   871   871
   1013   1013   1013
   1148   1148   1148
   58   58   58
   95   95   95
   248   248   248
   441   441   441
   617   617   617
   775   775   775
   921   921   921
   1058   1058   1058
   1186   1186   1186
   324   324   324
   361   361   361
   471   471   471
   603   603   603
   745   745   745
   887   887   887
   1021   1021   1021
   1146   1146   1146
   1265   1265   1265
   599   599   599
   623   623   623
   695   695   695
   798   798   798
   917   917   917
   1041   1041   1041
   1160   1160   1160
   1271   1271   1271
   1390   1390   1390
   846   846   846
   868   868   868
   929   929   929
   1016   1016   1016
   1117   1117   1117
   1222   1222   1222
   1329   1329   1329
   1444   1444   1444
   1571   1571   1571
   1090   1090   1090
   1111   1111   1111
   1165   1165   1165
   1237   1237   1237
   1328   1328   1328
   1434   1434   1434
   1550   1550   1550
   1674   1674   1674
   1810   1810   1810
   1321   1321   1321
   1346   1346   1346
   1403   1403   1403
   1485   1485   1485
   1587   1587   1587
   1703   1703   1703
   1828   1828   1828
   1964   1964   1964
   2109   2109   2109
   1612   1612   1612
   1650   1650   1650
   1719   1719   1719
   1813   1813   1813
   1927   1927   1927
   2054   2054   2054
   2186   2186   2186
   2317   2317   2317
   2455   2455   2455
   1993   1993   1993
   2040   2040   2040
   2125   2125   2125
   2230   2230   2230
   2344   2344   2344
   2461   2461   2461
   2581   2581   2581
   2699   2699   2699
   2816   2816   2816
   142   142   142
   191   191   191
   334   334   334
   504   504   504
   665   665   665
   817   817   817
   960   960   960
   1093   1093   1093
   1217   1217   1217
   293   293   293
   333   333   333
   448   448   448
   587   587   587
   731   731   731
   874   874   874
   1011   1011   1011
   1138   1138   1138
   1259   1259   1259
   503   503   503
   532   532   532
   613   613   613
   724   724   724
   850   850   850
   982   982   982
   1107   1107   1107
   1224   1224   1224
   1342   1342   1342
   720   720   720
   743   743   743
   808   808   808
   904   904   904
   1015   1015   1015
   1130   1130   1130
   1240   1240   1240
   1354   1354   1354
   1479   1479   1479
   947   947   947
   970   970   970
   1028   1028   1028
   1110   1110   1110
   1204   1204   1204
   1306   1306   1306
   1418   1418   1418
   1539   1539   1539
   1672   1672   1672
   1176   1176   1176
   1199   1199   1199
   1251   1251   1251
   1325   1325   1325
   1422   1422   1422
   1533   1533   1533
   1654   1654   1654
   1785   1785   1785
   1926   1926   1926
   1408   1408   1408
   1441   1441   1441
   1501   1501   1501
   1588   1588   1588
   1696   1696   1696
   1818   1818   1818
   1950   1950   1950
   2089   2089   2089
   2237   2237   2237
   1718   1718   1718
   1761   1761   1761
   1837   1837   1837
   1939   1939   1939
   2062   2062   2062
   2189   2189   2189
   2321   2321   2321
   2451   2451   2451
   2583   2583   2583
   2114   2114   2114
   2170   2170   2170
   2257   2257   2257
   2366   2366   2366
   2480   2480   2480
   2597   2597   2597
   2713   2713   2713
   2830   2830   2830
   2948   2948   2948
   463   463   463
   492   492   492
   578   578   578
   693   693   693
   823   823   823
   958   958   958
   1085   1085   1085
   1206   1206   1206
   1324   1324   1324
   555   555   555
   580   580   580
   655   655   655
   760   760   760
   884   884   884
   1012   1012   1012
   1135   1135   1135
   1249   1249   1249
   1368   1368   1368
   696   696   696
   719   719   719
   785   785   785
   881   881   881
   994   994   994
   1113   1113   1113
   1224   1224   1224
   1337   1337   1337
   1461   1461   1461
   877   877   877
   899   899   899
   959   959   959
   1044   1044   1044
   1146   1146   1146
   1250   1250   1250
   1359   1359   1359
   1481   1481   1481
   1610   1610   1610
   1082   1082   1082
   1104   1104   1104
   1159   1159   1159
   1232   1232   1232
   1324   1324   1324
   1432   1432   1432
   1551   1551   1551
   1678   1678   1678
   1817   1817   1817
   1291   1291   1291
   1318   1318   1318
   1374   1374   1374
   1456   1456   1456
   1559   1559   1559
   1675   1675   1675
   1805   1805   1805
   1942   1942   1942
   2091   2091   2091
   1538   1538   1538
   1576   1576   1576
   1644   1644   1644
   1739   1739   1739
   1856   1856   1856
   1985   1985   1985
   2123   2123   2123
   2264   2264   2264
   2404   2404   2404
   1869   1869   1869
   1920   1920   1920
   2004   2004   2004
   2112   2112   2112
   2239   2239   2239
   2366   2366   2366
   2491   2491   2491
   2618   2618   2618
   2748   2748   2748
   2276   2276   2276
   2342   2342   2342
   2430   2430   2430
   2537   2537   2537
   2651   2651   2651
   2765   2765   2765
   2878   2878   2878
   2991   2991   2991
   3106   3106   3106
   718   718   718
   737   737   737
   800   800   800
   893   893   893
   1005   1005   1005
   1121   1121   1121
   1232   1232   1232
   1346   1346   1346
   1473   1473   1473
   783   783   783
   802   802   802
   864   864   864
   954   954   954
   1060   1060   1060
   1173   1173   1173
   1280   1280   1280
   1395   1395   1395
   1525   1525   1525
   899   899   899
   919   919   919
   977   977   977
   1061   1061   1061
   1159   1159   1159
   1262   1262   1262
   1371   1371   1371
   1494   1494   1494
   1625   1625   1625
   1056   1056   1056
   1077   1077   1077
   1130   1130   1130
   1204   1204   1204
   1296   1296   1296
   1402   1402   1402
   1520   1520   1520
   1646   1646   1646
   1786   1786   1786
   1235   1235   1235
   1258   1258   1258
   1311   1311   1311
   1388   1388   1388
   1487   1487   1487
   1603   1603   1603
   1728   1728   1728
   1864   1864   1864
   2012   2012   2012
   1447   1447   1447
   1477   1477   1477
   1541   1541   1541
   1630   1630   1630
   1740   1740   1740
   1867   1867   1867
   2005   2005   2005
   2147   2147   2147
   2294   2294   2294
   1713   1713   1713
   1756   1756   1756
   1833   1833   1833
   1936   1936   1936
   2062   2062   2062
   2194   2194   2194
   2330   2330   2330
   2465   2465   2465
   2600   2600   2600
   2063   2063   2063
   2125   2125   2125
   2211   2211   2211
   2324   2324   2324
   2443   2443   2443
   2567   2567   2567
   2692   2692   2692
   2812   2812   2812
   2937   2937   2937
   2469   2469   2469
   2538   2538   2538
   2628   2628   2628
   2736   2736   2736
   2846   2846   2846
   2955   2955   2955
   3066   3066   3066
   3176   3176   3176
   3286   3286   3286
   955   955   955
   972   972   972
   1025   1025   1025
   1104   1104   1104
   1196   1196   1196
   1299   1299   1299
   1410   1410   1410
   1533   1533   1533
   1668   1668   1668
   1010   1010   1010
   1027   1027   1027
   1079   1079   1079
   1155   1155   1155
   1245   1245   1245
   1348   1348   1348
   1463   1463   1463
   1587   1587   1587
   1722   1722   1722
   1108   1108   1108
   1127   1127   1127
   1175   1175   1175
   1246   1246   1246
   1337   1337   1337
   1446   1446   1446
   1564   1564   1564
   1696   1696   1696
   1836   1836   1836
   1242   1242   1242
   1261   1261   1261
   1312   1312   1312
   1386   1386   1386
   1485   1485   1485
   1602   1602   1602
   1726   1726   1726
   1862   1862   1862
   2010   2010   2010
   1416   1416   1416
   1441   1441   1441
   1501   1501   1501
   1586   1586   1586
   1694   1694   1694
   1820   1820   1820
   1954   1954   1954
   2098   2098   2098
   2247   2247   2247
   1644   1644   1644
   1682   1682   1682
   1753   1753   1753
   1849   1849   1849
   1970   1970   1970
   2105   2105   2105
   2244   2244   2244
   2383   2383   2383
   2520   2520   2520
   1932   1932   1932
   1984   1984   1984
   2067   2067   2067
   2179   2179   2179
   2302   2302   2302
   2431   2431   2431
   2561   2561   2561
   2690   2690   2690
   2817   2817   2817
   2296   2296   2296
   2360   2360   2360
   2448   2448   2448
   2556   2556   2556
   2673   2673   2673
   2790   2790   2790
   2907   2907   2907
   3023   3023   3023
   3141   3141   3141
   2685   2685   2685
   2757   2757   2757
   2848   2848   2848
   2950   2950   2950
   3057   3057   3057
   3164   3164   3164
   3268   3268   3268
   3372   3372   3372
   3475   3475   3475
   1187   1187   1187
   1200   1200   1200
   1244   1244   1244
   1312   1312   1312
   1404   1404   1404
   1515   1515   1515
   1634   1634   1634
   1767   1767   1767
   1910   1910   1910
   1231   1231   1231
   1246   1246   1246
   1290   1290   1290
   1362   1362   1362
   1458   1458   1458
   1569   1569   1569
   1692   1692   1692
   1828   1828   1828
   1974   1974   1974
   1317   1317   1317
   1334   1334   1334
   1384   1384   1384
   1460   1460   1460
   1560   1560   1560
   1678   1678   1678
   1805   1805   1805
   1945   1945   1945
   2094   2094   2094
   1454   1454   1454
   1475   1475   1475
   1532   1532   1532
   1614   1614   1614
   1722   1722   1722
   1846   1846   1846
   1982   1982   1982
   2126   2126   2126
   2273   2273   2273
   1642   1642   1642
   1673   1673   1673
   1738   1738   1738
   1831   1831   1831
   1950   1950   1950
   2081   2081   2081
   2221   2221   2221
   2362   2362   2362
   2502   2502   2502
   1888   1888   1888
   1933   1933   1933
   2011   2011   2011
   2115   2115   2115
   2240   2240   2240
   2371   2371   2371
   2501   2501   2501
   2634   2634   2634
   2764   2764   2764
   2195   2195   2195
   2251   2251   2251
   2333   2333   2333
   2441   2441   2441
   2559   2559   2559
   2682   2682   2682
   2803   2803   2803
   2923   2923   2923
   3045   3045   3045
   2545   2545   2545
   2609   2609   2609
   2697   2697   2697
   2799   2799   2799
   2911   2911   2911
   3023   3023   3023
   3135   3135   3135
   3243   3243   3243
   3353   3353   3353
   2914   2914   2914
   2985   2985   2985
   3077   3077   3077
   3176   3176   3176
   3277   3277   3277
   3378   3378   3378
   3475   3475   3475
   3571   3571   3571
   3663   3663   3663
   1425   1425   1425
   1437   1437   1437
   1488   1488   1488
   1562   1562   1562
   1663   1663   1663
   1780   1780   1780
   1911   1911   1911
   2055   2055   2055
   2204   2204   2204
   1472   1472   1472
   1488   1488   1488
   1539   1539   1539
   1616   1616   1616
   1718   1718   1718
   1840   1840   1840
   1975   1975   1975
   2116   2116   2116
   2263   2263   2263
   1564   1564   1564
   1585   1585   1585
   1640   1640   1640
   1722   1722   1722
   1831   1831   1831
   1959   1959   1959
   2096   2096   2096
   2240   2240   2240
   2383   2383   2383
   1713   1713   1713
   1738   1738   1738
   1799   1799   1799
   1891   1891   1891
   2006   2006   2006
   2139   2139   2139
   2277   2277   2277
   2413   2413   2413
   2553   2553   2553
   1918   1918   1918
   1952   1952   1952
   2025   2025   2025
   2126   2126   2126
   2247   2247   2247
   2374   2374   2374
   2505   2505   2505
   2637   2637   2637
   2766   2766   2766
   2180   2180   2180
   2226   2226   2226
   2305   2305   2305
   2406   2406   2406
   2522   2522   2522
   2648   2648   2648
   2768   2768   2768
   2890   2890   2890
   3013   3013   3013
   2476   2476   2476
   2528   2528   2528
   2609   2609   2609
   2710   2710   2710
   2824   2824   2824
   2938   2938   2938
   3049   3049   3049
   3164   3164   3164
   3276   3276   3276
   2801   2801   2801
   2864   2864   2864
   2948   2948   2948
   3049   3049   3049
   3153   3153   3153
   3257   3257   3257
   3359   3359   3359
   3462   3462   3462
   3561   3561   3561
   3147   3147   3147
   3216   3216   3216
   3305   3305   3305
   3400   3400   3400
   3493   3493   3493
   3586   3586   3586
   3671   3671   3671
   3753   3753   3753
   3830   3830   3830
   1716   1716   1716
   1733   1733   1733
   1781   1781   1781
   1865   1865   1865
   1975   1975   1975
   2103   2103   2103
   2237   2237   2237
   2374   2374   2374
   2515   2515   2515
   1763   1763   1763
   1780   1780   1780
   1839   1839   1839
   1922   1922   1922
   2035   2035   2035
   2165   2165   2165
   2299   2299   2299
   2433   2433   2433
   2570   2570   2570
   1865   1865   1865
   1886   1886   1886
   1947   1947   1947
   2038   2038   2038
   2155   2155   2155
   2282   2282   2282
   2412   2412   2412
   2543   2543   2543
   2675   2675   2675
   2025   2025   2025
   2052   2052   2052
   2118   2118   2118
   2213   2213   2213
   2330   2330   2330
   2454   2454   2454
   2580   2580   2580
   2707   2707   2707
   2832   2832   2832
   2234   2234   2234
   2272   2272   2272
   2343   2343   2343
   2439   2439   2439
   2551   2551   2551
   2671   2671   2671
   2790   2790   2790
   2910   2910   2910
   3031   3031   3031
   2485   2485   2485
   2527   2527   2527
   2603   2603   2603
   2697   2697   2697
   2807   2807   2807
   2920   2920   2920
   3033   3033   3033
   3146   3146   3146
   3261   3261   3261
   2758   2758   2758
   2805   2805   2805
   2883   2883   2883
   2980   2980   2980
   3085   3085   3085
   3191   3191   3191
   3297   3297   3297
   3399   3399   3399
   3503   3503   3503
   3062   3062   3062
   3114   3114   3114
   3198   3198   3198
   3293   3293   3293
   3387   3387   3387
   3487   3487   3487
   3577   3577   3577
   3667   3667   3667
   3751   3751   3751
   3375   3375   3375
   3446   3446   3446
   3530   3530   3530
   3616   3616   3616
   3696   3696   3696
   3773   3773   3773
   3844   3844   3844
   3910   3910   3910
   3973   3973   3973
