Resources/LUT/Black and White.3dl
# 17x17x17 .3dl lookup table from LUT Buddy
0 256 512 768 1023
   83   83   83
   2   2   2
   0   0   0
   0   0   0
   0   0   0
   791   791   791
   513   513   513
   387   387   387
   271   271   271
   171   171   171
   1704   1704   1704
   1248   1248   1248
   948   948   948
   818   818   818
   701   701   701
   2918   2918   2918
   2415   2415   2415
   1907   1907   1907
   1489   1489   1489
   1309   1309   1309
   3618   3618   3618
   3326   3326   3326
   3031   3031   3031
   2673   2673   2673
   2236   2236   2236
   243   243   243
   278   278   278
   165   165   165
   84   84   84
   21   21   21
   440   440   440
   962   962   962
   822   822   822
   699   699   699
   585   585   585
   1147   1147   1147
   2018   2018   2018
   1554   1554   1554
   1359   1359   1359
   1194   1194   1194
   2259   2259   2259
   3136   3136   3136
   2786   2786   2786
   2353   2353   2353
   2111   2111   2111
   3241   3241   3241
   3762   3762   3762
   3537   3537   3537
   3293   3293   3293
   3024   3024   3024
   421   421   421
   457   457   457
   488   488   488
   371   371   371
   260   260   260
   621   621   621
   1187   1187   1187
   1231   1231   1231
   1074   1074   1074
   940   940   940
   799   799   799
   1447   1447   1447
   2311   2311   2311
   2054   2054   2054
   1818   1818   1818
   1640   1640   1640
   2675   2675   2675
   3300   3300   3300
   3019   3019   3019
   2847   2847   2847
   2823   2823   2823
   3471   3471   3471
   3869   3869   3869
   3683   3683   3683
   3471   3471   3471
   590   590   590
   627   627   627
   658   658   658
   688   688   688
   574   574   574
   795   795   795
   1441   1441   1441
   1493   1493   1493
   1544   1544   1544
   1358   1358   1358
   987   987   987
   1753   1753   1753
   2657   2657   2657
   2711   2711   2711
   2492   2492   2492
   1192   1192   1192
   2090   2090   2090
   2932   2932   2932
   3441   3441   3441
   3314   3314   3314
   2275   2275   2275
   3146   3146   3146
   3627   3627   3627
   3956   3956   3956
   3803   3803   3803
   755   755   755
   793   793   793
   827   827   827
   858   858   858
   889   889   889
   974   974   974
   1732   1732   1732
   1794   1794   1794
   1852   1852   1852
   1911   1911   1911
   1192   1192   1192
   2090   2090   2090
   2932   2932   2932
   2977   2977   2977
   3018   3018   3018
   1435   1435   1435
   2440   2440   2440
   3157   3157   3157
   3610   3610   3610
   3637   3637   3637
   1713   1713   1713
   2742   2742   2742
   3343   3343   3343
   3755   3755   3755
   4036   4036   4036
