Resources/LUT/Black and White.3dl
# 17x17x17 .3dl lookup table from LUT Buddy
0 128 256 384 512 640 768 896 1023
   83   83   83
   39   39   39
   2   2   2
   0   0   0
   0   0   0
   0   0   0
   0   0   0
   0   0   0
   0   0   0
   432   432   432
   288   288   288
   224   224   224
   168   168   168
   123   123   123
   85   85   85
   51   51   51
   20   20   20
   0   0   0
   791   791   791
   642   642   642
   513   513   513
   449   449   449
   387   387   387
   328   328   328
   271   271   271
   218   218   218
   171   171   171
   1184   1184   1184
   1000   1000   1000
   854   854   854
   728   728   728
   665   665   665
   604   604   604
   546   546   546
   489   489   489
   434   434   434
   1704   1704   1704
   1445   1445   1445
   1248   1248   1248
   1086   1086   1086
   948   948   948
   881   881   881
   818   818   818
   758   758   758
   701   701   701
   2354   2354   2354
   2040   2040   2040
   1773   1773   1773
   1549   1549   1549
   1357   1357   1357
   1194   1194   1194
   1116   1116   1116
   1046   1046   1046
   979   979   979
   2918   2918   2918
   2673   2673   2673
   2415   2415   2415
   2156   2156   2156
   1907   1907   1907
   1684   1684   1684
   1489   1489   1489
   1395   1395   1395
   1309   1309   1309
   3307   3307   3307
   3130   3130   3130
   2952   2952   2952
   2757   2757   2757
   2536   2536   2536
   2302   2302   2302
   2066   2066   2066
   1841   1841   1841
   1730   1730   1730
   3618   3618   3618
   3469   3469   3469
   3326   3326   3326
   3183   3183   3183
   3031   3031   3031
   2862   2862   2862
   2673   2673   2673
   2458   2458   2458
   2236   2236   2236
   158   158   158
   174   174   174
   122   122   122
   82   82   82
   47   47   47
   14   14   14
   0   0   0
   0   0   0
   0   0   0
   251   251   251
   514   514   514
   446   446   446
   382   382   382
   321   321   321
   263   263   263
   210   210   210
   162   162   162
   121   121   121
   602   602   602
   879   879   879
   743   743   743
   677   677   677
   615   615   615
   555   555   555
   497   497   497
   440   440   440
   384   384   384
   955   955   955
   1301   1301   1301
   1123   1123   1123
   975   975   975
   905   905   905
   839   839   839
   778   778   778
   719   719   719
   662   662   662
   1382   1382   1382
   1868   1868   1868
   1617   1617   1617
   1411   1411   1411
   1236   1236   1236
   1154   1154   1154
   1079   1079   1079
   1010   1010   1010
   944   944   944
   1957   1957   1957
   2525   2525   2525
   2257   2257   2257
   1994   1994   1994
   1757   1757   1757
   1549   1549   1549
   1450   1450   1450
   1358   1358   1358
   1274   1274   1274
   2598   2598   2598
   3040   3040   3040
   2845   2845   2845
   2632   2632   2632
   2397   2397   2397
   2156   2156   2156
   1921   1921   1921
   1804   1804   1804
   1696   1696   1696
   3079   3079   3079
   3400   3400   3400
   3253   3253   3253
   3103   3103   3103
   2940   2940   2940
   2758   2758   2758
   2549   2549   2549
   2328   2328   2328
   2207   2207   2207
   3427   3427   3427
   3696   3696   3696
   3573   3573   3573
   3446   3446   3446
   3317   3317   3317
   3184   3184   3184
   3039   3039   3039
   2880   2880   2880
   2702   2702   2702
   243   243   243
   261   261   261
   278   278   278
   218   218   218
   165   165   165
   121   121   121
   84   84   84
   52   52   52
   21   21   21
   346   346   346
   613   613   613
   630   630   630
   565   565   565
   504   504   504
   444   444   444
   386   386   386
   330   330   330
   275   275   275
   440   440   440
   708   708   708
   962   962   962
   889   889   889
   822   822   822
   759   759   759
   699   699   699
   641   641   641
   585   585   585
   777   777   777
   1079   1079   1079
   1413   1413   1413
   1232   1232   1232
   1147   1147   1147
   1071   1071   1071
   1000   1000   1000
   935   935   935
   872   872   872
   1147   1147   1147
   1556   1556   1556
   2018   2018   2018
   1770   1770   1770
   1554   1554   1554
   1452   1452   1452
   1359   1359   1359
   1273   1273   1273
   1194   1194   1194
   1634   1634   1634
   2183   2183   2183
   2669   2669   2669
   2427   2427   2427
   2180   2180   2180
   1938   1938   1938
   1818   1818   1818
   1706   1706   1706
   1602   1602   1602
   2259   2259   2259
   2789   2789   2789
   3136   3136   3136
   2970   2970   2970
   2786   2786   2786
   2579   2579   2579
   2353   2353   2353
   2231   2231   2231
   2111   2111   2111
   2838   2838   2838
   3213   3213   3213
   3481   3481   3481
   3348   3348   3348
   3211   3211   3211
   3067   3067   3067
   2909   2909   2909
   2730   2730   2730
   2625   2625   2625
   3241   3241   3241
   3539   3539   3539
   3762   3762   3762
   3651   3651   3651
   3537   3537   3537
   3417   3417   3417
   3293   3293   3293
   3165   3165   3165
   3024   3024   3024
   332   332   332
   352   352   352
   369   369   369
   384   384   384
   323   323   323
   265   265   265
   211   211   211
   163   163   163
   122   122   122
   438   438   438
   706   706   706
   723   723   723
   740   740   740
   677   677   677
   617   617   617
   558   558   558
   502   502   502
   446   446   446
   532   532   532
   804   804   804
   1071   1071   1071
   1092   1092   1092
   1016   1016   1016
   947   947   947
   881   881   881
   819   819   819
   760   760   760
   621   621   621
   900   900   900
   1186   1186   1186
   1528   1528   1528
   1424   1424   1424
   1331   1331   1331
   1244   1244   1244
   1166   1166   1166
   1094   1094   1094
   960   960   960
   1308   1308   1308
   1708   1708   1708
   2168   2168   2168
   1920   1920   1920
   1797   1797   1797
   1684   1684   1684
   1579   1579   1579
   1482   1482   1482
   1374   1374   1374
   1857   1857   1857
   2360   2360   2360
   2790   2790   2790
   2577   2577   2577
   2345   2345   2345
   2221   2221   2221
   2096   2096   2096
   1975   1975   1975
   1930   1930   1930
   2500   2500   2500
   2922   2922   2922
   3222   3222   3222
   3074   3074   3074
   2912   2912   2912
   2729   2729   2729
   2624   2624   2624
   2512   2512   2512
   2559   2559   2559
   3013   3013   3013
   3310   3310   3310
   3551   3551   3551
   3428   3428   3428
   3302   3302   3302
   3171   3171   3171
   3029   3029   3029
   2948   2948   2948
   3046   3046   3046
   3374   3374   3374
   3622   3622   3622
   3819   3819   3819
   3721   3721   3721
   3615   3615   3615
   3503   3503   3503
   3387   3387   3387
   3267   3267   3267
   421   421   421
   440   440   440
   457   457   457
   473   473   473
   488   488   488
   429   429   429
   371   371   371
   314   314   314
   260   260   260
   527   527   527
   798   798   798
   816   816   816
   833   833   833
   850   850   850
   786   786   786
   726   726   726
   668   668   668
   611   611   611
   621   621   621
   900   900   900
   1187   1187   1187
   1209   1209   1209
   1231   1231   1231
   1149   1149   1149
   1074   1074   1074
   1005   1005   1005
   940   940   940
   711   711   711
   1001   1001   1001
   1313   1313   1313
   1689   1689   1689
   1717   1717   1717
   1606   1606   1606
   1504   1504   1504
   1410   1410   1410
   1323   1323   1323
   799   799   799
   1105   1105   1105
   1447   1447   1447
   1856   1856   1856
   2311   2311   2311
   2181   2181   2181
   2054   2054   2054
   1932   1932   1932
   1818   1818   1818
   1162   1162   1162
   1576   1576   1576
   2043   2043   2043
   2515   2515   2515
   2898   2898   2898
   2709   2709   2709
   2599   2599   2599
   2483   2483   2483
   2367   2367   2367
   1640   1640   1640
   2189   2189   2189
   2675   2675   2675
   3032   3032   3032
   3300   3300   3300
   3164   3164   3164
   3019   3019   3019
   2934   2934   2934
   2847   2847   2847
   2251   2251   2251
   2784   2784   2784
   3132   3132   3132
   3395   3395   3395
   3618   3618   3618
   3504   3504   3504
   3385   3385   3385
   3262   3262   3262
   3194   3194   3194
   2823   2823   2823
   3202   3202   3202
   3471   3471   3471
   3692   3692   3692
   3869   3869   3869
   3782   3782   3782
   3683   3683   3683
   3580   3580   3580
   3471   3471   3471
   506   506   506
   526   526   526
   543   543   543
   559   559   559
   574   574   574
   589   589   589
   531   531   531
   474   474   474
   418   418   418
   613   613   613
   891   891   891
   910   910   910
   928   928   928
   946   946   946
   962   962   962
   897   897   897
   834   834   834
   775   775   775
   708   708   708
   998   998   998
   1309   1309   1309
   1334   1334   1334
   1358   1358   1358
   1381   1381   1381
   1292   1292   1292
   1210   1210   1210
   1135   1135   1135
   800   800   800
   1107   1107   1107
   1449   1449   1449
   1858   1858   1858
   1889   1889   1889
   1921   1921   1921
   1801   1801   1801
   1691   1691   1691
   1587   1587   1587
   892   892   892
   1220   1220   1220
   1595   1595   1595
   2036   2036   2036
   2489   2489   2489
   2521   2521   2521
   2401   2401   2401
   2279   2279   2279
   2159   2159   2159
   985   985   985
   1341   1341   1341
   1750   1750   1750
   2215   2215   2215
   2653   2653   2653
   2994   2994   2994
   2907   2907   2907
   2814   2814   2814
   2716   2716   2716
   1396   1396   1396
   1885   1885   1885
   2388   2388   2388
   2814   2814   2814
   3127   3127   3127
   3373   3373   3373
   3246   3246   3246
   3177   3177   3177
   3104   3104   3104
   1946   1946   1946
   2514   2514   2514
   2934   2934   2934
   3231   3231   3231
   3472   3472   3472
   3678   3678   3678
   3572   3572   3572
   3460   3460   3460
   3399   3399   3399
   2564   2564   2564
   3015   3015   3015
   3313   3313   3313
   3554   3554   3554
   3755   3755   3755
   3914   3914   3914
   3834   3834   3834
   3746   3746   3746
   3649   3649   3649
   590   590   590
   609   609   609
   627   627   627
   643   643   643
   658   658   658
   673   673   673
   688   688   688
   630   630   630
   574   574   574
   698   698   698
   986   986   986
   1006   1006   1006
   1025   1025   1025
   1044   1044   1044
   1062   1062   1062
   1080   1080   1080
   1011   1011   1011
   945   945   945
   795   795   795
   1101   1101   1101
   1441   1441   1441
   1468   1468   1468
   1493   1493   1493
   1519   1519   1519
   1544   1544   1544
   1448   1448   1448
   1358   1358   1358
   890   890   890
   1219   1219   1219
   1593   1593   1593
   2034   2034   2034
   2067   2067   2067
   2099   2099   2099
   2131   2131   2131
   2008   2008   2008
   1891   1891   1891
   987   987   987
   1342   1342   1342
   1753   1753   1753
   2219   2219   2219
   2657   2657   2657
   2684   2684   2684
   2711   2711   2711
   2602   2602   2602
   2492   2492   2492
   1087   1087   1087
   1475   1475   1475
   1919   1919   1919
   2395   2395   2395
   2803   2803   2803
   3110   3110   3110
   3128   3128   3128
   3052   3052   3052
   2972   2972   2972
   1192   1192   1192
   1616   1616   1616
   2090   2090   2090
   2559   2559   2559
   2932   2932   2932
   3211   3211   3211
   3441   3441   3441
   3378   3378   3378
   3314   3314   3314
   1668   1668   1668
   2224   2224   2224
   2704   2704   2704
   3054   3054   3054
   3318   3318   3318
   3542   3542   3542
   3736   3736   3736
   3636   3636   3636
   3581   3581   3581
   2275   2275   2275
   2801   2801   2801
   3146   3146   3146
   3407   3407   3407
   3627   3627   3627
   3812   3812   3812
   3956   3956   3956
   3883   3883   3883
   3803   3803   3803
   673   673   673
   693   693   693
   710   710   710
   726   726   726
   742   742   742
   757   757   757
   772   772   772
   787   787   787
   729   729   729
   782   782   782
   1086   1086   1086
   1107   1107   1107
   1128   1128   1128
   1148   1148   1148
   1168   1168   1168
   1187   1187   1187
   1207   1207   1207
   1131   1131   1131
   884   884   884
   1210   1210   1210
   1582   1582   1582
   1610   1610   1610
   1639   1639   1639
   1666   1666   1666
   1694   1694   1694
   1721   1721   1721
   1617   1617   1617
   984   984   984
   1339   1339   1339
   1747   1747   1747
   2213   2213   2213
   2246   2246   2246
   2278   2278   2278
   2310   2310   2310
   2338   2338   2338
   2219   2219   2219
   1086   1086   1086
   1475   1475   1475
   1919   1919   1919
   2396   2396   2396
   2803   2803   2803
   2828   2828   2828
   2852   2852   2852
   2874   2874   2874
   2782   2782   2782
   1194   1194   1194
   1618   1618   1618
   2095   2095   2095
   2562   2562   2562
   2934   2934   2934
   3213   3213   3213
   3230   3230   3230
   3248   3248   3248
   3179   3179   3179
   1309   1309   1309
   1771   1771   1771
   2267   2267   2267
   2717   2717   2717
   3052   3052   3052
   3308   3308   3308
   3527   3527   3527
   3543   3543   3543
   3484   3484   3484
   1431   1431   1431
   1930   1930   1930
   2436   2436   2436
   2851   2851   2851
   3155   3155   3155
   3397   3397   3397
   3609   3609   3609
   3788   3788   3788
   3739   3739   3739
   1981   1981   1981
   2547   2547   2547
   2959   2959   2959
   3251   3251   3251
   3490   3490   3490
   3694   3694   3694
   3862   3862   3862
   3996   3996   3996
   3926   3926   3926
   755   755   755
   776   776   776
   793   793   793
   811   811   811
   827   827   827
   843   843   843
   858   858   858
   874   874   874
   889   889   889
   869   869   869
   1191   1191   1191
   1215   1215   1215
   1237   1237   1237
   1259   1259   1259
   1280   1280   1280
   1302   1302   1302
   1323   1323   1323
   1344   1344   1344
   974   974   974
   1327   1327   1327
   1732   1732   1732
   1764   1764   1764
   1794   1794   1794
   1824   1824   1824
   1852   1852   1852
   1882   1882   1882
   1911   1911   1911
   1081   1081   1081
   1467   1467   1467
   1910   1910   1910
   2386   2386   2386
   2418   2418   2418
   2448   2448   2448
   2479   2479   2479
   2506   2506   2506
   2536   2536   2536
   1192   1192   1192
   1616   1616   1616
   2090   2090   2090
   2559   2559   2559
   2932   2932   2932
   2955   2955   2955
   2977   2977   2977
   2997   2997   2997
   3018   3018   3018
   1309   1309   1309
   1771   1771   1771
   2269   2269   2269
   2717   2717   2717
   3052   3052   3052
   3309   3309   3309
   3326   3326   3326
   3342   3342   3342
   3358   3358   3358
   1435   1435   1435
   1934   1934   1934
   2440   2440   2440
   2854   2854   2854
   3157   3157   3157
   3399   3399   3399
   3610   3610   3610
   3624   3624   3624
   3637   3637   3637
   1569   1569   1569
   2104   2104   2104
   2599   2599   2599
   2976   2976   2976
   3254   3254   3254
   3485   3485   3485
   3685   3685   3685
   3851   3851   3851
   3862   3862   3862
   1713   1713   1713
   2269   2269   2269
   2742   2742   2742
   3084   3084   3084
   3343   3343   3343
   3565   3565   3565
   3755   3755   3755
   3907   3907   3907
   4036   4036   4036
