Resources/LUT/Black and White.3dl
# 17x17x17 .3dl lookup table from LUT Buddy
   0   64   128   192   256   320   384   448   512   576   640   704   768   832   896   960   1023
   83   83   83
   60   60   60
   39   39   39
   20   20   20
   2   2   2
   0   0   0
   0   0   0
   0   0   0
   0   0   0
   0   0   0
   0   0   0
   0   0   0
   0   0   0
   0   0   0
   0   0   0
   0   0   0
   0   0   0
   244   244   244
   177   177   177
   148   148   148
   123   123   123
   101   101   101
   81   81   81
   63   63   63
   46   46   46
   29   29   29
   12   12   12
   0   0   0
   0   0   0
   0   0   0
   0   0   0
   0   0   0
   0   0   0
   0   0   0
   432   432   432
   356   356   356
   288   288   288
   255   255   255
   224   224   224
   195   195   195
   168   168   168
   144   144   144
   123   123   123
   103   103   103
   85   85   85
   68   68   68
   51   51   51
   36   36   36
   20   20   20
   6   6   6
   0   0   0
   613   613   613
   536   536   536
   467   467   467
   402   402   402
   369   369   369
   336   336   336
   305   305   305
   275   275   275
   246   246   246
   219   219   219
   193   193   193
   168   168   168
   146   146   146
   125   125   125
   106   106   106
   89   89   89
   73   73   73
   791   791   791
   712   712   712
   642   642   642
   576   576   576
   513   513   513
   481   481   481
   449   449   449
   418   418   418
   387   387   387
   357   357   357
   328   328   328
   299   299   299
   271   271   271
   244   244   244
   218   218   218
   194   194   194
   171   171   171
   977   977   977
   890   890   890
   815   815   815
   747   747   747
   683   683   683
   621   621   621
   589   589   589
   558   558   558
   527   527   527
   497   497   497
   468   468   468
   438   438   438
   409   409   409
   381   381   381
   353   353   353
   325   325   325
   298   298   298
   1184   1184   1184
   1084   1084   1084
   1000   1000   1000
   924   924   924
   854   854   854
   789   789   789
   728   728   728
   696   696   696
   665   665   665
   634   634   634
   604   604   604
   575   575   575
   546   546   546
   518   518   518
   489   489   489
   461   461   461
   434   434   434
   1424   1424   1424
   1305   1305   1305
   1205   1205   1205
   1118   1118   1118
   1040   1040   1040
   967   967   967
   899   899   899
   836   836   836
   803   803   803
   771   771   771
   741   741   741
   711   711   711
   681   681   681
   652   652   652
   624   624   624
   595   595   595
   568   568   568
   1704   1704   1704
   1562   1562   1562
   1445   1445   1445
   1341   1341   1341
   1248   1248   1248
   1164   1164   1164
   1086   1086   1086
   1015   1015   1015
   948   948   948
   914   914   914
   881   881   881
   849   849   849
   818   818   818
   787   787   787
   758   758   758
   729   729   729
   701   701   701
   2022   2022   2022
   1860   1860   1860
   1724   1724   1724
   1601   1601   1601
   1491   1491   1491
   1391   1391   1391
   1299   1299   1299
   1216   1216   1216
   1138   1138   1138
   1066   1066   1066
   1030   1030   1030
   995   995   995
   961   961   961
   929   929   929
   897   897   897
   866   866   866
   836   836   836
   2354   2354   2354
   2191   2191   2191
   2040   2040   2040
   1901   1901   1901
   1773   1773   1773
   1657   1657   1657
   1549   1549   1549
   1450   1450   1450
   1357   1357   1357
   1272   1272   1272
   1194   1194   1194
   1154   1154   1154
   1116   1116   1116
   1080   1080   1080
   1046   1046   1046
   1011   1011   1011
   979   979   979
   2662   2662   2662
   2512   2512   2512
   2368   2368   2368
   2228   2228   2228
   2091   2091   2091
   1960   1960   1960
   1836   1836   1836
   1720   1720   1720
   1613   1613   1613
   1513   1513   1513
   1420   1420   1420
   1334   1334   1334
   1291   1291   1291
   1249   1249   1249
   1209   1209   1209
   1171   1171   1171
   1134   1134   1134
   2918   2918   2918
   2794   2794   2794
   2673   2673   2673
   2543   2543   2543
   2415   2415   2415
   2284   2284   2284
   2156   2156   2156
   2030   2030   2030
   1907   1907   1907
   1792   1792   1792
   1684   1684   1684
   1583   1583   1583
   1489   1489   1489
   1441   1441   1441
   1395   1395   1395
   1352   1352   1352
   1309   1309   1309
   3128   3128   3128
   3026   3026   3026
   2923   2923   2923
   2818   2818   2818
   2709   2709   2709
   2593   2593   2593
   2472   2472   2472
   2351   2351   2351
   2227   2227   2227
   2104   2104   2104
   1985   1985   1985
   1869   1869   1869
   1761   1761   1761
   1658   1658   1658
   1605   1605   1605
   1554   1554   1554
   1507   1507   1507
   3307   3307   3307
   3216   3216   3216
   3130   3130   3130
   3042   3042   3042
   2952   2952   2952
   2857   2857   2857
   2757   2757   2757
   2650   2650   2650
   2536   2536   2536
   2422   2422   2422
   2302   2302   2302
   2184   2184   2184
   2066   2066   2066
   1950   1950   1950
   1841   1841   1841
   1785   1785   1785
   1730   1730   1730
   3469   3469   3469
   3386   3386   3386
   3308   3308   3308
   3231   3231   3231
   3152   3152   3152
   3071   3071   3071
   2990   2990   2990
   2901   2901   2901
   2809   2809   2809
   2710   2710   2710
   2605   2605   2605
   2493   2493   2493
   2381   2381   2381
   2267   2267   2267
   2151   2151   2151
   2034   2034   2034
   1975   1975   1975
   3618   3618   3618
   3541   3541   3541
   3469   3469   3469
   3398   3398   3398
   3326   3326   3326
   3256   3256   3256
   3183   3183   3183
   3108   3108   3108
   3031   3031   3031
   2949   2949   2949
   2862   2862   2862
   2769   2769   2769
   2673   2673   2673
   2569   2569   2569
   2458   2458   2458
   2351   2351   2351
   2236   2236   2236
   120   120   120
   127   127   127
   102   102   102
   81   81   81
   62   62   62
   44   44   44
   26   26   26
   9   9   9
   0   0   0
   0   0   0
   0   0   0
   0   0   0
   0   0   0
   0   0   0
   0   0   0
   0   0   0
   0   0   0
   161   161   161
   285   285   285
   250   250   250
   219   219   219
   189   189   189
   162   162   162
   138   138   138
   117   117   117
   97   97   97
   79   79   79
   62   62   62
   46   46   46
   30   30   30
   15   15   15
   1   1   1
   0   0   0
   0   0   0
   336   336   336
   475   475   475
   406   406   406
   371   371   371
   338   338   338
   306   306   306
   275   275   275
   246   246   246
   218   218   218
   192   192   192
   167   167   167
   145   145   145
   124   124   124
   105   105   105
   87   87   87
   71   71   71
   55   55   55
   516   516   516
   656   656   656
   586   586   586
   521   521   521
   488   488   488
   455   455   455
   424   424   424
   393   393   393
   362   362   362
   333   333   333
   303   303   303
   275   275   275
   248   248   248
   221   221   221
   197   197   197
   173   173   173
   151   151   151
   691   691   691
   837   837   837
   764   764   764
   696   696   696
   633   633   633
   600   600   600
   568   568   568
   537   537   537
   506   506   506
   477   477   477
   447   447   447
   418   418   418
   389   389   389
   360   360   360
   333   333   333
   305   305   305
   278   278   278
   868   868   868
   1029   1029   1029
   947   947   947
   874   874   874
   806   806   806
   743   743   743
   710   710   710
   678   678   678
   647   647   647
   617   617   617
   587   587   587
   558   558   558
   529   529   529
   500   500   500
   472   472   472
   444   444   444
   416   416   416
   1059   1059   1059
   1243   1243   1243
   1149   1149   1149
   1065   1065   1065
   989   989   989
   919   919   919
   853   853   853
   820   820   820
   788   788   788
   756   756   756
   726   726   726
   696   696   696
   667   667   667
   638   638   638
   609   609   609
   581   581   581
   553   553   553
   1274   1274   1274
   1495   1495   1495
   1382   1382   1382
   1282   1282   1282
   1193   1193   1193
   1112   1112   1112
   1038   1038   1038
   969   969   969
   934   934   934
   900   900   900
   868   868   868
   836   836   836
   805   805   805
   775   775   775
   746   746   746
   716   716   716
   688   688   688
   1527   1527   1527
   1788   1788   1788
   1654   1654   1654
   1536   1536   1536
   1431   1431   1431
   1334   1334   1334
   1246   1246   1246
   1166   1166   1166
   1091   1091   1091
   1053   1053   1053
   1018   1018   1018
   983   983   983
   949   949   949
   917   917   917
   886   886   886
   855   855   855
   825   825   825
   1820   1820   1820
   2115   2115   2115
   1966   1966   1966
   1830   1830   1830
   1706   1706   1706
   1594   1594   1594
   1490   1490   1490
   1393   1393   1393
   1305   1305   1305
   1223   1223   1223
   1183   1183   1183
   1144   1144   1144
   1106   1106   1106
   1070   1070   1070
   1035   1035   1035
   1002   1002   1002
   969   969   969
   2145   2145   2145
   2445   2445   2445
   2299   2299   2299
   2158   2158   2158
   2019   2019   2019
   1892   1892   1892
   1771   1771   1771
   1659   1659   1659
   1555   1555   1555
   1458   1458   1458
   1369   1369   1369
   1324   1324   1324
   1281   1281   1281
   1239   1239   1239
   1200   1200   1200
   1162   1162   1162
   1125   1125   1125
   2470   2470   2470
   2742   2742   2742
   2613   2613   2613
   2481   2481   2481
   2351   2351   2351
   2218   2218   2218
   2089   2089   2089
   1963   1963   1963
   1845   1845   1845
   1732   1732   1732
   1627   1627   1627
   1529   1529   1529
   1480   1480   1480
   1432   1432   1432
   1387   1387   1387
   1343   1343   1343
   1301   1301   1301
   2760   2760   2760
   2983   2983   2983
   2877   2877   2877
   2769   2769   2769
   2655   2655   2655
   2535   2535   2535
   2411   2411   2411
   2288   2288   2288
   2165   2165   2165
   2040   2040   2040
   1923   1923   1923
   1810   1810   1810
   1704   1704   1704
   1651   1651   1651
   1598   1598   1598
   1548   1548   1548
   1500   1500   1500
   2996   2996   2996
   3182   3182   3182
   3094   3094   3094
   3004   3004   3004
   2909   2909   2909
   2812   2812   2812
   2708   2708   2708
   2597   2597   2597
   2481   2481   2481
   2363   2363   2363
   2243   2243   2243
   2124   2124   2124
   2007   2007   2007
   1894   1894   1894
   1836   1836   1836
   1779   1779   1779
   1724   1724   1724
   3192   3192   3192
   3357   3357   3357
   3277   3277   3277
   3198   3198   3198
   3119   3119   3119
   3036   3036   3036
   2950   2950   2950
   2860   2860   2860
   2763   2763   2763
   2661   2661   2661
   2552   2552   2552
   2439   2439   2439
   2326   2326   2326
   2208   2208   2208
   2094   2094   2094
   2031   2031   2031
   1972   1972   1972
   3363   3363   3363
   3516   3516   3516
   3441   3441   3441
   3369   3369   3369
   3298   3298   3298
   3224   3224   3224
   3151   3151   3151
   3074   3074   3074
   2995   2995   2995
   2910   2910   2910
   2821   2821   2821
   2726   2726   2726
   2623   2623   2623
   2518   2518   2518
   2409   2409   2409
   2295   2295   2295
   2236   2236   2236
   3521   3521   3521
   3660   3660   3660
   3594   3594   3594
   3526   3526   3526
   3460   3460   3460
   3393   3393   3393
   3326   3326   3326
   3258   3258   3258
   3187   3187   3187
   3115   3115   3115
   3040   3040   3040
   2962   2962   2962
   2879   2879   2879
   2789   2789   2789
   2696   2696   2696
   2595   2595   2595
   2489   2489   2489
   158   158   158
   166   166   166
   174   174   174
   147   147   147
   122   122   122
   101   101   101
   82   82   82
   64   64   64
   47   47   47
   30   30   30
   14   14   14
   0   0   0
   0   0   0
   0   0   0
   0   0   0
   0   0   0
   0   0   0
   205   205   205
   337   337   337
   347   347   347
   312   312   312
   280   280   280
   249   249   249
   220   220   220
   192   192   192
   167   167   167
   144   144   144
   123   123   123
   103   103   103
   85   85   85
   69   69   69
   53   53   53
   37   37   37
   22   22   22
   251   251   251
   388   388   388
   514   514   514
   479   479   479
   446   446   446
   414   414   414
   382   382   382
   351   351   351
   321   321   321
   292   292   292
   263   263   263
   236   236   236
   210   210   210
   185   185   185
   162   162   162
   141   141   141
   121   121   121
   428   428   428
   568   568   568
   696   696   696
   630   630   630
   596   596   596
   564   564   564
   532   532   532
   501   501   501
   470   470   470
   440   440   440
   411   411   411
   382   382   382
   353   353   353
   325   325   325
   297   297   297
   270   270   270
   243   243   243
   602   602   602
   745   745   745
   879   879   879
   809   809   809
   743   743   743
   710   710   710
   677   677   677
   646   646   646
   615   615   615
   585   585   585
   555   555   555
   526   526   526
   497   497   497
   468   468   468
   440   440   440
   412   412   412
   384   384   384
   775   775   775
   926   926   926
   1076   1076   1076
   997   997   997
   924   924   924
   857   857   857
   823   823   823
   790   790   790
   758   758   758
   727   727   727
   696   696   696
   667   667   667
   638   638   638
   609   609   609
   580   580   580
   552   552   552
   524   524   524
   955   955   955
   1125   1125   1125
   1301   1301   1301
   1207   1207   1207
   1123   1123   1123
   1046   1046   1046
   975   975   975
   939   939   939
   905   905   905
   872   872   872
   839   839   839
   808   808   808
   778   778   778
   748   748   748
   719   719   719
   690   690   690
   662   662   662
   1153   1153   1153
   1353   1353   1353
   1563   1563   1563
   1452   1452   1452
   1351   1351   1351
   1260   1260   1260
   1176   1176   1176
   1100   1100   1100
   1062   1062   1062
   1025   1025   1025
   990   990   990
   956   956   956
   923   923   923
   891   891   891
   860   860   860
   830   830   830
   800   800   800
   1382   1382   1382
   1621   1621   1621
   1868   1868   1868
   1736   1736   1736
   1617   1617   1617
   1509   1509   1509
   1411   1411   1411
   1319   1319   1319
   1236   1236   1236
   1194   1194   1194
   1154   1154   1154
   1116   1116   1116
   1079   1079   1079
   1043   1043   1043
   1010   1010   1010
   977   977   977
   944   944   944
   1651   1651   1651
   1927   1927   1927
   2200   2200   2200
   2058   2058   2058
   1923   1923   1923
   1799   1799   1799
   1683   1683   1683
   1576   1576   1576
   1477   1477   1477
   1385   1385   1385
   1339   1339   1339
   1295   1295   1295
   1252   1252   1252
   1212   1212   1212
   1173   1173   1173
   1136   1136   1136
   1100   1100   1100
   1957   1957   1957
   2260   2260   2260
   2525   2525   2525
   2389   2389   2389
   2257   2257   2257
   2124   2124   2124
   1994   1994   1994
   1872   1872   1872
   1757   1757   1757
   1650   1650   1650
   1549   1549   1549
   1498   1498   1498
   1450   1450   1450
   1403   1403   1403
   1358   1358   1358
   1316   1316   1316
   1274   1274   1274
   2286   2286   2286
   2576   2576   2576
   2808   2808   2808
   2694   2694   2694
   2573   2573   2573
   2449   2449   2449
   2323   2323   2323
   2197   2197   2197
   2072   2072   2072
   1952   1952   1952
   1837   1837   1837
   1728   1728   1728
   1672   1672   1672
   1619   1619   1619
   1569   1569   1569
   1520   1520   1520
   1472   1472   1472
   2598   2598   2598
   2848   2848   2848
   3040   3040   3040
   2945   2945   2945
   2845   2845   2845
   2742   2742   2742
   2632   2632   2632
   2517   2517   2517
   2397   2397   2397
   2277   2277   2277
   2156   2156   2156
   2035   2035   2035
   1921   1921   1921
   1861   1861   1861
   1804   1804   1804
   1748   1748   1748
   1696   1696   1696
   2863   2863   2863
   3069   3069   3069
   3231   3231   3231
   3150   3150   3150
   3067   3067   3067
   2981   2981   2981
   2890   2890   2890
   2795   2795   2795
   2693   2693   2693
   2585   2585   2585
   2473   2473   2473
   2357   2357   2357
   2241   2241   2241
   2124   2124   2124
   2064   2064   2064
   2003   2003   2003
   1943   1943   1943
   3079   3079   3079
   3255   3255   3255
   3400   3400   3400
   3327   3327   3327
   3253   3253   3253
   3179   3179   3179
   3103   3103   3103
   3022   3022   3022
   2940   2940   2940
   2851   2851   2851
   2758   2758   2758
   2657   2657   2657
   2549   2549   2549
   2439   2439   2439
   2328   2328   2328
   2268   2268   2268
   2207   2207   2207
   3262   3262   3262
   3422   3422   3422
   3556   3556   3556
   3489   3489   3489
   3419   3419   3419
   3352   3352   3352
   3283   3283   3283
   3214   3214   3214
   3142   3142   3142
   3068   3068   3068
   2990   2990   2990
   2908   2908   2908
   2820   2820   2820
   2727   2727   2727
   2628   2628   2628
   2521   2521   2521
   2466   2466   2466
   3427   3427   3427
   3575   3575   3575
   3696   3696   3696
   3636   3636   3636
   3573   3573   3573
   3510   3510   3510
   3446   3446   3446
   3382   3382   3382
   3317   3317   3317
   3251   3251   3251
   3184   3184   3184
   3113   3113   3113
   3039   3039   3039
   2963   2963   2963
   2880   2880   2880
   2794   2794   2794
   2702   2702   2702
   200   200   200
   209   209   209
   217   217   217
   225   225   225
   195   195   195
   168   168   168
   143   143   143
   121   121   121
   101   101   101
   83   83   83
   66   66   66
   49   49   49
   33   33   33
   17   17   17
   3   3   3
   0   0   0
   0   0   0
   250   250   250
   387   387   387
   396   396   396
   405   405   405
   372   372   372
   340   340   340
   308   308   308
   278   278   278
   249   249   249
   221   221   221
   195   195   195
   171   171   171
   148   148   148
   127   127   127
   108   108   108
   91   91   91
