Resources/LUT/Bleach Bypass.3dl
# 17x17x17 .3dl lookup table from LUT Buddy
   0   64   128   192   256   320   384   448   512   576   640   704   768   832   896   960   1023
   0   0   0
   0   0   2
   0   0   66
   0   0   178
   5   5   401
   16   16   646
   36   36   885
   68   68   1115
   114   115   1332
   171   172   1536
   229   230   1723
   284   286   1895
   339   340   2054
   392   393   2209
   443   444   2356
   493   496   2500
   543   545   2643
   0   51   0
   0   51   0
   0   52   70
   1   55   196
   8   63   419
   21   80   658
   45   107   892
   82   149   1118
   134   204   1333
   192   263   1536
   249   320   1722
   305   375   1893
   358   428   2053
   411   480   2206
   461   530   2354
   511   579   2498
   560   627   2637
   14   165   20
   14   164   20
   16   168   108
   22   178   261
   34   195   471
   54   224   695
   87   262   920
   133   307   1140
   187   356   1350
   242   406   1550
   296   457   1734
   349   506   1903
   400   555   2060
   450   602   2212
   499   648   2358
   547   694   2503
   594   738   2643
   103   429   128
   103   429   128
   108   434   235
   119   442   384
   138   457   567
   165   477   769
   200   504   978
   241   536   1185
   286   572   1388
   333   611   1580
   381   651   1760
   428   691   1925
   474   731   2080
   520   771   2229
   565   811   2375
   609   851   2518
   653   890   2657
   281   724   315
   281   723   315
   286   726   412
   294   732   541
   309   743   697
   329   757   876
   356   776   1065
   387   798   1256
   422   824   1447
   460   853   1631
   499   883   1803
   539   915   1962
   579   946   2113
   619   978   2260
   658   1010   2402
   697   1043   2542
   737   1075   2680
   471   1017   509
   471   1016   509
   474   1019   599
   482   1023   713
   493   1030   850
   508   1041   1007
   528   1054   1175
   552   1070   1351
   580   1090   1528
   610   1111   1700
   642   1133   1862
   674   1157   2014
   707   1181   2161
   741   1206   2305
   774   1232   2445
   807   1258   2582
   841   1285   2715
   663   1302   703
   662   1301   703
   665   1302   789
   670   1306   892
   679   1312   1014
   691   1319   1152
   707   1330   1304
   725   1342   1464
   747   1356   1626
   771   1372   1785
   796   1389   1936
   822   1408   2082
   849   1427   2223
   877   1447   2362
   905   1467   2498
   933   1487   2630
   962   1509   2763
   849   1579   892
   848   1577   892
   850   1579   977
   855   1581   1071
   862   1585   1182
   871   1591   1308
   883   1598   1445
   898   1607   1589
   916   1619   1737
   934   1631   1883
   956   1644   2025
   977   1658   2164
   999   1672   2300
   1022   1687   2433
   1046   1703   2565
   1070   1718   2693
   1094   1735   2822
   1031   1841   1074
   1031   1840   1081
   1032   1841   1161
   1035   1842   1250
   1041   1844   1352
   1049   1849   1467
   1059   1854   1591
   1071   1861   1722
   1085   1869   1856
   1101   1878   1993
   1117   1888   2127
   1135   1899   2260
   1153   1911   2389
   1172   1922   2517
   1191   1934   2644
   1211   1947   2767
   1231   1961   2894
   1206   2093   1249
   1205   2093   1262
   1206   2092   1339
   1209   2092   1424
   1213   2094   1519
   1219   2098   1623
   1227   2102   1737
   1237   2107   1858
   1249   2113   1984
   1262   2121   2112
   1275   2130   2240
   1289   2139   2365
   1304   2147   2489
   1320   2156   2612
   1336   2166   2732
   1352   2177   2855
   1369   2188   2979
   1369   2341   1412
   1368   2340   1432
   1368   2338   1506
   1371   2339   1588
   1374   2339   1678
   1379   2341   1776
   1386   2346   1884
   1393   2349   1998
   1403   2354   2117
   1413   2361   2239
   1424   2369   2360
   1436   2375   2478
   1449   2382   2597
   1461   2390   2714
   1478   2397   2832
   1495   2406   2953
   1512   2413   3075
   1520   2584   1564
   1520   2581   1595
   1520   2581   1668
   1521   2580   1747
   1524   2580   1834
   1529   2582   1930
   1534   2583   2032
   1541   2587   2142
   1549   2591   2254
   1558   2595   2369
   1570   2601   2486
   1583   2607   2598
   1596   2612   2713
   1611   2619   2828
   1625   2625   2944
   1641   2632   3061
   1656   2639   3179
   1672   2831   1718
   1670   2827   1759
   1670   2826   1832
   1671   2824   1909
   1673   2825   1994
   1679   2824   2086
   1683   2826   2185
   1694   2828   2290
   1703   2831   2399
   1714   2835   2510
   1725   2838   2618
   1736   2844   2730
   1747   2847   2839
   1762   2853   2953
   1775   2858   3065
   1787   2862   3180
   1803   2869   3294
   1830   3097   1876
   1830   3094   1931
   1832   3091   2002
   1834   3089   2079
   1837   3088   2162
   1843   3088   2252
   1848   3087   2347
   1856   3089   2448
   1865   3090   2552
   1874   3092   2660
   1884   3095   2766
   1895   3097   2873
   1905   3100   2980
   1917   3103   3091
   1929   3106   3200
   1941   3110   3309
   1952   3113   3416
   2000   3376   2037
   1999   3369   2109
   2001   3368   2178
   2003   3363   2255
   2005   3360   2336
   2011   3359   2424
   2016   3358   2517
   2022   3357   2616
   2031   3357   2718
   2040   3359   2823
   2048   3360   2925
   2056   3359   3031
   2067   3362   3135
   2077   3362   3239
   2088   3361   3341
   2097   3364   3442
   2110   3365   3543
   2171   3638   2222
   2172   3632   2289
   2172   3628   2362
   2173   3624   2437
   2177   3621   2519
   2181   3618   2605
   2185   3615   2699
   2190   3614   2795
   2197   3613   2896
   2204   3611   2997
   2212   3610   3096
   2220   3608   3196
   2228   3607   3293
   2238   3606   3389
   2249   3606   3483
   2259   3605   3577
   2270   3604   3669
   2350   3882   2416
   2349   3874   2483
   2350   3870   2555
   2350   3867   2629
   2353   3862   2710
   2355   3858   2799
   2359   3852   2890
   2364   3850   2984
   2369   3847   3082
   2376   3845   3176
   2384   3841   3268
   2391   3838   3360
   2400   3836   3450
   2409   3832   3538
   2418   3829   3623
   2428   3827   3710
   2437   3824   3796
   3   0   0
   3   0   0
   4   0   64
   5   0   173
   9   5   394
   21   16   640
   41   36   879
   74   67   1108
   121   114   1324
   179   171   1530
   237   229   1718
   293   285   1890
   348   339   2049
   402   393   2203
   455   444   2351
   505   495   2496
   555   545   2638
   5   51   0
   5   51   0
   6   52   69
   8   55   194
   15   63   415
   29   80   653
   54   107   887
   92   149   1114
   145   204   1328
   204   263   1532
   262   320   1719
   318   375   1890
   373   428   2048
   425   480   2202
   477   530   2349
   527   579   2494
   576   627   2633
   23   165   20
   23   165   20
   26   170   108
   33   179   260
   45   197   470
   67   225   693
   101   263   918
   148   308   1137
   203   357   1347
   259   408   1547
   314   458   1731
   367   507   1900
   419   556   2058
   470   603   2208
   519   649   2356
   568   695   2500
   616   740   2639
   118   431   131
   119   430   130
   125   435   237
   137   444   385
   157   458   567
   185   479   770
   221   506   978
   262   538   1185
   307   574   1387
   355   613   1579
   403   653   1759
   451   693   1923
   498   733   2078
   544   773   2226
   591   812   2373
   635   852   2516
   680   892   2655
   300   725   317
   301   725   317
   306   728   415
   316   734   542
   331   744   700
   353   759   878
   380   778   1066
   412   800   1257
   448   826   1448
   487   855   1631
   527   885   1802
   567   916   1961
   608   948   2113
   648   980   2259
   689   1012   2402
   729   1044   2541
   769   1077   2679
   493   1018   511
   494   1017   511
   498   1020   602
   506   1024   716
   519   1032   853
   535   1043   1009
   556   1055   1178
   581   1072   1353
   610   1091   1530
   641   1113   1701
   673   1135   1863
   707   1159   2015
   741   1183   2161
   776   1208   2304
   810   1233   2444
   845   1260   2581
   879   1287   2714
   687   1302   705
   687   1302   704
   691   1303   792
   698   1307   895
   708   1313   1017
   722   1321   1155
   738   1331   1308
   758   1343   1466
   782   1358   1628
   807   1374   1787
   833   1392   1938
   861   1410   2083
   889   1429   2224
   917   1448   2363
   947   1469   2498
   976   1489   2631
   1006   1510   2762
   877   1579   893
   878   1579   896
   881   1580   980
   887   1582   1075
   895   1586   1186
   906   1592   1313
   920   1600   1449
   936   1609   1593
   955   1620   1740
   976   1632   1886
   998   1645   2028
   1021   1659   2167
   1044   1673   2302
   1069   1688   2435
   1095   1704   2565
   1120   1720   2695
   1146   1736   2821
   1063   1842   1076
   1064   1841   1084
   1066   1841   1165
   1072   1842   1254
   1078   1845   1357
   1088   1849   1472
   1100   1855   1596
   1114   1862   1726
   1130   1870   1860
   1147   1879   1997
   1165   1890   2130
   1184   1900   2262
   1204   1911   2392
   1225   1923   2519
   1246   1936   2645
   1268   1948   2769
   1290   1962   2895
   1242   2094   1251
   1242   2092   1265
   1245   2092   1343
   1249   2092   1429
   1255   2094   1524
   1263   2098   1628
   1273   2103   1742
   1285   2107   1863
   1299   2115   1989
   1313   2122   2118
   1329   2130   2243
   1345   2139   2368
   1362   2148   2493
   1380   2157   2615
   1397   2167   2735
   1416   2178   2858
   1436   2189   2981
   1409   2340   1413
   1409   2339   1437
   1412   2338   1511
   1416   2339   1593
   1422   2339   1682
   1429   2342   1782
   1437   2346   1889
   1448   2350   2003
   1459   2355   2123
   1472   2362   2245
   1485   2368   2365
   1499   2375   2484
   1513   2382   2602
   1529   2390   2718
   1544   2397   2837
   1561   2407   2956
   1578   2416   3077
   1566   2583   1566
   1567   2581   1600
   1570   2580   1673
   1573   2580   1753
   1579   2579   1840
   1585   2582   1935
   1593   2583   2039
   1602   2587   2148
   1613   2591   2261
   1624   2596   2376
   1636   2600   2492
   1648   2607   2604
   1662   2612   2719
   1676   2618   2832
   1690   2624   2948
   1704   2631   3065
   1720   2638   3182
   1724   2828   1719
   1726   2826   1765
   1728   2825   1837
   1731   2823   1916
   1736   2824   2001
   1742   2824   2094
   1748   2825   2193
   1757   2828   2297
   1768   2831   2407
   1777   2835   2516
   1788   2838   2625
   1799   2843   2735
   1812   2847   2845
   1824   2852   2958
   1837   2857   3070
   1852   2861   3184
   1865   2868   3298
   1887   3095   1876
   1889   3091   1937
   1891   3090   2009
   1893   3086   2085
   1897   3085   2169
   1903   3084   2259
   1909   3086   2355
   1919   3087   2455
   1927   3088   2560
   1936   3090   2666
   1946   3093   2773
   1957   3096   2880
   1967   3098   2988
   1979   3100   3095
   1989   3104   3205
   2003   3107   3314
   2015   3112   3420
   2054   3371   2043
   2055   3368   2114
   2057   3363   2184
   2060   3360   2262
   2064   3359   2344
   2070   3358   2431
   2075   3357   2525
   2083   3356   2624
   2092   3355   2727
   2100   3355   2831
   2108   3357   2934
   2118   3357   3038
   2128   3356   3141
   2139   3359   3246
   2150   3360   3347
   2160   3360   3447
   2172   3363   3546
   2222   3634   2228
   2223   3628   2297
   2225   3624   2367
   2228   3621   2443
   2231   3617   2526
   2237   3614   2614
   2242   3611   2708
   2250   3610   2805
   2256   3608   2905
   2264   3607   3005
   2272   3605   3104
   2281   3604   3204
   2290   3602   3301
   2300   3602   3397
   2310   3601   3491
   2322   3601   3583
   2332   3599   3674
   2396   3874   2420
   2398   3870   2490
   2399   3865   2561
   2402   3861   2637
   2405   3855   2718
   2410   3851   2807
   2415   3848   2899
   2423   3846   2994
   2430   3842   3091
   2437   3839   3185
   2444   3836   3278
   2453   3833   3367
   2461   3831   3456
   2470   3827   3544
   2479   3824   3629
   2490   3822   3715
   2501   3819   3801
   56   0   0
   56   0   0
   57   0   64
   59   0   177
   66   5   398
   80   17   641
   106   38   879
   145   72   1107
   199   120   1323
   259   179   1529
   316   236   1715
   372   292   1888
   427   347   2047
   480   400   2200
   531   451   2349
   581   501   2493
   630   551   2634
   61   53   0
   62   53   0
   63   54   72
   68   58   201
   78   68   422
   98   86   657
   128   115   890
   173   159   1115
   230   215   1329
   288   272   1531
   344   329   1718
   399   384   1889
   452   437   2047
   505   488   2201
   555   537   2348
   604   587   2493
   653   634   2632
   97   177   28
   97   177   28
   102   181   118
   111   192   273
   127   210   479
   153   239   700
   193   277   922
   241   321   1140
   293   369   1349
   346   419   1548
   399   468   1731
   451   517   1900
   501   565   2057
   550   612   2209
   599   657   2355
   646   703   2499
   692   747   2638
   216   443   147
   217   443   147
   223   448   252
   236   457   398
   255   471   578
   281   492   777
   315   518   984
   354   549   1190
   397   585   1390
   443   623   1582
   489   662   1760
   535   702   1924
   580   742   2079
   625   781   2228
   670   821   2373
   713   860   2515
   757   899   2654
   392   734   331
   392   734   331
   398   737   428
   408   744   555
   423   754   710
   444   768   886
   469   787   1073
   500   810   1262
   535   835   1452
   572   864   1635
   611   893   1805
   650   925   1963
   689   956   2114
   728   987   2260
   768   1020   2402
   807   1052   2541
   846   1084   2678
   578   1025   522
   579   1025   522
   583   1028   614
   592   1032   727
   604   1040   864
   620   1050   1019
   640   1064   1185
   665   1080   1360
   692   1098   1536
   722   1120   1706
   754   1142   1866
   787   1166   2018
   820   1190   2164
   854   1215   2307
   887   1241   2446
   921   1267   2581
   956   1293   2715
   766   1309   714
   767   1308   714
   771   1310   803
   778   1313   905
   788   1319   1026
   801   1326   1165
   817   1336   1316
   837   1350   1474
   860   1364   1635
   884   1380   1792
   910   1397   1942
   937   1415   2088
   965   1434   2228
   993   1454   2365
   1021   1474   2500
   1051   1495   2634
   1081   1516   2763
   951   1584   900
   952   1583   905
   955   1585   989
   961   1586   1084
   970   1591   1196
   981   1596   1321
   994   1604   1458
   1011   1613   1601
   1029   1624   1747
   1050   1637   1892
   1072   1650   2033
   1095   1664   2171
   1118   1678   2306
   1143   1694   2439
   1167   1709   2570
   1193   1725   2697
   1219   1741   2824
   1134   1845   1082
   1135   1843   1093
   1138   1844   1173
   1143   1845   1263
   1150   1848   1366
   1160   1853   1480
   1171   1859   1603
   1185   1866   1734
   1201   1874   1867
   1218   1883   2003
   1237   1894   2136
   1256   1904   2268
   1276   1916   2396
   1296   1928   2523
   1317   1940   2648
   1339   1953   2773
   1362   1965   2898
   1309   2096   1256
   1310   2094   1274
   1313   2094   1351
   1318   2095   1437
   1324   2098   1532
   1332   2101   1637
   1342   2106   1751
   1355   2111   1871
   1368   2118   1996
   1382   2125   2125
   1398   2134   2251
   1414   2143   2376
   1432   2152   2498
   1449   2161   2619
   1467   2172   2740
   1486   2181   2861
   1505   2194   2984
   1475   2342   1417
   1476   2340   1445
   1478   2340   1519
   1483   2340   1601
   1488   2342   1691
   1495   2346   1791
   1504   2347   1898
   1515   2353   2012
   1526   2358   2131
   1539   2365   2252
   1552   2371   2372
   1567   2378   2490
   1581   2385   2607
   1596   2392   2725
   1612   2400   2841
   1629   2409   2961
   1646   2417   3081
   1631   2584   1569
   1631   2583   1608
   1635   2581   1681
   1638   2581   1762
   1644   2582   1849
   1650   2583   1945
   1659   2585   2049
   1668   2589   2157
   1679   2593   2271
   1691   2598   2386
   1703   2603   2499
   1716   2608   2612
   1729   2615   2725
   1743   2621   2839
   1758   2626   2955
   1772   2634   3069
   1788   2641   3188
   1787   2830   1721
   1788   2827   1772
   1790   2826   1846
   1795   2825   1924
   1800   2825   2011
   1806   2825   2103
   1813   2827   2203
   1823   2830   2307
   1832   2832   2416
   1842   2836   2524
   1855   2840   2633
   1867   2844   2743
   1878   2849   2853
   1890   2854   2966
   1904   2858   3075
   1918   2863   3191
   1932   2869   3303
   1950   3095   1880
   1951   3093   1945
   1954   3089   2017
   1957   3088   2094
   1961   3087   2179
   1968   3086   2268
   1974   3086   2365
   1982   3088   2465
   1991   3088   2570
   2001   3091   2676
   2011   3094   2781
   2022   3095   2889
   2034   3099   2996
   2045   3101   3104
   2058   3104   3212
   2070   3108   3320
   2084   3111   3425
   2115   3370   2054
   2117   3367   2123
   2119   3362   2194
   2123   3359   2271
   2127   3358   2354
   2133   3357   2441
   2139   3356   2537
   2146   3355   2635
   2155   3354   2738
   2164   3355   2841
   2173   3356   2944
   2182   3356   3047
   2192   3356   3151
   2203   3358   3255
   2215   3359   3355
   2226   3361   3453
   2238   3362   3551
   2283   3631   2237
   2284   3627   2306
   2287   3623   2376
   2290   3618   2454
   2294   3615   2537
   2298   3612   2625
   2305   3610   2721
   2312   3608   2817
   2320   3607   2916
   2328   3605   3017
   2337   3604   3116
   2347   3603   3214
   2357   3601   3310
   2367   3599   3404
   2377   3599   3497
   2389   3598   3590
   2398   3596   3678
   2458   3873   2431
   2459   3867   2499
   2460   3863   2571
   2463   3858   2647
   2468   3852   2730
   2473   3849   2819
   2479   3846   2912
   2486   3842   3007
   2493   3839   3103
   2501   3836   3196
   2509   3833   3287
   2518   3830   3377
   2527   3826   3465
   2537   3824   3551
   2548   3820   3637
   2557   3817   3722
   2570   3813   3805
   126   1   1
   127   1   1
   129   1   69
   136   3   192
   149   10   412
   172   24   650
   207   48   885
   255   85   1111
   309   136   1326
   365   195   1530
   419   251   1717
   472   307   1888
   523   361   2047
   574   414   2200
   623   465   2348
   671   514   2492
   719   563   2633
   148   61   6
   149   61   7
   153   63   84
   162   69   222
   179   80   439
   205   101   669
   245   134   898
   292   180   1121
   344   235   1333
   397   291   1535
   450   347   1720
   501   400   1890
   551   452   2049
   600   503   2202
   649   552   2348
   696   600   2492
