Resources/LUT/Bleach Bypass.3dl
# 17x17x17 .3dl lookup table from LUT Buddy
0 256 512 768 1023
   0   0   0
   5   5   401
   114   115   1332
   339   340   2054
   543   545   2643
   281   724   315
   309   743   697
   422   824   1447
   579   946   2113
   737   1075   2680
   1031   1841   1074
   1041   1844   1352
   1085   1869   1856
   1153   1911   2389
   1231   1961   2894
   1672   2831   1718
   1673   2825   1994
   1703   2831   2399
   1747   2847   2839
   1803   2869   3294
   2350   3882   2416
   2353   3862   2710
   2369   3847   3082
   2400   3836   3450
   2437   3824   3796
   276   11   12
   312   26   439
   457   167   1334
   646   385   2050
   826   582   2634
   642   775   387
   672   796   755
   766   874   1475
   900   989   2125
   1040   1113   2684
   1306   1861   1108
   1325   1866   1397
   1375   1892   1892
   1448   1934   2415
   1531   1983   2910
   1931   2840   1737
   1947   2835   2037
   1982   2844   2443
   2031   2860   2876
   2088   2880   3320
   2594   3873   2460
   2609   3854   2764
   2639   3840   3135
   2675   3825   3491
   2721   3811   3823
   1127   289   309
   1144   315   672
   1204   422   1423
   1297   576   2094
   1404   735   2663
   1315   951   613
   1337   970   939
   1397   1035   1575
   1481   1132   2183
   1577   1239   2722
   1765   1936   1217
   1785   1941   1509
   1830   1969   1980
   1893   2010   2479
   1966   2058   2960
   2297   2892   1814
   2321   2889   2129
   2363   2899   2528
   2415   2915   2952
   2476   2937   3378
   2933   3897   2550
   2958   3876   2865
   2998   3861   3227
   3046   3844   3563
   3104   3827   3877
   1894   682   707
   1904   701   998
   1937   767   1595
   1989   866   2192
   2055   977   2730
   2002   1209   913
   2019   1225   1202
   2058   1277   1738
   2115   1353   2289
   2181   1438   2797
   2307   2065   1386
   2329   2073   1676
   2373   2101   2117
   2428   2140   2586
   2494   2185   3045
   2754   2989   1956
   2784   2987   2267
   2830   2999   2656
   2888   3016   3064
   2956   3038   3466
   3338   3951   2693
   3371   3930   3014
   3416   3911   3356
   3468   3890   3665
   3529   3865   3952
   2588   1054   1078
   2598   1067   1328
   2621   1112   1811
   2660   1182   2337
   2708   1262   2835
   2662   1495   1225
   2676   1508   1485
   2708   1548   1939
   2752   1606   2435
   2806   1671   2908
   2892   2242   1592
   2915   2251   1881
   2955   2278   2290
   3011   2313   2724
   3072   2356   3161
   3283   3130   2157
   3313   3130   2440
   3360   3143   2823
   3417   3161   3210
   3480   3180   3569
   3745   4014   2895
   3776   4001   3199
   3819   3978   3512
   3869   3944   3789
   3925   3890   3996
