Resources/LUT/Bleach Bypass.3dl
# 17x17x17 .3dl lookup table from LUT Buddy
0 128 256 384 512 640 768 896 1023
   0   0   0
   0   0   66
   5   5   401
   36   36   885
   114   115   1332
   229   230   1723
   339   340   2054
   443   444   2356
   543   545   2643
   14   165   20
   16   168   108
   34   195   471
   87   262   920
   187   356   1350
   296   457   1734
   400   555   2060
   499   648   2358
   594   738   2643
   281   724   315
   286   726   412
   309   743   697
   356   776   1065
   422   824   1447
   499   883   1803
   579   946   2113
   658   1010   2402
   737   1075   2680
   663   1302   703
   665   1302   789
   679   1312   1014
   707   1330   1304
   747   1356   1626
   796   1389   1936
   849   1427   2223
   905   1467   2498
   962   1509   2763
   1031   1841   1074
   1032   1841   1161
   1041   1844   1352
   1059   1854   1591
   1085   1869   1856
   1117   1888   2127
   1153   1911   2389
   1191   1934   2644
   1231   1961   2894
   1369   2341   1412
   1368   2338   1506
   1374   2339   1678
   1386   2346   1884
   1403   2354   2117
   1424   2369   2360
   1449   2382   2597
   1478   2397   2832
   1512   2413   3075
   1672   2831   1718
   1670   2826   1832
   1673   2825   1994
   1683   2826   2185
   1703   2831   2399
   1725   2838   2618
   1747   2847   2839
   1775   2858   3065
   1803   2869   3294
   2000   3376   2037
   2001   3368   2178
   2005   3360   2336
   2016   3358   2517
   2031   3357   2718
   2048   3360   2925
   2067   3362   3135
   2088   3361   3341
   2110   3365   3543
   2350   3882   2416
   2350   3870   2555
   2353   3862   2710
   2359   3852   2890
   2369   3847   3082
   2384   3841   3268
   2400   3836   3450
   2418   3829   3623
   2437   3824   3796
   56   0   0
   57   0   64
   66   5   398
   106   38   879
   199   120   1323
   316   236   1715
   427   347   2047
   531   451   2349
   630   551   2634
   97   177   28
   102   181   118
   127   210   479
   193   277   922
   293   369   1349
   399   468   1731
   501   565   2057
   599   657   2355
   692   747   2638
   392   734   331
   398   737   428
   423   754   710
   469   787   1073
   535   835   1452
   611   893   1805
   689   956   2114
   768   1020   2402
   846   1084   2678
   766   1309   714
   771   1310   803
   788   1319   1026
   817   1336   1316
   860   1364   1635
   910   1397   1942
   965   1434   2228
   1021   1474   2500
   1081   1516   2763
   1134   1845   1082
   1138   1844   1173
   1150   1848   1366
   1171   1859   1603
   1201   1874   1867
   1237   1894   2136
   1276   1916   2396
   1317   1940   2648
   1362   1965   2898
   1475   2342   1417
   1478   2340   1519
   1488   2342   1691
   1504   2347   1898
   1526   2358   2131
   1552   2371   2372
   1581   2385   2607
   1612   2400   2841
   1646   2417   3081
   1787   2830   1721
   1790   2826   1846
   1800   2825   2011
   1813   2827   2203
   1832   2832   2416
   1855   2840   2633
   1878   2849   2853
   1904   2858   3075
   1932   2869   3303
   2115   3370   2054
   2119   3362   2194
   2127   3358   2354
   2139   3356   2537
   2155   3354   2738
   2173   3356   2944
   2192   3356   3151
   2215   3359   3355
   2238   3362   3551
   2458   3873   2431
   2460   3863   2571
   2468   3852   2730
   2479   3846   2912
   2493   3839   3103
   2509   3833   3287
   2527   3826   3465
   2548   3820   3637
   2570   3813   3805
   276   11   12
   283   13   89
   312   26   439
   372   71   898
   457   167   1334
   552   278   1721
   646   385   2050
   737   486   2350
   826   582   2634
   389   242   82
   396   248   185
   425   279   528
   478   339   951
   552   423   1365
   637   515   1743
   723   606   2064
   808   694   2360
   892   780   2641
   642   775   387
   650   779   483
   672   796   755
   711   827   1105
   766   874   1475
   831   930   1821
   900   989   2125
   969   1051   2410
   1040   1113   2684
   967   1334   751
   973   1336   842
   990   1345   1063
   1018   1363   1347
   1057   1390   1659
   1104   1423   1961
   1155   1459   2242
   1208   1498   2512
   1264   1538   2772
   1306   1861   1108
   1311   1861   1205
   1325   1866   1397
   1346   1876   1632
   1375   1892   1892
   1410   1911   2157
   1448   1934   2415
   1488   1957   2663
   1531   1983   2910
   1626   2356   1436
   1632   2353   1546
   1643   2355   1719
   1660   2362   1924
   1683   2372   2157
   1710   2385   2395
   1739   2398   2627
   1771   2415   2859
   1805   2432   3096
   1931   2840   1737
   1936   2836   1872
   1947   2835   2037
   1962   2838   2231
   1982   2844   2443
   2005   2851   2658
   2031   2860   2876
   2058   2869   3097
   2088   2880   3320
   2252   3377   2079
   2258   3369   2222
   2267   3363   2382
   2281   3361   2566
   2299   3362   2768
   2318   3362   2972
   2340   3363   3177
   2365   3364   3376
   2391   3366   3569
   2594   3873   2460
   2600   3863   2600
   2609   3854   2764
   2622   3845   2946
   2639   3840   3135
   2656   3833   3315
   2675   3825   3491
   2698   3818   3658
   2721   3811   3823
   707   100   113
   711   105   210
   730   131   536
   765   189   952
   819   273   1367
   883   368   1743
   951   462   2065
   1022   554   2361
   1092   643   2642
   785   372   225
   791   378   323
   811   403   623
   846   452   1010
   896   521   1404
   957   600   1768
   1021   681   2083
   1087   761   2375
   1155   841   2653
   966   848   485
   973   852   578
   991   868   833
   1022   898   1162
   1065   942   1516
   1117   993   1850
   1172   1049   2148
   1230   1106   2430
   1290   1165   2699
   1226   1379   815
   1233   1382   908
   1249   1391   1124
   1274   1409   1397
   1310   1436   1698
   1351   1467   1993
   1395   1502   2269
   1443   1540   2534
   1492   1579   2789
   1520   1891   1154
   1527   1891   1255
   1540   1896   1445
   1561   1908   1674
   1589   1923   1929
   1621   1942   2190
   1656   1964   2442
   1693   1989   2687
   1733   2013   2930
   1811   2379   1470
   1818   2378   1587
   1830   2380   1759
   1848   2387   1965
   1871   2397   2194
   1898   2410   2427
   1928   2424   2657
   1959   2441   2886
   1995   2458   3120
   2101   2860   1766
   2109   2858   1911
   2121   2856   2078
   2138   2859   2269
   2159   2866   2480
   2183   2873   2694
   2209   2881   2909
   2238   2892   3127
   2269   2902   3346
   2413   3393   2117
   2420   3384   2260
   2431   3380   2423
   2449   3377   2607
   2468   3377   2809
   2490   3378   3010
   2514   3379   3211
   2541   3380   3407
   2569   3382   3593
   2751   3882   2497
   2760   3870   2644
   2771   3861   2809
   2787   3855   2991
   2806   3846   3175
   2827   3838   3353
   2850   3831   3523
   2876   3824   3687
   2903   3816   3847
   1127   289   309
   1131   294   398
   1144   315   672
   1168   358   1039
   1204   422   1423
   1248   497   1781
   1297   576   2094
   1349   655   2383
   1404   735   2663
   1183   533   401
   1189   539   491
   1203   559   753
   1228   597   1096
   1264   653   1464
   1308   719   1810
   1356   787   2115
   1408   858   2400
   1461   928   2674
   1315   951   613
   1322   955   704
   1337   970   939
   1362   997   1242
   1397   1035   1575
   1437   1082   1893
   1481   1132   2183
   1528   1184   2458
   1577   1239   2722
   1520   1445   903
   1527   1448   998
   1542   1457   1206
   1565   1474   1467
   1594   1500   1752
   1629   1530   2036
   1667   1563   2305
   1708   1598   2564
   1751   1635   2817
   1765   1936   1217
   1771   1936   1323
   1785   1941   1509
   1805   1953   1732
   1830   1969   1980
   1860   1989   2233
   1893   2010   2479
   1929   2033   2720
   1966   2058   2960
   2023   2415   1517
   2033   2414   1642
   2046   2417   1815
   2066   2423   2018
   2090   2435   2242
   2116   2448   2472
   2147   2463   2695
   2178   2478   2923
   2212   2495   3151
   2297   2892   1814
   2307   2889   1962
   2321   2889   2129
   2339   2892   2320
   2363   2899   2528
   2387   2906   2739
   2415   2915   2952
   2444   2925   3166
   2476   2937   3378
   2598   3417   2165
   2607   3410   2310
   2622   3406   2475
   2641   3404   2661
   2663   3404   2859
   2687   3405   3060
   2713   3405   3255
   2743   3406   3443
   2774   3408   3625
   2933   3897   2550
   2944   3886   2699
   2958   3876   2865
   2978   3868   3047
   2998   3861   3227
   3021   3853   3400
   3046   3844   3563
   3074   3836   3721
   3104   3827   3877
   1524   486   510
   1527   491   592
   1537   508   831
   1555   541   1150
   1581   591   1500
   1614   651   1837
   1650   715   2136
   1690   781   2419
   1731   849   2691
   1567   706   585
   1572   711   670
   1583   728   902
   1603   760   1206
   1629   804   1543
   1662   858   1867
   1699   915   2161
   1738   975   2438
   1779   1036   2705
   1667   1073   760
   1673   1077   848
   1686   1091   1064
   1705   1115   1342
   1732   1149   1651
   1764   1190   1951
   1799   1236   2230
   1836   1283   2497
   1875   1332   2755
   1824   1528   1011
   1831   1531   1108
   1845   1540   1306
   1865   1557   1552
   1890   1580   1821
   1919   1608   2093
   1952   1639   2353
   1988   1671   2606
   2026   1706   2851
   2028   1993   1296
   2035   1996   1406
   2050   2002   1588
   2069   2013   1803
   2093   2028   2043
   2122   2047   2289
   2152   2068   2529
   2186   2091   2762
   2221   2115   2998
   2262   2462   1577
   2272   2461   1710
   2286   2464   1882
   2307   2473   2082
   2330   2484   2302
   2356   2496   2525
   2386   2510   2746
   2418   2527   2968
   2452   2543   3192
   2516   2935   1878
   2526   2932   2026
   2542   2933   2193
   2562   2937   2382
   2584   2944   2587
   2612   2952   2794
   2640   2961   3004
   2672   2971   3214
   2704   2980   3419
   2809   3452   2227
   2821   3445   2373
   2838   3442   2540
   2857   3440   2726
   2881   3439   2923
   2909   3440   3118
   2937   3440   3306
   2967   3441   3488
   3000   3441   3661
   3133   3920   2615
   3145   3910   2766
   3162   3899   2936
   3182   3892   3115
   3205   3882   3286
   3229   3875   3453
   3256   3865   3611
   3285   3855   3763
   3315   3844   3912
   1894   682   707
   1896   686   784
   1904   701   998
   1918   727   1278
   1937   767   1595
   1962   814   1905
   1989   866   2192
   2020   921   2466
   2055   977   2730
   1925   883   769
   1930   887   850
   1939   902   1060
   1954   927   1332
   1976   963   1637
   2001   1007   1937
   2030   1056   2218
   2061   1106   2486
   2096   1159   2744
   2002   1209   913
   2008   1213   1000
   2019   1225   1202
   2036   1247   1457
   2058   1277   1738
   2085   1313   2020
   2115   1353   2289
   2146   1394   2546
   2181   1438   2797
   2131   1624   1131
   2137   1627   1229
   2151   1636   1418
   2168   1652   1647
   2192   1673   1900
   2218   1699   2161
   2248   1727   2413
   2281   1757   2656
   2315   1789   2895
   2307   2065   1386
   2315   2067   1501
   2329   2073   1676
   2349   2084   1885
   2373   2101   2117
   2399   2119   2354
   2428   2140   2586
   2460   2162   2814
   2494   2185   3045
   2518   2521   1652
   2528   2521   1790
   2543   2525   1960
   2562   2533   2157
   2586   2544   2371
   2613   2557   2588
   2643   2572   2804
   2673   2587   3022
   2707   2604   3241
   2754   2989   1956
   2767   2987   2099
   2784   2987   2267
   2805   2992   2454
   2830   2999   2656
   2859   3007   2860
   2888   3016   3064
   2922   3026   3269
   2956   3038   3466
   3038   3495   2299
   3052   3488   2447
   3071   3486   2616
   3093   3483   2801
   3118   3484   2995
   3147   3484   3185
   3176   3485   3365
   3207   3484   3539
   3242   3485   3703
   3338   3951   2693
   3353   3940   2847
   3371   3930   3014
   3393   3921   3188
   3416   3911   3356
   3440   3901   3514
   3468   3890   3665
   3498   3879   3809
   3529   3865   3952
   2243   872   896
   2245   875   969
   2253   887   1164
   2263   908   1415
   2280   940   1701
   2302   980   1986
   2325   1023   2261
   2351   1070   2523
   2379   1118   2777
   2269   1056   947
   2272   1059   1025
   2280   1072   1218
   2294   1094   1464
   2312   1125   1740
   2334   1162   2019
   2359   1203   2286
   2387   1247   2545
   2417   1292   2795
   2333   1351   1070
   2338   1355   1155
   2348   1366   1345
   2362   1385   1576
   2383   1412   1836
   2407   1444   2100
   2434   1477   2356
   2462   1514   2606
   2493   1552   2849
   2442   1729   1259
   2450   1732   1357
   2461   1741   1537
   2477   1756   1750
   2498   1776   1991
   2524   1799   2238
   2552   1826   2479
   2581   1853   2714
   2613   1884   2949
   2596   2149   1485
   2604   2151   1603
   2618   2158   1775
   2636   2169   1975
   2659   2184   2199
   2684   2203   2429
   2712   2223   2651
   2743   2243   2874
   2775   2267   3100
   2787   2591   1750
   2797   2591   1881
   2813   2595   2049
   2834   2604   2241
   2858   2616   2450
   2885   2629   2661
   2916   2643   2871
   2948   2660   3083
   2982   2675   3296
   3013   3055   2051
   3025   3053   2183
   3043   3053   2349
   3066   3059   2535
   3093   3066   2735
   3121   3074   2935
   3153   3082   3135
   3185   3094   3329
   3222   3104   3516
   3281   3546   2390
   3294   3540   2533
   3312   3537   2704
   3335   3536   2887
   3360   3535   3077
   3387   3534   3257
   3416   3534   3430
   3447   3533   3594
   3480   3532   3750
   3544   3988   2780
   3559   3976   2936
   3578   3966   3103
   3599   3956   3272
   3622   3945   3431
   3647   3933   3581
   3674   3919   3724
   3702   3903   3861
   3732   3886   3984
   2588   1054   1078
   2591   1056   1147
   2598   1067   1328
   2606   1086   1554
   2621   1112   1811
   2640   1145   2078
   2660   1182   2337
   2683   1221   2589
   2708   1262   2835
   2609   1227   1121
   2610   1230   1196
   2619   1241   1376
   2631   1259   1598
   2646   1286   1849
   2666   1317   2108
   2689   1352   2363
   2713   1388   2610
   2740   1427   2854
   2662   1495   1225
   2666   1499   1310
   2676   1508   1485
   2688   1525   1699
   2708   1548   1939
   2728   1576   2190
   2752   1606   2435
   2778   1636   2672
   2806   1671   2908
   2754   1840   1386
   2761   1844   1486
   2773   1853   1657
   2789   1866   1860
   2808   1885   2088
   2832   1908   2324
   2857   1932   2554
   2886   1959   2780
   2918   1985   3010
   2892   2242   1592
   2901   2244   1712
   2915   2251   1881
   2932   2263   2075
   2955   2278   2290
   2982   2295   2510
   3011   2313   2724
   3040   2334   2942
   3072   2356   3161
   3071   2672   1862
   3082   2671   1980
   3099   2675   2144
   3119   2685   2333
   3143   2697   2534
   3171   2710   2741
   3201   2725   2947
   3233   2740   3152
   3267   2757   3354
   3283   3130   2157
   3295   3128   2275
   3313   3130   2440
   3335   3136   2626
   3360   3143   2823
   3387   3151   3017
   3417   3161   3210
   3448   3168   3394
   3480   3180   3569
   3514   3606   2502
   3528   3600   2628
   3546   3597   2800
   3568   3594   2982
   3591   3593   3164
   3617   3592   3336
   3645   3590   3498
   3673   3587   3651
   3704   3586   3799
   3745   4014   2895
   3758   4008   3036
   3776   4001   3199
   3796   3995   3362
   3819   3978   3512
   3844   3964   3654
   3869   3944   3789
   3897   3921   3916
   3925   3890   3996
