Resources/LUT/Blue Note.3dl
# 17x17x17 .3dl lookup table from LUT Buddy
0 128 256 384 512 640 768 896 1023
   4   11   26
   11   18   35
   30   37   64
   78   85   131
   179   181   252
   314   312   391
   432   429   518
   536   535   629
   634   633   730
   62   69   110
   66   73   115
   85   91   140
   140   144   208
   247   247   322
   376   373   457
   488   487   578
   591   591   685
   686   685   781
   284   285   360
   288   290   364
   307   309   383
   352   356   430
   438   445   520
   552   560   635
   660   665   741
   758   761   839
   845   844   925
   787   820   772
   794   827   778
   814   846   797
   856   885   840
   929   953   917
   1016   1034   1008
   1095   1107   1092
   1167   1174   1166
   1230   1232   1232
   1398   1389   1222
   1402   1393   1226
   1419   1407   1242
   1453   1434   1275
   1505   1475   1326
   1561   1519   1378
   1611   1559   1423
   1652   1589   1456
   1690   1618   1485
   1903   1808   1600
   1906   1812   1603
   1916   1823   1613
   1936   1843   1633
   1967   1875   1665
   1997   1907   1699
   2026   1937   1731
   2052   1965   1762
   2079   1992   1792
   2195   2157   1834
   2198   2161   1839
   2211   2174   1855
   2237   2201   1889
   2269   2233   1931
   2299   2262   1971
   2328   2292   2009
   2354   2318   2043
   2380   2343   2078
   2479   2493   2068
   2486   2501   2079
   2505   2519   2105
   2534   2546   2148
   2567   2577   2194
   2596   2604   2235
   2620   2626   2271
   2645   2649   2306
   2669   2670   2340
   2728   2764   2274
   2750   2784   2300
   2780   2812   2341
   2815   2844   2391
   2853   2878   2440
   2888   2909   2486
   2919   2936   2525
   2952   2964   2566
   2977   2986   2599
   18   25   45
   20   27   49
   37   44   75
   86   92   141
   187   189   261
   322   320   400
   439   436   525
   543   543   637
   641   640   737
   75   82   127
   79   86   133
   100   106   160
   155   159   226
   262   262   337
   389   386   472
   501   500   591
   604   604   697
   699   698   793
   303   306   379
   308   311   384
   328   333   405
   374   380   453
   464   472   544
   579   587   659
   686   691   764
   784   784   860
   870   867   945
   821   852   796
   829   859   802
   850   879   823
   895   921   868
   970   990   948
   1056   1070   1038
   1134   1143   1120
   1205   1208   1193
   1266   1264   1256
   1433   1415   1247
   1443   1423   1255
   1463   1439   1273
   1497   1466   1306
   1551   1508   1357
   1606   1551   1406
   1654   1587   1446
   1696   1618   1478
   1734   1645   1504
   1927   1833   1618
   1932   1839   1623
   1946   1853   1635
   1968   1876   1658
   2000   1909   1692
   2033   1943   1729
   2062   1974   1762
   2092   2005   1796
   2118   2032   1827
   2225   2186   1856
   2232   2193   1863
   2248   2209   1883
   2277   2237   1920
   2311   2271   1964
   2345   2303   2006
   2373   2331   2044
   2401   2357   2080
   2429   2384   2115
   2519   2525   2094
   2532   2537   2109
   2554   2557   2140
   2587   2588   2185
   2623   2620   2233
   2651   2646   2273
   2681   2671   2312
   2707   2694   2348
   2731   2715   2381
   2784   2803   2312
   2809   2825   2340
   2847   2858   2388
   2889   2895   2441
   2931   2931   2494
   2968   2961   2537
   3003   2991   2579
   3038   3019   2619
   3063   3037   2651
   72   79   123
   75   81   127
   91   97   148
   137   141   205
   232   233   307
   356   354   437
   468   467   557
   574   573   665
   672   669   764
   143   147   212
   148   152   218
   168   171   240
   220   221   295
   315   314   393
   433   432   518
   545   545   633
   649   647   737
   744   738   830
   366   374   440
   373   381   446
   396   404   468
   446   455   517
   539   545   606
   653   655   717
   759   756   820
   853   845   912
   936   924   994
   907   922   851
   916   931   859
   941   954   881
   986   995   928
   1063   1066   1009
   1145   1141   1095
   1221   1211   1175
   1288   1273   1244
   1349   1328   1306
   1524   1479   1309
   1535   1487   1317
   1557   1504   1337
   1597   1535   1372
   1650   1576   1420
   1701   1615   1463
   1745   1649   1497
   1784   1679   1526
   1819   1708   1552
   1989   1892   1662
   1996   1899   1668
   2012   1914   1682
   2040   1943   1711
   2074   1978   1748
   2110   2015   1788
   2143   2048   1825
   2173   2078   1859
   2204   2109   1895
   2298   2244   1902
   2311   2255   1913
   2332   2275   1937
   2364   2306   1978
   2402   2341   2024
   2438   2375   2068
   2470   2404   2108
   2500   2432   2144
   2531   2460   2182
   2612   2589   2150
   2628   2603   2168
   2656   2626   2203
   2692   2659   2251
   2729   2691   2300
   2761   2718   2341
   2790   2742   2379
   2819   2768   2415
   2848   2791   2451
   2896   2874   2380
   2926   2898   2413
   2967   2934   2465
   3011   2970   2518
   3052   3005   2568
   3091   3036   2613
   3130   3067   2655
   3158   3089   2689
   3181   3106   2720
   223   224   298
   227   228   302
   242   243   317
   276   276   353
   347   346   426
   453   452   534
   564   559   643
   669   659   744
   765   750   837
   304   304   380
   309   310   386
   329   329   404
   370   369   445
   453   450   525
   569   560   635
   678   663   738
   779   758   835
   871   843   922
   551   541   578
   562   550   586
   589   574   608
   641   622   655
   728   704   738
   833   802   840
   930   893   935
   1018   975   1022
   1095   1047   1098
   1091   1058   961
   1103   1069   971
   1131   1094   996
   1179   1137   1044
   1249   1202   1120
   1324   1271   1200
   1394   1336   1274
   1456   1393   1337
   1512   1444   1393
   1697   1603   1432
   1710   1613   1443
   1735   1632   1464
   1771   1661   1495
   1816   1700   1533
   1859   1737   1568
   1898   1772   1601
   1931   1804   1631
   1966   1836   1662
   2107   1994   1740
   2118   2004   1748
   2137   2023   1766
   2168   2054   1799
   2205   2090   1839
   2243   2126   1881
   2276   2158   1919
   2310   2189   1955
   2343   2219   1992
   2425   2337   1978
   2439   2349   1992
   2463   2371   2019
   2498   2404   2062
   2538   2440   2110
   2573   2472   2154
   2604   2500   2193
   2635   2527   2230
   2666   2555   2268
   2743   2675   2227
   2761   2689   2247
   2792   2715   2286
   2828   2747   2334
   2864   2778   2381
   2895   2805   2422
   2924   2829   2459
   2952   2852   2495
   2980   2875   2530
   3028   2954   2461
   3059   2980   2497
   3101   3015   2549
   3146   3052   2603
   3188   3088   2652
   3226   3118   2696
   3261   3146   2736
   3283   3163   2766
   3304   3178   2792
   504   479   535
   510   484   539
   528   500   554
   561   529   582
   625   588   640
   720   675   727
   818   765   820
   910   851   909
   995   929   991
   634   585   621
   643   592   627
   665   610   644
   704   645   678
   774   710   744
   869   798   835
   961   883   924
   1046   963   1008
   1124   1034   1085
   887   800   786
   898   809   794
   925   832   815
   968   871   857
   1041   940   931
   1127   1022   1020
   1208   1099   1104
   1281   1168   1180
   1347   1230   1248
   1358   1251   1124
   1372   1263   1134
   1398   1287   1158
   1440   1326   1203
   1500   1384   1271
   1564   1445   1341
   1621   1500   1403
   1671   1547   1455
   1717   1591   1500
   1897   1764   1584
   1907   1774   1592
   1926   1791   1606
   1956   1817   1630
   1993   1852   1662
   2033   1888   1696
   2069   1922   1729
   2102   1952   1761
   2135   1983   1792
   2254   2113   1832
   2267   2124   1842
   2289   2143   1863
   2321   2173   1898
   2360   2210   1941
   2396   2243   1983
   2432   2277   2023
   2464   2307   2059
   2495   2335   2094
   2568   2438   2063
   2584   2450   2078
   2608   2472   2106
   2645   2506   2152
   2682   2540   2199
   2716   2571   2242
   2747   2599   2281
   2776   2626   2317
   2806   2651   2355
   2880   2763   2308
   2899   2778   2330
   2929   2805   2370
   2964   2835   2418
   2998   2864   2463
   3027   2889   2502
   3054   2912   2538
   3081   2934   2572
   3107   2955   2606
   3156   3033   2544
   3190   3061   2582
   3231   3096   2633
   3273   3132   2686
   3310   3162   2730
   3347   3193   2773
   3380   3219   2812
   3401   3234   2838
   3422   3249   2864
   888   771   773
   894   776   777
   909   789   789
   937   813   813
   985   858   861
   1060   928   938
   1136   1000   1016
   1210   1070   1093
   1279   1135   1165
   1003   859   843
   1011   865   848
   1029   880   862
   1061   908   892
   1117   961   950
   1193   1033   1030
   1266   1104   1108
   1336   1170   1181
   1399   1231   1249
   1215   1039   979
   1225   1047   987
   1249   1067   1006
   1286   1103   1044
   1347   1162   1112
   1416   1231   1191
   1482   1296   1264
   1542   1355   1331
   1596   1409   1390
   1617   1450   1295
   1628   1460   1305
   1650   1482   1328
   1685   1518   1368
   1735   1569   1426
   1785   1620   1483
   1829   1666   1532
   1867   1706   1572
   1901   1742   1605
   2071   1912   1703
   2080   1920   1709
   2099   1937   1724
   2128   1962   1748
   2165   1996   1782
   2203   2030   1817
   2238   2061   1850
   2272   2091   1884
   2305   2121   1917
   2406   2228   1925
   2418   2238   1936
   2440   2257   1957
   2472   2287   1994
   2510   2322   2037
   2547   2356   2080
   2579   2386   2118
   2611   2415   2155
   2641   2442   2190
   2706   2533   2143
   2721   2545   2160
   2748   2570   2192
   2782   2601   2236
   2819   2634   2283
   2853   2664   2327
   2881   2690   2364
   2910   2716   2400
   2938   2740   2436
   3011   2848   2388
   3031   2864   2413
   3062   2892   2454
   3095   2921   2501
   3129   2950   2545
   3156   2973   2582
   3183   2995   2617
   3207   3015   2649
   3232   3035   2681
   3281   3111   2627
   3313   3138   2666
   3355   3173   2717
   3396   3208   2768
   3433   3240   2813
   3468   3268   2853
   3499   3293   2889
   3518   3306   2913
   3535   3318   2936
   1221   1011   967
   1226   1014   971
   1239   1025   981
   1261   1045   1003
   1301   1084   1047
   1361   1143   1115
   1424   1204   1185
   1483   1263   1253
   1539   1319   1316
   1314   1081   1023
   1320   1086   1028
   1335   1099   1041
   1362   1124   1069
   1410   1170   1122
   1471   1232   1194
   1531   1293   1263
   1589   1351   1330
   1639   1402   1387
   1491   1241   1145
   1500   1249   1152
   1517   1266   1169
   1550   1299   1206
   1601   1352   1268
   1658   1412   1337
   1711   1469   1402
   1758   1519   1458
   1803   1567   1510
   1829   1636   1463
   1839   1647   1473
   1858   1668   1495
   1887   1702   1530
   1927   1747   1578
   1963   1790   1620
   1996   1828   1656
   2025   1862   1685
   2055   1890   1711
   2234   2041   1806
   2244   2050   1813
   2264   2066   1828
   2292   2091   1854
   2331   2125   1890
   2368   2157   1927
   2403   2188   1962
   2436   2216   1996
   2468   2245   2029
   2553   2334   2013
   2568   2346   2025
   2589   2365   2048
   2622   2395   2086
   2659   2430   2130
   2694   2462   2172
   2725   2490   2211
   2757   2519   2247
   2786   2545   2282
   2843   2627   2225
   2862   2641   2243
   2887   2665   2277
   2923   2697   2323
   2957   2728   2369
   2990   2758   2411
   3018   2782   2448
   3044   2806   2483
   3073   2831   2518
   3143   2935   2472
   3164   2953   2499
   3194   2979   2540
   3228   3008   2586
   3259   3036   2629
   3284   3056   2664
   3309   3077   2697
   3332   3095   2727
   3354   3113   2757
   3402   3188   2711
   3436   3216   2753
   3475   3251   2803
   3515   3285   2851
   3551   3315   2894
   3586   3344   2934
   3615   3368   2968
   3630   3379   2989
   3645   3389   3008
   1489   1202   1124
   1492   1205   1127
   1502   1213   1136
   1521   1231   1156
   1557   1268   1199
   1608   1322   1263
   1660   1375   1326
   1710   1429   1387
   1756   1477   1442
   1569   1266   1176
   1573   1270   1180
   1589   1284   1194
   1611   1307   1220
   1652   1349   1270
   1704   1405   1335
   1754   1460   1399
   1800   1510   1456
   1841   1555   1507
   1724   1426   1299
   1733   1435   1307
   1749   1452   1325
   1777   1483   1359
   1820   1532   1415
   1865   1585   1476
   1908   1635   1531
   1945   1680   1578
   1978   1720   1620
   2012   1830   1641
   2020   1841   1652
   2036   1861   1671
   2061   1888   1697
   2096   1922   1728
   2132   1954   1759
   2170   1985   1788
   2205   2014   1817
   2238   2041   1845
   2398   2162   1902
   2408   2170   1909
   2429   2187   1926
   2460   2213   1955
   2496   2245   1993
   2534   2279   2032
   2567   2308   2068
   2599   2336   2102
   2630   2364   2136
   2703   2439   2100
   2716   2450   2112
   2739   2471   2138
   2771   2501   2177
   2807   2533   2222
   2842   2565   2264
   2872   2592   2301
   2902   2619   2336
   2931   2645   2372
   2985   2723   2310
   3001   2736   2329
   3028   2760   2364
   3062   2792   2409
   3095   2822   2455
   3124   2847   2494
   3152   2873   2531
   3177   2895   2564
   3203   2917   2598
   3276   3025   2561
   3297   3043   2589
   3326   3069   2631
   3357   3095   2674
   3385   3120   2713
   3409   3139   2746
   3434   3160   2778
   3455   3177   2806
   3477   3193   2834
   3517   3263   2796
   3553   3295   2840
   3591   3328   2889
   3628   3360   2934
   3661   3388   2974
   3692   3414   3011
   3724   3441   3046
   3739   3452   3066
   3750   3458   3080
   1724   1380   1273
   1728   1383   1276
   1738   1393   1285
   1755   1410   1305
   1785   1443   1344
   1826   1491   1401
   1870   1540   1458
   1909   1587   1512
   1946   1630   1559
   1796   1445   1326
   1801   1450   1329
   1812   1461   1341
   1832   1484   1367
   1867   1524   1414
   1909   1574   1472
   1948   1622   1526
   1984   1667   1576
   2017   1707   1619
   1928   1612   1458
   1935   1621   1466
   1949   1638   1483
   1971   1667   1514
   2004   1712   1563
   2038   1760   1614
   2068   1804   1658
   2096   1844   1696
   2117   1878   1726
   2189   1994   1785
   2199   2001   1791
   2218   2016   1804
   2245   2038   1824
   2282   2067   1853
   2321   2097   1884
   2359   2126   1915
   2391   2152   1943
   2424   2179   1973
   2563   2278   1997
   2573   2286   2004
   2594   2304   2023
   2624   2330   2055
   2661   2363   2094
   2697   2394   2134
   2729   2423   2170
   2760   2450   2204
   2791   2477   2238
   2851   2542   2188
   2864   2552   2199
   2887   2573   2226
   2920   2603   2267
   2957   2636   2313
   2990   2668   2355
   3018   2694   2391
   3048   2719   2427
   3075   2744   2461
   3125   2819   2398
   3138   2829   2414
   3166   2854   2451
   3200   2885   2497
   3232   2915   2542
   3260   2940   2580
   3286   2963   2615
   3312   2986   2648
   3337   3007   2680
   3411   3119   2657
   3430   3135   2683
   3458   3159   2723
   3486   3185   2765
   3513   3208   2802
   3534   3226   2831
   3558   3246   2862
   3577   3260   2888
   3595   3274   2912
   3632   3343   2887
   3665   3371   2928
   3700   3404   2974
   3735   3432   3016
   3766   3461   3055
   3798   3488   3091
   3828   3514   3126
   3838   3519   3138
   3842   3520   3146
