Resources/LUT/Blue Note.3dl
# 17x17x17 .3dl lookup table from LUT Buddy
   0   64   128   192   256   320   384   448   512   576   640   704   768   832   896   960   1023
   4   11   26
   5   11   26
   11   18   35
   18   25   47
   30   37   64
   48   55   90
   78   85   131
   122   127   188
   179   181   252
   246   246   321
   314   312   391
   376   374   458
   432   429   518
   485   482   574
   536   535   629
   586   585   680
   634   633   730
   23   30   54
   23   30   54
   26   33   58
   32   40   67
   44   51   84
   63   70   112
   96   102   155
   143   147   212
   203   205   277
   271   270   347
   338   336   417
   398   395   482
   454   451   541
   507   505   598
   558   557   651
   607   607   702
   655   654   751
   62   69   110
   62   69   110
   66   73   115
   73   79   124
   85   91   140
   106   112   168
   140   144   208
   187   189   260
   247   247   322
   312   310   389
   376   373   457
   434   431   519
   488   487   578
   541   541   633
   591   591   685
   641   641   735
   686   685   781
   146   149   215
   145   149   215
   149   153   219
   157   160   228
   169   172   241
   189   192   263
   222   223   297
   265   265   341
   319   317   397
   378   376   460
   438   437   523
   493   494   582
   547   549   638
   600   602   691
   650   651   741
   698   698   789
   743   742   834
   284   285   360
   284   285   359
   288   290   364
   296   298   372
   307   309   383
   325   328   402
   352   356   430
   389   394   469
   438   445   520
   495   503   578
   552   560   635
   607   614   689
   660   665   741
   711   715   792
   758   761   839
   803   803   882
   845   844   925
   489   513   547
   488   511   546
   495   518   552
   503   527   559
   516   539   571
   533   556   588
   562   584   615
   598   618   651
   647   665   699
   699   714   751
   751   765   803
   801   811   852
   846   855   898
   891   897   943
   934   938   986
   973   975   1025
   1010   1010   1062
   787   820   772
   787   820   772
   794   827   778
   802   834   785
   814   846   797
   830   861   814
   856   885   840
   889   916   874
   929   953   917
   973   994   963
   1016   1034   1008
   1056   1071   1050
   1095   1107   1092
   1133   1142   1131
   1167   1174   1166
   1199   1204   1199
   1230   1232   1232
   1090   1120   995
   1088   1118   994
   1095   1125   1000
   1104   1133   1008
   1114   1142   1018
   1131   1157   1036
   1150   1175   1058
   1179   1200   1088
   1215   1232   1127
   1249   1262   1164
   1283   1292   1200
   1316   1322   1235
   1348   1349   1268
   1376   1374   1297
   1403   1398   1325
   1430   1421   1351
   1454   1442   1375
   1398   1389   1222
   1394   1386   1220
   1402   1393   1226
   1411   1399   1233
   1419   1407   1242
   1435   1419   1257
   1453   1434   1275
   1478   1454   1300
   1505   1475   1326
   1535   1499   1354
   1561   1519   1378
   1586   1539   1401
   1611   1559   1423
   1633   1575   1441
   1652   1589   1456
   1671   1604   1471
   1690   1618   1485
   1715   1620   1457
   1716   1620   1457
   1721   1624   1460
   1726   1628   1465
   1737   1637   1473
   1745   1643   1480
   1758   1654   1491
   1775   1669   1505
   1793   1686   1520
   1808   1701   1534
   1825   1718   1549
   1839   1732   1563
   1856   1749   1579
   1870   1763   1592
   1884   1777   1606
   1897   1790   1619
   1909   1803   1631
   1903   1808   1600
   1902   1808   1600
   1906   1812   1603
   1910   1816   1607
   1916   1823   1613
   1924   1832   1621
   1936   1843   1633
   1951   1858   1648
   1967   1875   1665
   1983   1892   1683
   1997   1907   1699
   2013   1923   1716
   2026   1937   1731
   2040   1952   1747
   2052   1965   1762
   2064   1977   1776
   2079   1992   1792
   2049   1984   1717
   2049   1984   1717
   2052   1987   1720
   2055   1991   1724
   2063   1999   1733
   2073   2009   1744
   2085   2023   1759
   2100   2039   1778
   2117   2056   1798
   2131   2071   1817
   2147   2086   1836
   2162   2102   1855
   2176   2115   1871
   2189   2129   1889
   2203   2142   1905
   2217   2156   1922
   2229   2170   1939
   2195   2157   1834
   2194   2158   1835
   2198   2161   1839
   2203   2167   1845
   2211   2174   1855
   2222   2186   1870
   2237   2201   1889
   2253   2216   1910
   2269   2233   1931
   2284   2248   1951
   2299   2262   1971
   2313   2277   1991
   2328   2292   2009
   2341   2304   2027
   2354   2318   2043
   2367   2328   2060
   2380   2343   2078
   2336   2326   1950
   2337   2328   1952
   2341   2331   1958
   2347   2336   1965
   2357   2346   1978
   2369   2359   1996
   2384   2373   2017
   2400   2389   2039
   2418   2406   2062
   2433   2422   2084
   2446   2434   2103
   2461   2448   2123
   2475   2461   2141
   2487   2473   2159
   2500   2486   2177
   2513   2498   2195
   2527   2511   2213
   2479   2493   2068
   2479   2494   2071
   2486   2501   2079
   2493   2507   2089
   2505   2519   2105
   2519   2531   2125
   2534   2546   2148
   2551   2561   2171
   2567   2577   2194
   2582   2591   2216
   2596   2604   2235
   2607   2615   2253
   2620   2626   2271
   2633   2638   2289
   2645   2649   2306
   2658   2661   2325
   2669   2670   2340
   2630   2662   2193
   2633   2664   2199
   2640   2670   2208
   2650   2680   2222
   2663   2692   2240
   2677   2704   2261
   2693   2719   2285
   2708   2731   2307
   2722   2746   2329
   2737   2758   2349
   2750   2770   2369
   2761   2780   2386
   2773   2790   2403
   2784   2800   2420
   2795   2810   2437
   2806   2820   2453
   2819   2830   2470
   2728   2764   2274
   2737   2772   2285
   2750   2784   2300
   2763   2797   2319
   2780   2812   2341
   2796   2826   2364
   2815   2844   2391
   2835   2861   2417
   2853   2878   2440
   2870   2893   2463
   2888   2909   2486
   2904   2922   2506
   2919   2936   2525
   2937   2951   2546
   2952   2964   2566
   2967   2977   2585
   2977   2986   2599
   6   13   28
   6   13   28
   11   18   36
   19   26   47
   30   37   64
   48   55   90
   78   84   131
   122   127   187
   178   181   252
   245   245   320
   313   312   391
   376   373   457
   432   428   517
   484   482   574
   535   534   628
   585   585   680
   633   632   729
   24   31   55
   24   31   55
   26   33   59
   33   40   68
   44   51   85
   64   71   112
   97   103   156
   143   147   213
   203   204   277
   271   271   347
   338   336   417
   399   396   482
   454   451   541
   507   505   598
   558   557   651
   608   607   703
   656   655   751
   63   70   111
   63   70   111
   67   74   116
   74   81   125
   86   92   142
   108   113   170
   141   145   210
   188   190   262
   248   249   324
   313   312   391
   377   374   459
   435   432   521
   489   488   579
   542   542   634
   593   593   687
   642   642   737
   689   688   783
   147   151   216
   147   151   216
   151   155   222
   159   162   230
   171   174   244
   192   194   266
   224   225   299
   268   268   344
   321   320   399
   381   379   463
   440   440   526
   496   497   585
   550   552   640
   603   604   694
   653   654   744
   701   701   792
   746   745   837
   286   288   362
   286   288   362
   291   293   367
   299   301   375
   310   313   387
   329   332   406
   356   360   434
   394   399   473
   443   450   525
   501   508   583
   557   565   639
   613   619   694
   666   671   747
   717   720   797
   764   766   844
   809   810   888
   851   850   930
   494   518   551
   493   517   550
   501   524   556
   509   533   564
   522   545   576
   541   564   594
   568   590   621
   606   627   658
   655   673   706
   708   724   759
   759   772   809
   809   820   859
   856   865   907
   901   907   951
   944   947   994
   982   984   1033
   1019   1019   1071
   794   826   777
   793   826   777
   801   834   784
   811   843   792
   823   854   803
   841   871   821
   866   894   847
   899   925   882
   940   963   925
   985   1005   973
   1027   1044   1017
   1068   1082   1060
   1107   1119   1101
   1144   1153   1139
   1179   1185   1175
   1210   1214   1208
   1241   1243   1240
   1098   1126   1001
   1098   1127   1001
   1103   1132   1006
   1113   1141   1014
   1123   1150   1025
   1141   1166   1043
   1162   1184   1066
   1191   1210   1097
   1228   1243   1136
   1262   1273   1173
   1297   1304   1210
   1330   1333   1244
   1361   1360   1276
   1390   1386   1306
   1417   1409   1333
   1442   1432   1358
   1468   1453   1383
   1407   1396   1229
   1407   1396   1229
   1414   1401   1234
   1422   1408   1242
   1433   1416   1252
   1446   1427   1265
   1467   1444   1285
   1493   1465   1311
   1521   1487   1337
   1549   1509   1363
   1577   1531   1388
   1603   1551   1411
   1626   1569   1431
   1648   1585   1448
   1668   1600   1464
   1688   1615   1479
   1706   1628   1492
   1727   1629   1465
   1725   1627   1464
   1733   1633   1469
   1738   1637   1473
   1746   1644   1480
   1759   1654   1490
   1773   1666   1502
   1788   1681   1515
   1805   1698   1530
   1821   1714   1544
   1837   1730   1559
   1853   1746   1574
   1868   1760   1588
   1882   1775   1602
   1898   1791   1618
   1911   1805   1632
   1926   1820   1647
   1910   1816   1605
   1910   1816   1606
   1913   1819   1608
   1919   1825   1614
   1926   1833   1620
   1935   1842   1629
   1948   1856   1642
   1964   1872   1659
   1979   1889   1676
   1994   1904   1692
   2010   1921   1710
   2026   1937   1728
   2042   1953   1745
   2053   1966   1759
   2068   1982   1776
   2082   1995   1791
   2095   2010   1808
   2056   1991   1721
   2057   1993   1723
   2060   1996   1726
   2067   2004   1733
   2074   2010   1741
   2085   2023   1754
   2099   2037   1771
   2116   2055   1791
   2131   2071   1810
   2148   2087   1830
   2166   2105   1851
   2180   2119   1869
   2195   2134   1887
   2209   2148   1905
   2222   2162   1922
   2235   2174   1938
   2249   2188   1955
   2205   2167   1841
   2205   2168   1843
   2211   2173   1848
   2216   2179   1855
   2226   2189   1867
   2238   2201   1882
   2254   2217   1902
   2270   2233   1923
   2286   2249   1945
   2303   2266   1967
   2318   2281   1987
   2333   2296   2007
   2348   2310   2025
   2360   2322   2041
   2373   2335   2060
   2387   2348   2077
   2401   2361   2095
   2347   2337   1958
   2350   2339   1961
   2356   2345   1968
   2363   2351   1977
   2373   2361   1991
   2387   2375   2009
   2403   2391   2032
   2420   2406   2054
   2436   2423   2076
   2452   2438   2099
   2467   2452   2119
   2482   2466   2138
   2494   2478   2157
   2507   2490   2174
   2520   2502   2192
   2533   2514   2210
   2545   2526   2227
   2493   2505   2079
   2497   2509   2083
   2504   2515   2091
   2512   2523   2103
   2525   2535   2120
   2539   2549   2140
   2556   2564   2164
   2573   2579   2187
   2589   2595   2211
   2605   2610   2232
   2618   2622   2252
   2633   2635   2271
   2646   2647   2290
   2658   2657   2307
   2669   2668   2323
   2682   2680   2341
   2695   2691   2359
   2648   2676   2206
   2652   2680   2212
   2661   2688   2222
   2671   2695   2237
   2685   2709   2257
   2701   2722   2279
   2718   2738   2302
   2733   2752   2325
   2749   2765   2348
   2763   2777   2368
   2776   2789   2387
   2789   2800   2404
   2800   2810   2422
   2813   2820   2439
   2825   2831   2457
   2837   2841   2472
   2848   2851   2489
   2751   2781   2291
   2761   2790   2301
   2770   2798   2315
   2787   2812   2334
   2805   2830   2360
   2824   2846   2385
   2846   2866   2412
   2865   2883   2438
   2886   2900   2463
   2904   2916   2486
   2920   2931   2507
   2938   2946   2529
   2956   2962   2550
   2973   2975   2570
   2989   2990   2590
   3001   2999   2607
   3013   3009   2622
   18   25   45
   18   25   45
   20   27   49
   26   33   59
   37   44   75
   55   62   100
   86   92   141
   130   135   197
   187   189   261
   254   254   329
   322   320   400
   384   381   466
   439   436   525
   492   490   582
   543   543   637
   593   592   688
   641   640   737
   33   40   68
   33   40   68
   36   43   72
   42   49   82
   54   61   98
   74   81   126
   107   113   169
   154   158   225
   215   216   289
   282   281   358
   349   347   429
   408   405   492
   463   461   551
   516   515   608
   567   567   661
   617   616   712
   664   663   760
   75   82   127
   75   82   128
   79   86   133
   87   93   143
   100   106   160
   121   126   187
   155   159   226
   202   204   277
   262   262   337
   326   325   405
   389   386   472
   447   444   533
   501   500   591
   553   553   645
   604   604   697
   653   653   747
   699   698   793
   162   165   233
   162   165   234
   166   169   238
   175   177   247
   187   190   261
   209   210   283
   241   242   316
   284   284   361
   337   335   416
   397   396   479
   455   456   541
   511   513   599
   565   568   655
   618   619   708
   668   669   758
   716   715   805
   760   758   849
   303   306   379
   303   306   379
   308   311   384
   316   320   393
   328   333   405
   346   352   424
   374   380   453
   413   421   493
   464   472   544
   522   530   602
   579   587   659
   634   640   712
   686   691   764
   737   739   814
   784   784   860
   828   827   904
   870   867   945
   517   540   568
   517   540   568
   525   548   575
   534   557   583
   548   571   596
   566   588   613
   596   617   642
   634   652   679
   683   699   728
   735   749   779
   787   798   831
   836   844   880
   882   888   926
   926   930   971
   967   969   1012
   1005   1005   1051
   1042   1040   1088
   821   852   796
   821   852   796
   829   859   802
   837   867   810
   850   879   823
   869   897   841
   895   921   868
   928   952   904
   970   990   948
   1014   1031   994
   1056   1070   1038
   1096   1107   1080
   1134   1143   1120
   1170   1176   1157
   1205   1208   1193
   1236   1237   1225
   1266   1264   1256
   1124   1149   1019
   1124   1149   1019
   1131   1155   1025
   1139   1163   1033
   1152   1174   1045
   1168   1188   1062
   1192   1209   1086
   1221   1235   1118
   1256   1266   1156
   1291   1297   1193
   1325   1327   1229
   1357   1355   1262
   1387   1381   1293
   1417   1407   1323
   1443   1429   1349
   1467   1451   1373
   1493   1472   1397
   1433   1415   1247
   1432   1414   1246
   1443   1423   1255
   1449   1428   1261
   1463   1439   1273
   1478   1450   1287
   1497   1466   1306
   1523   1486   1330
   1551   1508   1357
   1578   1530   1382
   1606   1551   1406
   1631   1570   1427
   1654   1587   1446
   1677   1604   1464
   1696   1618   1478
   1715   1632   1492
   1734   1645   1504
   1750   1646   1482
   1750   1646   1482
   1757   1651   1487
   1764   1657   1492
   1771   1664   1498
   1780   1674   1506
   1793   1686   1517
   1808   1701   1531
   1826   1719   1546
   1843   1736   1563
   1859   1752   1577
   1876   1769   1593
   1891   1784   1608
   1906   1799   1622
   1919   1813   1636
   1933   1826   1650
   1949   1843   1667
   1927   1833   1618
   1928   1834   1619
   1932   1839   1623
   1937   1844   1627
   1946   1853   1635
   1955   1863   1645
   1968   1876   1658
   1983   1892   1675
   2000   1909   1692
   2016   1926   1711
   2033   1943   1729
   2048   1960   1746
   2062   1974   1762
   2077   1990   1779
   2092   2005   1796
   2104   2017   1811
   2118   2032   1827
   2074   2010   1734
   2076   2011   1736
   2079   2016   1740
   2086   2022   1747
   2095   2032   1757
   2106   2043   1770
   2120   2057   1787
   2137   2074   1807
   2154   2091   1827
   2171   2108   1848
   2187   2124   1868
   2204   2140   1887
   2218   2155   1905
   2232   2168   1922
   2246   2182   1940
   2260   2196   1956
   2275   2211   1975
   2225   2186   1856
   2226   2187   1857
   2232   2193   1863
   2238   2199   1871
   2248   2209   1883
   2262   2222   1900
   2277   2237   1920
   2294   2254   1942
   2311   2271   1964
   2328   2287   1985
   2345   2303   2006
   2360   2318   2026
   2373   2331   2044
   2387   2344   2061
   2401   2357   2080
   2415   2371   2097
   2429   2384   2115
   2370   2355   1973
   2374   2359   1977
   2379   2364   1984
   2388   2372   1994
   2399   2383   2009
   2414   2397   2029
   2431   2413   2051
   2448   2429   2074
   2466   2447   2097
   2481   2461   2119
   2497   2476   2141
   2512   2490   2160
   2525   2502   2178
   2539   2515   2197
   2552   2527   2214
   2566   2539   2232
   2580   2552   2249
   2519   2525   2094
   2524   2530   2100
   2532   2537   2109
   2541   2546   2121
   2554   2557   2140
   2571   2572   2162
   2587   2588   2185
   2605   2603   2209
   2623   2620   2233
   2636   2632   2254
   2651   2646   2273
   2666   2658   2293
   2681   2671   2312
   2694   2683   2330
   2707   2694   2348
   2720   2706   2366
   2731   2715   2381
   2677   2696   2225
   2683   2701   2231
   2692   2709   2243
   2703   2718   2259
   2719   2732   2279
   2735   2745   2301
   2753   2762   2326
   2769   2776   2350
   2786   2790   2372
   2801   2804   2393
   2815   2815   2412
   2828   2826   2430
   2841   2837   2447
   2853   2847   2465
   2866   2857   2482
   2880   2869   2499
   2893   2879   2517
   2784   2803   2312
   2795   2813   2323
   2809   2825   2340
   2827   2840   2362
   2847   2858   2388
   2868   2876   2414
   2889   2895   2441
   2911   2913   2468
   2931   2931   2494
   2950   2947   2516
   2968   2961   2537
   2986   2977   2560
   3003   2991   2579
   3022   3006   2600
   3038   3019   2619
   3049   3028   2635
   3063   3037   2651
   37   44   74
   37   44   74
   40   47   78
   45   52   86
   56   63   101
   74   80   125
   104   110   165
   148   151   217
   204   205   278
   269   269   345
   335   333   415
   395   392   478
   450   448   537
   503   502   594
   554   554   647
   604   603   698
   653   651   747
   54   61   99
   54   61   99
   58   65   103
   64   71   113
   76   83   129
   96   103   155
   129   134   196
   175   177   248
   234   235   309
   299   298   376
   364   361   445
   422   419   507
   476   474   565
   528   528   620
   580   580   673
   630   630   724
