Resources/LUT/Blue Note.3dl
# 17x17x17 .3dl lookup table from LUT Buddy
0 256 512 768 1023
   4   11   26
   30   37   64
   179   181   252
   432   429   518
   634   633   730
   284   285   360
   307   309   383
   438   445   520
   660   665   741
   845   844   925
   1398   1389   1222
   1419   1407   1242
   1505   1475   1326
   1611   1559   1423
   1690   1618   1485
   2195   2157   1834
   2211   2174   1855
   2269   2233   1931
   2328   2292   2009
   2380   2343   2078
   2728   2764   2274
   2780   2812   2341
   2853   2878   2440
   2919   2936   2525
   2977   2986   2599
   72   79   123
   91   97   148
   232   233   307
   468   467   557
   672   669   764
   366   374   440
   396   404   468
   539   545   606
   759   756   820
   936   924   994
   1524   1479   1309
   1557   1504   1337
   1650   1576   1420
   1745   1649   1497
   1819   1708   1552
   2298   2244   1902
   2332   2275   1937
   2402   2341   2024
   2470   2404   2108
   2531   2460   2182
   2896   2874   2380
   2967   2934   2465
   3052   3005   2568
   3130   3067   2655
   3181   3106   2720
   504   479   535
   528   500   554
   625   588   640
   818   765   820
   995   929   991
   887   800   786
   925   832   815
   1041   940   931
   1208   1099   1104
   1347   1230   1248
   1897   1764   1584
   1926   1791   1606
   1993   1852   1662
   2069   1922   1729
   2135   1983   1792
   2568   2438   2063
   2608   2472   2106
   2682   2540   2199
   2747   2599   2281
   2806   2651   2355
   3156   3033   2544
   3231   3096   2633
   3310   3162   2730
   3380   3219   2812
   3422   3249   2864
   1221   1011   967
   1239   1025   981
   1301   1084   1047
   1424   1204   1185
   1539   1319   1316
   1491   1241   1145
   1517   1266   1169
   1601   1352   1268
   1711   1469   1402
   1803   1567   1510
   2234   2041   1806
   2264   2066   1828
   2331   2125   1890
   2403   2188   1962
   2468   2245   2029
   2843   2627   2225
   2887   2665   2277
   2957   2728   2369
   3018   2782   2448
   3073   2831   2518
   3402   3188   2711
   3475   3251   2803
   3551   3315   2894
   3615   3368   2968
   3645   3389   3008
   1724   1380   1273
   1738   1393   1285
   1785   1443   1344
   1870   1540   1458
   1946   1630   1559
   1928   1612   1458
   1949   1638   1483
   2004   1712   1563
   2068   1804   1658
   2117   1878   1726
   2563   2278   1997
   2594   2304   2023
   2661   2363   2094
   2729   2423   2170
   2791   2477   2238
   3125   2819   2398
   3166   2854   2451
   3232   2915   2542
   3286   2963   2615
   3337   3007   2680
   3632   3343   2887
   3700   3404   2974
   3766   3461   3055
   3828   3514   3126
   3842   3520   3146
