Resources/LUT/Bronze.3dl
# 17x17x17 .3dl lookup table from LUT Buddy
0 128 256 384 512 640 768 896 1023
   0   0   0
   29   3   9
   239   36   83
   612   285   482
   1034   648   997
   1382   947   1423
   1644   1171   1744
   1877   1371   2030
   2083   1546   2280
   56   32   5
   82   38   13
   271   105   82
   619   348   467
   1029   677   975
   1376   966   1405
   1639   1186   1729
   1871   1383   2015
   2077   1557   2268
   314   416   34
   330   421   41
   447   471   117
   721   619   492
   1089   864   987
   1420   1108   1413
   1674   1303   1735
   1900   1482   2017
   2101   1643   2269
   694   1000   103
   703   1002   114
   770   1027   237
   961   1112   583
   1261   1270   1046
   1551   1447   1457
   1783   1599   1768
   1993   1743   2045
   2182   1878   2292
   1119   1647   312
   1124   1646   328
   1169   1662   446
   1305   1716   743
   1539   1823   1164
   1779   1946   1544
   1980   2054   1841
   2154   2159   2113
   2307   2255   2356
   1465   2172   528
   1469   2170   544
   1507   2182   652
   1620   2226   918
   1815   2309   1305
   1999   2394   1661
   2158   2472   1946
   2308   2551   2206
   2449   2629   2439
   1747   2611   721
   1751   2609   741
   1784   2617   850
   1878   2650   1108
   2036   2711   1476
   2193   2777   1797
   2331   2841   2063
   2470   2906   2313
   2592   2965   2528
   1989   3017   921
   1994   3015   949
   2032   3023   1069
   2123   3053   1327
   2266   3107   1669
   2399   3160   1957
   2523   3211   2205
   2646   3264   2438
   2750   3311   2632
   2139   3267   1048
   2152   3269   1093
   2201   3285   1244
   2304   3321   1525
   2437   3372   1842
   2557   3421   2102
   2672   3469   2335
   2787   3517   2557
   2879   3549   2726
   94   4   2
   122   8   10
   297   39   80
   634   282   471
   1041   641   982
   1386   940   1411
   1648   1166   1735
   1880   1366   2020
   2084   1542   2272
   157   39   7
   183   46   15
   334   112   83
   649   350   462
   1044   676   968
   1387   965   1400
   1647   1185   1724
   1878   1381   2009
   2084   1555   2263
   381   421   36
   397   427   44
   501   477   120
   755   623   494
   1111   866   986
   1435   1108   1411
   1686   1303   1731
   1910   1482   2015
   2111   1643   2265
   734   1002   105
   743   1004   117
   810   1031   244
   994   1115   589
   1286   1273   1051
   1572   1449   1458
   1800   1599   1769
   2008   1744   2044
   2197   1879   2291
   1146   1646   314
   1152   1646   332
   1199   1662   454
   1336   1719   754
   1567   1826   1174
   1802   1947   1551
   1999   2055   1843
   2171   2158   2115
   2324   2254   2357
   1489   2172   530
   1494   2169   548
   1536   2183   662
   1651   2227   933
   1844   2310   1321
   2025   2394   1671
   2181   2472   1952
   2332   2552   2212
   2469   2629   2442
   1769   2607   722
   1775   2605   745
   1813   2614   864
   1911   2650   1129
   2070   2713   1497
   2223   2777   1813
   2361   2841   2076
   2496   2905   2321
   2617   2963   2532
   2012   3015   924
   2020   3010   955
   2063   3020   1087
   2161   3053   1356
   2303   3107   1694
   2435   3159   1975
   2558   3210   2221
   2680   3263   2451
   2785   3306   2638
   2168   3265   1054
   2187   3268   1108
   2242   3285   1273
   2354   3324   1565
   2486   3375   1875
   2607   3423   2128
   2724   3471   2359
   2839   3519   2574
   2931   3549   2737
   456   26   13
   469   28   21
   554   70   90
   792   310   472
   1139   654   978
   1458   949   1407
   1707   1173   1730
   1931   1371   2015
   2130   1547   2269
   495   78   19
   508   86   27
   590   156   95
   817   381   472
   1152   694   970
   1467   978   1400
   1714   1194   1722
   1936   1389   2008
   2135   1562   2260
   638   456   47
   651   462   55
   723   509   138
   919   650   508
   1225   885   993
   1523   1123   1415
   1759   1315   1733
   1974   1491   2014
   2169   1652   2266
   911   1021   119
   922   1024   133
   979   1050   266
   1138   1135   607
   1399   1291   1064
   1663   1463   1466
   1879   1612   1775
   2079   1755   2048
   2261   1888   2293
   1274   1659   332
   1283   1658   351
   1330   1676   476
   1457   1733   775
   1672   1838   1192
   1894   1959   1562
   2081   2066   1853
   2244   2166   2122
   2393   2262   2363
   1597   2181   544
   1607   2179   566
   1651   2194   684
   1764   2240   958
   1945   2321   1345
   2116   2405   1689
   2267   2481   1968
   2413   2561   2224
   2546   2634   2449
   1864   2611   736
   1876   2611   765
   1919   2622   891
   2018   2658   1163
   2172   2722   1526
   2320   2787   1836
   2455   2848   2094
   2588   2912   2335
   2707   2969   2544
   2106   3018   939
   2122   3015   977
   2170   3025   1120
   2275   3062   1399
   2414   3115   1731
   2543   3166   2003
   2665   3218   2244
   2787   3269   2470
   2892   3312   2655
   2273   3272   1073
   2300   3274   1137
   2367   3295   1320
   2484   3337   1620
   2616   3387   1918
   2736   3434   2165
   2854   3482   2392
   2971   3529   2601
   3065   3557   2759
   940   102   42
   948   110   49
   998   182   130
   1149   401   502
   1406   710   990
   1671   991   1415
   1888   1206   1736
   2089   1399   2020
   2272   1571   2271
   973   199   49
   984   210   56
   1034   280   140
   1179   469   506
   1428   753   989
   1689   1022   1413
   1904   1231   1733
   2103   1419   2014
   2287   1589   2266
   1074   540   76
   1086   547   84
   1135   591   192
   1270   720   547
   1503   940   1017
   1751   1167   1432
   1958   1353   1746
   2150   1524   2024
   2330   1681   2273
   1276   1074   165
   1288   1077   184
   1334   1104   321
   1455   1186   648
   1665   1336   1093
   1889   1502   1486
   2081   1648   1791
   2261   1787   2059
   2423   1914   2307
   1568   1695   380
   1581   1696   401
   1625   1713   525
   1734   1770   817
   1918   1875   1224
   2113   1992   1587
   2274   2093   1877
   2421   2191   2141
   2560   2285   2378
   1850   2209   585
   1865   2208   609
   1911   2225   730
   2013   2271   1003
   2166   2346   1386
   2320   2429   1721
   2459   2505   1994
   2596   2583   2245
   2723   2656   2467
   2086   2632   777
   2105   2631   810
   2152   2645   943
   2247   2681   1216
   2390   2745   1573
   2527   2810   1872
   2654   2870   2125
   2782   2933   2363
   2898   2991   2566
   2316   3034   978
   2339   3032   1022
   2397   3047   1176
   2501   3085   1460
   2633   3138   1782
   2757   3188   2047
   2877   3238   2282
   2996   3288   2503
   3101   3331   2682
   2491   3289   1115
   2529   3295   1193
   2606   3318   1390
   2725   3363   1693
   2853   3412   1979
   2971   3459   2217
   3091   3506   2439
   3209   3549   2642
   3305   3573   2791
   1512   336   101
   1518   345   111
   1551   402   230
   1652   565   568
   1834   823   1030
   2039   1077   1442
   2216   1279   1758
   2385   1461   2037
   2547   1628   2287
   1538   416   110
   1548   425   122
   1582   477   244
   1682   625   577
   1860   866   1033
   2064   1110   1444
   2239   1307   1757
   2408   1484   2033
   2569   1648   2284
   1616   686   149
   1627   693   167
   1664   732   297
   1760   845   621
   1933   1043   1066
   2128   1252   1467
   2298   1427   1774
   2464   1590   2047
   2619   1740   2293
   1771   1168   270
   1784   1172   292
   1822   1198   418
   1917   1276   722
   2080   1419   1145
   2259   1575   1524
   2421   1715   1821
   2572   1846   2088
   2705   1965   2334
   2006   1761   469
   2022   1764   491
   2062   1782   610
   2153   1838   887
   2306   1940   1278
   2457   2048   1631
   2591   2144   1917
   2722   2238   2176
   2846   2330   2408
   2241   2261   661
   2260   2262   688
   2301   2277   811
   2384   2320   1080
   2515   2395   1451
   2649   2474   1772
   2772   2549   2038
   2895   2626   2284
   3011   2697   2500
   2437   2671   852
   2461   2671   888
   2509   2686   1025
   2599   2725   1296
   2725   2788   1640
   2849   2851   1928
   2965   2912   2173
   3082   2973   2405
   3188   3028   2602
   2647   3066   1045
   2678   3068   1099
   2738   3084   1259
   2839   3124   1544
   2960   3177   1853
   3073   3227   2105
   3183   3275   2334
   3295   3324   2549
   3392   3366   2719
   2820   3321   1185
   2866   3330   1277
   2945   3357   1485
   3059   3402   1786
   3176   3451   2055
   3285   3496   2284
   3396   3542   2498
   3504   3574   2691
   3593   3595   2832
   2110   608   254
   2116   614   269
   2140   654   380
   2211   774   669
   2345   984   1094
   2504   1207   1491
   2647   1390   1796
   2785   1558   2067
   2911   1709   2319
   2130   665   266
   2137   672   282
   2164   711   393
   2236   825   681
   2370   1025   1101
   2528   1240   1493
   2670   1417   1797
   2810   1582   2067
   2932   1729   2318
   2189   876   311
   2198   882   328
   2226   915   440
   2299   1011   723
   2432   1183   1136
   2585   1373   1519
   2724   1533   1815
   2858   1683   2083
   2974   1817   2331
   2310   1299   417
   2322   1304   437
   2353   1329   548
   2426   1400   820
   2555   1532   1215
   2701   1678   1578
   2825   1804   1868
   2941   1922   2131
   3053   2035   2372
   2498   1855   589
   2513   1858   611
   2547   1877   721
   2621   1930   978
   2732   2021   1353
   2851   2121   1695
   2963   2212   1969
   3072   2303   2220
   3181   2392   2448
   2669   2325   771
   2686   2326   799
   2722   2342   917
   2793   2385   1174
   2903   2459   1528
   3015   2536   1836
   3120   2608   2090
   3226   2680   2328
   3328   2750   2540
   2829   2723   947
   2852   2725   986
   2895   2740   1122
   2976   2782   1388
   3084   2843   1716
   3189   2903   1992
   3291   2961   2228
   3394   3020   2450
   3489   3075   2643
   3006   3111   1129
   3036   3113   1189
   3093   3130   1355
   3184   3172   1637
   3289   3224   1930
   3388   3270   2170
   3489   3318   2390
   3586   3364   2596
   3667   3402   2759
   3154   3361   1267
   3202   3371   1372
   3278   3401   1590
   3382   3447   1883
   3486   3493   2136
   3585   3538   2356
   3676   3571   2559
   3736   3598   2739
   3782   3616   2869
   2610   835   420
   2613   839   432
   2631   870   522
   2687   966   774
   2795   1142   1164
   2926   1338   1543
   3044   1504   1838
   3150   1654   2109
   3251   1792   2358
   2624   879   429
   2630   884   443
   2648   915   534
   2706   1008   786
   2815   1179   1173
   2944   1369   1547
   3064   1531   1841
   3167   1676   2110
   3268   1811   2356
   2666   1053   465
   2673   1058   480
   2697   1087   576
   2758   1171   827
   2865   1322   1208
   2993   1493   1573
   3104   1638   1863
   3204   1770   2128
   3305   1897   2370
   2764   1430   555
   2775   1435   573
   2801   1458   672
   2862   1524   919
   2969   1645   1287
   3079   1776   1638
   3177   1890   1921
   3276   2002   2177
   3374   2109   2411
   2915   1950   709
   2927   1952   730
   2953   1969   834
   3008   2017   1077
   3100   2103   1433
   3200   2197   1758
   3295   2284   2023
   3391   2371   2265
   3486   2456   2487
   3041   2391   877
   3057   2394   907
   3089   2410   1022
   3150   2453   1268
   3245   2524   1605
   3340   2598   1898
   3434   2667   2143
   3529   2737   2374
   3618   2805   2579
   3175   2780   1042
   3196   2781   1082
   3235   2799   1220
   3309   2840   1480
   3404   2900   1793
   3496   2957   2054
   3587   3014   2281
   3667   3071   2498
   3722   3121   2679
   3325   3157   1212
   3355   3161   1279
   3409   3182   1452
   3494   3223   1730
   3587   3271   2007
   3668   3316   2235
   3725   3361   2446
   3776   3404   2642
   3814   3439   2795
   3453   3399   1348
   3502   3414   1470
   3579   3447   1700
   3669   3493   1981
   3728   3536   2217
   3779   3569   2424
   3823   3596   2618
   3861   3619   2786
   3888   3634   2907
   3039   1030   568
   3040   1033   577
   3057   1058   655
   3102   1138   875
   3194   1290   1234
   3304   1465   1595
   3394   1611   1889
   3480   1747   2154
   3569   1878   2398
   3048   1066   575
   3051   1070   586
   3068   1096   665
   3116   1175   887
   3211   1324   1245
   3322   1495   1603
   3406   1635   1893
   3496   1768   2154
   3584   1897   2396
   3080   1216   605
   3088   1221   618
   3109   1247   703
   3160   1321   927
   3253   1457   1281
   3353   1607   1634
   3440   1736   1917
   3528   1861   2174
   3611   1980   2410
   3165   1560   684
   3174   1564   700
   3198   1586   789
   3249   1647   1015
   3329   1753   1368
   3420   1872   1705
   3505   1979   1975
   3592   2085   2223
   3655   2186   2451
   3273   2039   829
   3284   2041   850
   3308   2058   948
   3357   2105   1177
   3438   2187   1513
   3528   2278   1822
   3610   2361   2077
   3668   2443   2310
   3720   2523   2525
   3380   2464   985
   3395   2465   1013
   3424   2482   1126
   3482   2526   1362
   3567   2595   1684
   3643   2665   1962
   3696   2731   2198
   3744   2798   2419
   3786   2862   2615
   3494   2840   1137
   3515   2843   1179
   3555   2861   1319
   3621   2904   1575
   3683   2961   1871
   3732   3017   2118
   3775   3068   2336
   3815   3123   2542
   3847   3171   2716
   3625   3209   1300
   3650   3213   1373
   3686   3234   1552
   3735   3278   1826
   3781   3324   2084
   3819   3367   2301
   3854   3409   2503
   3882   3450   2687
   3906   3481   2833
   3708   3445   1436
   3737   3461   1574
   3778   3495   1816
   3822   3540   2080
   3857   3572   2300
   3888   3598   2498
   3915   3622   2681
   3936   3640   2836
   3951   3651   2945
   3452   1216   712
   3453   1219   720
   3465   1240   786
   3505   1308   981
   3577   1440   1312
   3631   1588   1662
   3678   1720   1945
   3720   1845   2201
   3758   1966   2436
   3456   1246   717
   3458   1250   727
   3474   1273   795
   3516   1341   993
   3583   1469   1324
   3637   1615   1671
   3683   1743   1950
   3724   1865   2201
   3764   1985   2436
   3481   1380   742
   3486   1384   754
   3506   1407   829
   3549   1473   1031
   3602   1588   1365
   3654   1721   1701
   3699   1839   1973
   3740   1954   2219
   3776   2065   2447
   3537   1688   815
   3546   1692   832
   3564   1711   914
   3595   1765   1124
   3642   1863   1453
   3690   1973   1771
   3730   2072   2031
   3769   2170   2269
   3802   2266   2488
   3610   2134   951
   3616   2136   971
   3632   2155   1064
   3661   2200   1278
   3703   2277   1594
   3745   2361   1887
   3779   2439   2130
   3813   2518   2355
   3842   2594   2562
   3673   2542   1093
   3680   2543   1119
   3697   2559   1230
   3726   2603   1457
   3765   2670   1760
   3800   2734   2025
   3830   2797   2249
   3858   2860   2460
   3882   2922   2650
   3733   2907   1235
   3743   2910   1277
   3762   2928   1418
   3792   2970   1667
   3825   3025   1946
   3853   3077   2179
   3878   3127   2387
   3902   3178   2584
   3920   3221   2749
   3793   3263   1391
   3805   3266   1467
   3829   3291   1654
   3857   3334   1919
   3883   3377   2161
   3906   3417   2366
   3925   3453   2556
   3943   3493   2731
   3956   3518   2865
   3839   3490   1536
   3857   3506   1685
   3883   3544   1937
   3908   3575   2181
   3928   3599   2385
   3945   3621   2572
   3962   3641   2745
   3973   3653   2879
   3981   3656   2976
