Resources/LUT/Bronze.3dl
# 17x17x17 .3dl lookup table from LUT Buddy
   0   64   128   192   256   320   384   448   512   576   640   704   768   832   896   960   1023
   0   0   0
   0   0   0
   29   3   9
   99   11   31
   239   36   83
   415   123   251
   612   285   482
   821   464   736
   1034   648   997
   1222   809   1227
   1382   947   1423
   1519   1064   1591
   1644   1171   1744
   1764   1273   1890
   1877   1371   2030
   1987   1464   2164
   2083   1546   2280
   16   6   1
   16   6   1
   44   10   10
   111   18   31
   244   52   80
   415   144   242
   608   301   471
   815   474   723
   1027   652   983
   1216   813   1215
   1375   948   1411
   1513   1066   1581
   1639   1173   1735
   1758   1274   1880
   1873   1372   2021
   1981   1465   2155
   2079   1548   2273
   56   32   5
   55   32   5
   82   38   13
   148   57   33
   271   105   82
   433   208   241
   619   348   467
   820   507   717
   1029   677   975
   1216   833   1208
   1376   966   1405
   1515   1083   1577
   1639   1186   1729
   1757   1287   1875
   1871   1383   2015
   1981   1476   2150
   2077   1557   2268
   153   169   15
   153   168   15
   178   178   23
   236   202   43
   337   252   93
   482   337   252
   653   451   473
   845   589   719
   1047   743   976
   1231   888   1208
   1389   1015   1406
   1526   1125   1575
   1649   1226   1729
   1767   1323   1874
   1879   1416   2014
   1987   1505   2146
   2083   1585   2267
   314   416   34
   314   415   34
   330   421   41
   369   437   61
   447   471   117
   568   532   277
   721   619   492
   898   732   733
   1089   864   987
   1266   992   1216
   1420   1108   1413
   1553   1209   1582
   1674   1303   1735
   1789   1394   1879
   1900   1482   2017
   2006   1567   2151
   2101   1643   2269
   496   695   62
   496   694   62
   507   698   69
   535   709   90
   594   733   163
   692   778   322
   825   845   529
   983   933   762
   1160   1042   1010
   1327   1152   1236
   1473   1252   1429
   1601   1343   1596
   1717   1427   1747
   1829   1510   1890
   1938   1591   2028
   2041   1669   2160
   2132   1740   2276
   694   1000   103
   694   999   103
   703   1002   114
   724   1010   147
   770   1027   237
   850   1061   388
   961   1112   583
   1100   1182   807
   1261   1270   1046
   1415   1362   1267
   1551   1447   1457
   1672   1525   1620
   1783   1599   1768
   1890   1672   1909
   1993   1743   2045
   2094   1814   2176
   2182   1878   2292
   910   1328   191
   909   1327   191
   916   1329   208
   932   1334   250
   970   1348   337
   1034   1374   475
   1128   1414   657
   1249   1470   869
   1392   1542   1100
   1532   1616   1311
   1657   1687   1495
   1769   1753   1655
   1872   1816   1799
   1974   1880   1939
   2072   1942   2072
   2163   2003   2202
   2241   2057   2321
   1119   1647   312
   1119   1646   312
   1124   1646   328
   1138   1650   367
   1169   1662   446
   1224   1683   574
   1305   1716   743
   1412   1764   945
   1539   1823   1164
   1666   1886   1368
   1779   1946   1544
   1882   2002   1698
   1980   2054   1841
   2070   2108   1978
   2154   2159   2113
   2235   2209   2243
   2307   2255   2356
   1304   1928   426
   1303   1927   427
   1307   1926   442
   1320   1930   479
   1349   1940   553
   1398   1959   672
   1470   1987   831
   1566   2027   1022
   1682   2079   1233
   1796   2133   1427
   1900   2184   1598
   1989   2230   1749
   2072   2274   1891
   2153   2318   2027
   2232   2363   2158
   2308   2408   2285
   2378   2450   2397
   1465   2172   528
   1465   2170   530
   1469   2170   544
   1482   2174   580
   1507   2182   652
   1553   2199   765
   1620   2226   918
   1710   2262   1103
   1815   2309   1305
   1911   2352   1494
   1999   2394   1661
   2080   2433   1808
   2158   2472   1946
   2234   2512   2078
   2308   2551   2206
   2383   2593   2330
   2449   2629   2439
   1612   2395   622
   1613   2394   625
   1617   2394   640
   1628   2396   676
   1655   2406   747
   1696   2419   857
   1757   2442   1007
   1834   2473   1190
   1924   2510   1387
   2013   2549   1568
   2094   2586   1727
   2170   2621   1869
   2243   2657   2003
   2315   2692   2131
   2387   2729   2257
   2457   2765   2377
   2518   2797   2481
   1747   2611   721
   1747   2608   725
   1751   2609   741
   1761   2610   778
   1784   2617   850
   1823   2629   961
   1878   2650   1108
   1952   2677   1288
   2036   2711   1476
   2117   2745   1647
   2193   2777   1797
   2263   2809   1935
   2331   2841   2063
   2401   2873   2191
   2470   2906   2313
   2536   2938   2430
   2592   2965   2528
   1874   2827   827
   1874   2822   831
   1878   2821   848
   1888   2822   887
   1911   2828   961
   1950   2840   1071
   2004   2860   1218
   2075   2885   1393
   2153   2915   1571
   2227   2945   1732
   2297   2974   1877
   2362   3001   2006
   2427   3029   2132
   2493   3058   2256
   2557   3089   2374
   2618   3116   2484
   2671   3140   2579
   1989   3017   921
   1989   3015   928
   1994   3015   949
   2007   3016   992
   2032   3023   1069
   2070   3035   1182
   2123   3053   1327
   2192   3078   1500
   2266   3107   1669
   2335   3133   1821
   2399   3160   1957
   2460   3186   2081
   2523   3211   2205
   2584   3239   2323
   2646   3264   2438
   2702   3289   2543
   2750   3311   2632
   2078   3165   996
   2080   3165   1006
   2086   3164   1029
   2101   3166   1079
   2128   3174   1163
   2168   3187   1280
   2223   3208   1430
   2292   3234   1599
   2360   3259   1759
   2425   3286   1903
   2485   3308   2032
   2545   3333   2153
   2605   3358   2272
   2664   3383   2387
   2723   3409   2500
   2775   3432   2598
   2820   3451   2682
   2139   3267   1048
   2143   3267   1061
   2152   3269   1093
   2171   3273   1151
   2201   3285   1244
   2245   3299   1369
   2304   3321   1525
   2371   3346   1689
   2437   3372   1842
   2498   3397   1978
   2557   3421   2102
   2616   3445   2221
   2672   3469   2335
   2731   3493   2449
   2787   3517   2557
   2837   3537   2649
   2879   3549   2726
   4   0   0
   5   0   0
   33   3   8
   102   11   30
   239   35   80
   413   120   245
   608   280   475
   816   460   728
   1029   642   988
   1218   805   1220
   1378   942   1416
   1515   1059   1584
   1641   1168   1738
   1761   1270   1885
   1874   1368   2024
   1985   1462   2160
   2079   1543   2275
   23   7   1
   24   7   1
   51   10   10
   117   19   30
   248   51   79
   416   143   238
   607   298   466
   813   470   717
   1024   648   977
   1212   809   1209
   1373   946   1407
   1512   1064   1578
   1637   1170   1730
   1755   1271   1876
   1871   1369   2017
   1980   1462   2152
   2077   1545   2270
   65   32   5
   66   32   5
   93   39   13
   158   57   33
   277   105   81
   437   207   238
   621   346   463
   821   506   713
   1029   675   971
   1215   830   1204
   1376   965   1402
   1514   1080   1573
   1638   1185   1726
   1756   1285   1872
   1871   1381   2012
   1980   1474   2147
   2077   1556   2265
   166   170   15
   167   169   15
   192   179   23
   247   203   43
   345   253   92
   487   337   250
   657   450   471
   847   588   716
   1049   742   974
   1232   887   1205
   1391   1014   1404
   1527   1124   1573
   1650   1224   1726
   1767   1321   1872
   1879   1414   2011
   1988   1504   2146
   2086   1585   2265
   324   416   34
   325   416   34
   341   421   42
   380   437   62
   457   472   117
   575   532   278
   727   620   492
   902   732   732
   1093   863   985
   1270   993   1216
   1422   1106   1410
   1555   1209   1581
   1675   1302   1732
   1791   1393   1877
   1902   1482   2016
   2008   1567   2149
   2103   1642   2267
   505   696   62
   504   694   62
   517   699   70
   545   709   91
   604   734   164
   701   779   324
   831   845   530
   990   934   763
   1165   1042   1010
   1331   1151   1235
   1477   1252   1429
   1604   1342   1595
   1720   1427   1746
   1832   1509   1889
   1940   1590   2026
   2043   1668   2158
   2135   1739   2275
   702   999   103
   702   999   103
   711   1001   114
   733   1010   149
   779   1028   239
   858   1061   390
   969   1112   585
   1108   1182   809
   1268   1272   1049
   1421   1361   1268
   1557   1447   1457
   1676   1525   1620
   1787   1598   1768
   1893   1671   1908
   1997   1743   2044
   2097   1814   2175
   2186   1878   2291
   916   1328   191
   916   1327   191
   923   1328   209
   941   1334   252
   978   1347   339
   1043   1373   478
   1136   1414   660
   1258   1471   873
   1400   1542   1103
   1539   1617   1315
   1663   1687   1497
   1775   1753   1657
   1878   1816   1800
   1979   1879   1939
   2076   1942   2072
   2167   2002   2202
   2245   2055   2321
   1126   1646   312
   1125   1645   313
   1130   1644   329
   1146   1650   369
   1177   1661   449
   1233   1683   578
   1314   1716   747
   1421   1763   949
   1547   1823   1168
   1673   1886   1371
   1786   1945   1547
   1888   2000   1699
   1985   2055   1841
   2075   2107   1978
   2159   2157   2113
   2239   2208   2242
   2312   2254   2356
   1310   1927   426
   1309   1924   427
   1315   1926   443
   1328   1929   481
   1357   1940   556
   1407   1958   676
   1478   1986   836
   1576   2027   1028
   1691   2080   1239
   1805   2133   1432
   1908   2184   1602
   1996   2229   1752
   2078   2273   1893
   2159   2318   2029
   2237   2362   2160
   2315   2407   2285
   2384   2447   2397
   1471   2170   528
   1472   2169   530
   1477   2170   545
   1488   2172   582
   1516   2182   656
   1562   2199   771
   1631   2226   925
   1720   2262   1110
   1825   2308   1313
   1921   2353   1500
   2008   2393   1666
   2088   2433   1812
   2165   2471   1948
   2241   2510   2081
   2316   2551   2209
   2391   2592   2333
   2455   2628   2440
   1619   2395   622
   1620   2393   626
   1623   2392   641
   1638   2396   679
   1663   2403   751
   1706   2419   864
   1767   2442   1014
   1845   2472   1199
   1936   2511   1396
   2023   2549   1574
   2104   2586   1732
   2179   2620   1873
   2250   2655   2005
   2324   2693   2135
   2394   2728   2259
   2464   2764   2380
   2526   2796   2484
   1753   2609   720
   1754   2607   726
   1757   2604   741
   1770   2608   782
   1794   2615   855
   1833   2628   969
   1889   2648   1117
   1964   2677   1299
   2048   2711   1485
   2128   2745   1654
   2203   2778   1805
   2272   2808   1940
   2341   2839   2069
   2410   2872   2195
   2478   2906   2316
   2543   2937   2432
   2600   2964   2530
   1880   2822   825
   1880   2820   832
   1884   2817   849
   1897   2819   892
   1921   2826   968
   1960   2839   1081
   2016   2859   1229
   2087   2884   1405
   2165   2915   1582
   2238   2944   1741
   2307   2973   1883
   2372   3000   2013
   2437   3029   2137
   2502   3057   2260
   2567   3086   2379
   2628   3114   2488
   2680   3137   2582
   1994   3015   921
   1996   3012   929
   2002   3012   951
   2016   3014   997
   2041   3021   1077
   2081   3033   1192
   2137   3053   1341
   2206   3079   1514
   2279   3106   1681
   2347   3134   1831
   2411   3159   1966
   2472   3183   2090
   2535   3210   2212
   2595   3236   2328
   2656   3262   2444
   2714   3286   2547
   2762   3308   2634
   2084   3163   997
   2087   3161   1007
   2093   3160   1033
   2111   3166   1087
   2139   3173   1172
   2181   3187   1293
   2238   3208   1446
   2307   3234   1614
   2375   3260   1773
   2440   3284   1915
   2500   3308   2041
   2560   3333   2163
   2620   3358   2282
   2678   3382   2396
   2737   3407   2506
   2789   3429   2604
   2834   3448   2686
   2147   3267   1050
   2151   3265   1064
   2162   3267   1098
   2183   3274   1162
   2214   3284   1257
   2261   3300   1385
   2321   3322   1544
   2389   3348   1707
   2454   3373   1857
   2516   3397   1991
   2576   3421   2113
   2633   3445   2232
   2691   3469   2347
   2749   3493   2458
   2806   3518   2564
   2855   3538   2657
   2896   3548   2731
   94   4   2
   95   4   2
   122   8   10
   187   15   31
   297   39   80
   450   123   241
   634   282   471
   833   459   722
   1041   641   982
   1227   803   1215
   1386   940   1411
   1523   1059   1581
   1648   1166   1735
   1766   1268   1880
   1880   1366   2020
   1989   1460   2155
   2084   1542   2272
   114   12   3
   115   12   3
   141   15   12
   202   24   32
   306   56   79
   455   147   236
   634   300   462
   832   471   714
   1038   648   973
   1224   809   1205
   1383   945   1403
   1520   1063   1574
   1644   1169   1727
   1763   1271   1874
   1876   1368   2013
   1986   1462   2148
   2082   1543   2266
   157   39   7
   158   39   7
   183   46   15
   236   65   35
   334   112   83
   477   212   238
   649   350   462
   841   507   710
   1044   676   968
   1228   831   1201
   1387   965   1400
   1523   1080   1570
   1647   1185   1724
   1765   1285   1870
   1878   1381   2009
   1986   1472   2144
   2084   1555   2263
   247   178   17
   248   178   17
   267   187   25
   312   210   45
   397   259   94
   526   342   252
   686   454   471
   869   591   716
   1065   743   972
   1247   888   1204
   1403   1015   1402
   1537   1125   1572
   1659   1225   1724
   1775   1321   1870
   1888   1414   2009
   1996   1504   2144
   2091   1584   2262
   381   421   36
   382   421   36
   397   427   44
   432   443   63
   501   477   120
   611   537   280
   755   623   494
   925   735   733
   1111   866   986
   1285   994   1215
   1435   1108   1411
   1567   1210   1580
   1686   1303   1731
   1800   1394   1875
   1910   1482   2015
   2016   1566   2147
   2111   1643   2265
   546   698   64
   547   699   64
   558   703   72
   585   714   93
   640   738   168
   732   782   327
   858   848   532
   1012   937   766
   1184   1045   1011
   1347   1154   1236
   1491   1254   1429
   1617   1345   1595
   1732   1428   1745
   1843   1510   1889
   1949   1591   2026
   2052   1669   2157
   2144   1741   2276
   734   1002   105
   734   1001   105
   743   1004   117
   765   1013   152
   810   1031   244
   887   1064   395
   994   1115   589
   1130   1186   813
   1286   1273   1051
   1437   1364   1270
   1572   1449   1458
   1690   1527   1621
   1800   1599   1769
   1905   1672   1910
   2008   1744   2044
   2107   1815   2175
   2197   1879   2291
   941   1329   194
   941   1328   194
   949   1330   212
   966   1335   255
   1004   1350   344
   1067   1375   483
   1159   1416   665
   1279   1473   878
   1419   1544   1107
   1556   1619   1317
   1678   1688   1499
   1789   1754   1658
   1891   1817   1802
   1991   1880   1940
   2088   1943   2072
   2178   2003   2202
   2255   2055   2319
   1146   1646   314
   1147   1646   316
   1152   1646   332
   1168   1651   373
   1199   1662   454
   1255   1684   584
   1336   1719   754
   1441   1765   955
   1567   1826   1174
   1690   1887   1374
   1802   1947   1551
   1904   2002   1704
   1999   2055   1843
   2088   2108   1981
   2171   2158   2115
   2251   2208   2242
   2324   2254   2357
   1329   1928   428
   1329   1925   430
   1334   1926   446
   1348   1930   485
   1378   1941   561
   1427   1958   682
   1499   1987   843
   1596   2029   1036
   1711   2082   1246
   1824   2136   1438
   1924   2185   1605
   2011   2231   1756
   2093   2275   1896
   2174   2320   2032
   2251   2362   2161
   2328   2408   2288
   2397   2448   2399
   1489   2172   530
   1490   2170   533
   1494   2169   548
   1508   2173   587
   1536   2183   662
   1583   2200   778
   1651   2227   933
   1741   2265   1119
   1844   2310   1321
   1939   2353   1507
   2025   2394   1671
   2105   2433   1816
   2181   2472   1952
   2257   2511   2084
   2332   2552   2212
   2405   2593   2335
   2469   2629   2442
   1636   2394   624
   1636   2391   628
   1643   2394   645
   1655   2396   683
   1683   2405   758
   1727   2420   872
   1788   2443   1024
   1867   2475   1211
   1956   2512   1406
   2042   2550   1582
   2123   2587   1740
   2197   2622   1879
   2269   2657   2012
   2340   2692   2139
   2411   2729   2264
   2480   2764   2382
   2542   2797   2485
   1769   2607   722
   1770   2606   728
   1775   2605   745
   1788   2608   787
   1813   2614   864
   1853   2627   978
   1911   2650   1129
   1986   2678   1311
   2070   2713   1497
   2149   2746   1664
   2223   2777   1813
   2292   2809   1946
   2361   2841   2076
   2429   2872   2200
   2496   2905   2321
   2561   2935   2435
   2617   2963   2532
   1895   2821   827
   1896   2817   833
   1902   2816   853
   1916   2818   898
   1942   2826   977
   1982   2839   1092
   2038   2858   1242
   2111   2885   1419
   2187   2915   1595
   2260   2944   1752
   2328   2973   1893
   2395   3001   2022
   2458   3028   2146
   2523   3057   2266
   2588   3086   2385
   2647   3112   2492
   2700   3136   2586
   2012   3015   924
   2014   3011   932
   2020   3010   955
   2036   3013   1005
   2063   3020   1087
   2104   3033   1205
   2161   3053   1356
   2231   3080   1530
   2303   3107   1694
   2371   3134   1843
   2435   3159   1975
   2496   3185   2099
   2558   3210   2221
   2619   3235   2337
   2680   3263   2451
   2738   3286   2554
   2785   3306   2638
   2102   3162   999
   2104   3159   1010
   2115   3161   1039
   2133   3165   1096
   2163   3174   1186
   2207   3189   1310
   2266   3209   1465
   2335   3235   1632
   2403   3261   1788
   2466   3285   1928
   2527   3309   2054
   2587   3332   2174
   2647   3359   2290
   2706   3381   2405
   2765   3408   2515
   2819   3429   2611
   2862   3447   2691
   2168   3265   1054
   2173   3266   1069
   2187   3268   1108
   2207   3273   1174
   2242   3285   1273
   2290   3301   1405
   2354   3324   1565
   2421   3349   1727
   2486   3375   1875
   2548   3400   2006
   2607   3423   2128
   2665   3446   2245
   2724   3471   2359
   2782   3495   2469
   2839   3519   2574
   2888   3537   2663
   2931   3549   2737
   256   13   6
   257   13   6
   276   16   14
   318   23   35
   398   49   83
   525   134   242
   689   290   469
   874   463   719
   1073   644   978
   1254   805   1210
   1409   942   1408
   1544   1060   1578
   1667   1167   1732
   1784   1269   1878
   1896   1366   2017
   2004   1461   2152
   2098   1542   2270
   273   20   8
   274   20   8
   291   23   16
   331   33   36
   409   68   83
   533   160   239
   692   309   463
   876   477   712
   1072   652   970
   1253   812   1204
   1408   948   1402
   1543   1065   1572
   1665   1172   1726
   1782   1272   1871
   1894   1369   2011
   2001   1462   2145
