Resources/LUT/Bronze.3dl
# 17x17x17 .3dl lookup table from LUT Buddy
0 256 512 768 1023
   0   0   0
   239   36   83
   1034   648   997
   1644   1171   1744
   2083   1546   2280
   314   416   34
   447   471   117
   1089   864   987
   1674   1303   1735
   2101   1643   2269
   1119   1647   312
   1169   1662   446
   1539   1823   1164
   1980   2054   1841
   2307   2255   2356
   1747   2611   721
   1784   2617   850
   2036   2711   1476
   2331   2841   2063
   2592   2965   2528
   2139   3267   1048
   2201   3285   1244
   2437   3372   1842
   2672   3469   2335
   2879   3549   2726
   456   26   13
   554   70   90
   1139   654   978
   1707   1173   1730
   2130   1547   2269
   638   456   47
   723   509   138
   1225   885   993
   1759   1315   1733
   2169   1652   2266
   1274   1659   332
   1330   1676   476
   1672   1838   1192
   2081   2066   1853
   2393   2262   2363
   1864   2611   736
   1919   2622   891
   2172   2722   1526
   2455   2848   2094
   2707   2969   2544
   2273   3272   1073
   2367   3295   1320
   2616   3387   1918
   2854   3482   2392
   3065   3557   2759
   1512   336   101
   1551   402   230
   1834   823   1030
   2216   1279   1758
   2547   1628   2287
   1616   686   149
   1664   732   297
   1933   1043   1066
   2298   1427   1774
   2619   1740   2293
   2006   1761   469
   2062   1782   610
   2306   1940   1278
   2591   2144   1917
   2846   2330   2408
   2437   2671   852
   2509   2686   1025
   2725   2788   1640
   2965   2912   2173
   3188   3028   2602
   2820   3321   1185
   2945   3357   1485
   3176   3451   2055
   3396   3542   2498
   3593   3595   2832
   2610   835   420
   2631   870   522
   2795   1142   1164
   3044   1504   1838
   3251   1792   2358
   2666   1053   465
   2697   1087   576
   2865   1322   1208
   3104   1638   1863
   3305   1897   2370
   2915   1950   709
   2953   1969   834
   3100   2103   1433
   3295   2284   2023
   3486   2456   2487
   3175   2780   1042
   3235   2799   1220
   3404   2900   1793
   3587   3014   2281
   3722   3121   2679
   3453   3399   1348
   3579   3447   1700
   3728   3536   2217
   3823   3596   2618
   3888   3634   2907
   3452   1216   712
   3465   1240   786
   3577   1440   1312
   3678   1720   1945
   3758   1966   2436
   3481   1380   742
   3506   1407   829
   3602   1588   1365
   3699   1839   1973
   3776   2065   2447
   3610   2134   951
   3632   2155   1064
   3703   2277   1594
   3779   2439   2130
   3842   2594   2562
   3733   2907   1235
   3762   2928   1418
   3825   3025   1946
   3878   3127   2387
   3920   3221   2749
   3839   3490   1536
   3883   3544   1937
   3928   3599   2385
   3962   3641   2745
   3981   3656   2976
