Resources/LUT/Cinematic.3dl
# 17x17x17 .3dl lookup table from LUT Buddy
   0   64   128   192   256   320   384   448   512   576   640   704   768   832   896   960   1023
   0   0   0
   0   0   10
   0   0   242
   0   0   388
   0   0   516
   0   0   644
   0   0   769
   0   0   888
   0   0   1000
   0   0   1103
   0   0   1194
   0   0   1277
   0   0   1354
   0   2   1432
   0   1   1511
   0   0   1589
   0   0   1668
   0   161   0
   0   161   0
   0   163   259
   0   163   415
   0   163   556
   0   164   694
   0   164   827
   0   164   952
   0   165   1067
   0   165   1168
   0   165   1252
   0   165   1333
   0   166   1412
   0   166   1490
   0   167   1566
   0   167   1642
   0   168   1719
   0   328   2
   0   327   2
   0   331   286
   0   332   452
   0   333   607
   0   333   753
   0   334   891
   0   335   1019
   0   335   1129
   0   336   1225
   0   337   1307
   0   338   1387
   0   339   1465
   0   339   1540
   0   341   1614
   0   342   1684
   0   342   1765
   0   514   13
   0   513   13
   0   519   311
   0   521   484
   0   522   645
   0   522   797
   0   524   936
   0   525   1059
   0   526   1164
   0   527   1254
   0   529   1336
   0   529   1414
   0   531   1489
   0   533   1561
   0   535   1629
   0   538   1705
   0   539   1797
   0   729   28
   0   729   28
   0   733   335
   0   735   513
   0   736   681
   0   737   833
   0   738   970
   0   742   1089
   0   742   1189
   0   744   1276
   0   747   1357
   0   748   1433
   0   749   1505
   0   752   1573
   0   756   1645
   0   759   1730
   0   763   1835
   0   952   44
   0   951   44
   0   953   362
   0   955   551
   0   955   723
   0   957   878
   0   960   1014
   0   962   1128
   0   965   1226
   0   969   1314
   0   971   1394
   0   974   1469
   0   977   1539
   0   982   1608
   0   986   1690
   0   990   1787
   0   996   1908
   0   1167   63
   0   1166   63
   0   1168   401
   0   1169   601
   0   1170   780
   0   1173   940
   0   1176   1075
   0   1181   1186
   0   1185   1285
   0   1190   1374
   0   1193   1454
   0   1197   1529
   0   1201   1599
   0   1207   1678
   0   1213   1770
   0   1218   1880
   0   1226   2021
   0   1391   85
   0   1392   115
   0   1393   453
   0   1395   667
   0   1398   855
   0   1402   1016
   0   1409   1151
   0   1413   1263
   0   1420   1366
   0   1424   1456
   0   1430   1537
   0   1436   1611
   0   1441   1689
   0   1447   1779
   0   1456   1886
   0   1466   2018
   0   1475   2176
   0   1624   111
   0   1624   205
   0   1628   518
   0   1632   747
   0   1638   943
   0   1644   1108
   0   1652   1243
   0   1659   1359
   0   1666   1465
   0   1673   1556
   0   1680   1637
   0   1685   1715
   0   1693   1804
   0   1701   1910
   0   1712   2033
   0   1722   2181
   0   1734   2355
   0   1920   142
   0   1926   287
   0   1937   606
   0   1948   852
   0   1958   1058
   0   1970   1227
   0   1980   1365
   0   1990   1487
   0   2000   1595
   0   2007   1688
   0   2015   1771
   0   2025   1862
   0   2032   1965
   0   2046   2087
   0   2053   2230
   0   2066   2397
   0   2082   2580
   0   2366   183
   0   2376   390
   0   2391   726
   0   2402   990
   0   2417   1205
   1   2427   1375
   1   2438   1518
   1   2449   1644
   1   2457   1754
   1   2466   1847
   2   2472   1941
   2   2482   2044
   2   2493   2166
   8   2525   2326
   23   2570   2529
   44   2601   2726
   65   2622   2915
   5   2830   229
   4   2837   511
   4   2843   859
   4   2854   1129
   4   2865   1341
   4   2873   1508
   5   2881   1652
   5   2888   1778
   6   2897   1886
   10   2913   1988
   24   2945   2115
   49   2972   2254
   72   2991   2414
   95   3008   2589
   118   3019   2766
   144   3024   2937
   168   3033   3106
   8   3224   275
   7   3220   645
   7   3221   995
   7   3226   1260
   8   3233   1457
   12   3245   1625
   22   3263   1775
   49   3277   1902
   74   3286   2011
   100   3295   2129
   125   3302   2262
   152   3310   2415
   179   3316   2581
   206   3321   2750
   231   3322   2910
   255   3322   3070
   280   3321   3221
   15   3515   322
   30   3503   813
   53   3502   1161
   74   3502   1404
   95   3505   1588
   116   3508   1744
   136   3512   1871
   159   3513   1986
   188   3517   2110
   216   3520   2244
   242   3524   2398
   268   3528   2555
   293   3529   2718
   317   3528   2874
   342   3527   3019
   365   3523   3165
   388   3516   3295
   130   3677   406
   158   3648   1007
   181   3646   1313
   203   3647   1522
   223   3648   1693
   244   3651   1830
   264   3654   1953
   282   3658   2087
   308   3662   2231
   332   3666   2384
   358   3668   2539
   383   3668   2696
   408   3666   2843
   435   3663   2982
   463   3658   3115
   491   3651   3235
   521   3644   3351
   273   3730   767
   293   3724   1207
   315   3726   1460
   334   3730   1651
   353   3733   1799
   373   3738   1933
   392   3742   2082
   413   3749   2240
   436   3753   2393
   465   3754   2547
   495   3753   2692
   526   3752   2832
   558   3747   2967
   591   3744   3090
   625   3737   3202
   658   3731   3306
   694   3723   3403
   419   3769   1071
   444   3772   1408
   470   3778   1627
   493   3782   1790
   517   3788   1942
   543   3797   2106
   566   3804   2273
   591   3809   2437
   616   3810   2587
   648   3809   2727
   684   3809   2858
   720   3806   2981
   758   3802   3094
   795   3796   3198
   834   3791   3294
   873   3785   3380
   913   3780   3463
   15   0   0
   17   0   0
   18   0   242
   19   0   393
   20   0   523
   22   0   657
   23   0   784
   24   0   906
   26   0   1021
   28   0   1124
   28   0   1227
   29   0   1312
   32   0   1383
   33   0   1463
   34   0   1550
   35   0   1630
   37   0   1710
   22   165   0
   23   165   0
   22   168   268
   21   168   433
   22   168   585
   22   168   735
   22   167   878
   22   168   1013
   23   167   1135
   23   167   1242
   24   167   1334
   25   167   1421
   26   167   1505
   27   167   1587
   28   167   1667
   30   168   1748
   31   168   1827
   24   341   0
   25   341   0
   15   350   301
   13   351   484
   10   351   659
   8   351   825
   6   351   983
   5   350   1125
   4   350   1249
   4   350   1353
   4   350   1446
   5   350   1537
   5   351   1623
   6   351   1706
   6   352   1786
   8   352   1866
   8   354   1965
   15   549   0
   16   549   0
   0   562   321
   0   560   517
   0   559   699
   0   559   868
   0   560   1021
   0   560   1154
   0   561   1267
   0   562   1366
   0   563   1457
   0   565   1545
   0   567   1628
   0   568   1708
   0   570   1791
   0   572   1887
   0   575   2003
   3   785   1
   4   785   1
   0   789   339
   0   788   541
   0   788   726
   0   789   893
   0   790   1042
   0   792   1168
   0   795   1275
   0   798   1373
   0   802   1461
   0   804   1545
   0   808   1625
   0   810   1704
   0   813   1795
   0   820   1906
   0   822   2041
   0   1020   13
   0   1022   11
   0   1021   366
   0   1020   579
   0   1021   770
   0   1023   939
   0   1026   1085
   0   1029   1205
   0   1033   1312
   0   1038   1410
   0   1041   1497
   0   1047   1580
   0   1051   1658
   0   1055   1748
   0   1060   1853
   0   1067   1982
   0   1074   2143
   0   1251   26
   0   1253   24
   0   1252   404
   0   1252   631
   0   1254   831
   0   1258   1004
   0   1263   1146
   0   1270   1268
   0   1276   1378
   0   1282   1477
   0   1288   1565
   0   1295   1648
   0   1301   1738
   0   1309   1844
   0   1317   1970
   0   1327   2125
   0   1337   2310
   0   1499   37
   0   1500   93
   0   1500   454
   0   1501   698
   0   1506   907
   0   1513   1084
   0   1520   1228
   0   1529   1355
   0   1535   1468
   0   1544   1568
   0   1552   1658
   0   1559   1749
   0   1569   1856
   0   1579   1981
   0   1589   2133
   6   1600   2309
   16   1606   2494
   0   1765   42
   0   1771   160
   0   1776   514
   0   1784   778
   0   1792   1000
   0   1803   1179
   1   1814   1327
   9   1822   1459
   16   1831   1574
   25   1838   1671
   38   1842   1761
   53   1848   1861
   71   1855   1975
   91   1862   2110
   112   1869   2264
   133   1876   2433
   154   1885   2603
   103   2081   139
   102   2095   303
   104   2116   654
   113   2128   925
   128   2140   1144
   145   2150   1314
   162   2159   1459
   181   2168   1585
   199   2177   1691
   217   2187   1784
   234   2192   1879
   251   2204   1989
   269   2215   2116
   289   2229   2267
   304   2241   2430
   316   2255   2599
   329   2268   2767
   208   2506   234
   221   2519   469
   232   2529   826
   245   2544   1095
   257   2560   1303
   268   2574   1467
   281   2586   1608
   293   2600   1731
   305   2610   1833
   317   2621   1935
   330   2631   2046
   344   2646   2175
   357   2659   2324
   371   2673   2488
   386   2683   2655
   401   2690   2819
   417   2699   2983
   272   2922   283
   286   2924   603
   299   2932   963
   312   2942   1229
   326   2952   1425
   339   2962   1587
   352   2973   1726
   366   2982   1842
   379   2989   1949
   395   2999   2062
   410   3009   2190
   426   3018   2337
   444   3032   2498
   461   3037   2661
   479   3046   2823
   498   3049   2980
   516   3051   3132
   337   3242   328
   352   3236   748
   367   3234   1099
   382   3241   1345
   397   3249   1531
   413   3256   1685
   430   3264   1815
   447   3269   1928
   464   3276   2047
   483   3285   2175
   502   3291   2322
   522   3300   2477
   542   3305   2636
   562   3308   2791
   584   3309   2944
   605   3308   3090
   628   3307   3227
   406   3463   374
   428   3446   912
   447   3446   1234
   466   3451   1452
   486   3456   1628
   505   3462   1772
   525   3466   1891
   546   3471   2018
   566   3478   2153
   590   3485   2300
   612   3491   2453
   635   3495   2608
   659   3495   2760
   684   3495   2904
   708   3494   3044
   733   3490   3173
   760   3488   3295
   500   3595   572
   527   3583   1087
   549   3587   1367
   573   3591   1567
   596   3596   1727
   620   3600   1857
   644   3606   1988
   669   3614   2137
   695   3621   2289
   720   3625   2440
   748   3627   2593
   775   3629   2739
   801   3630   2878
   829   3628   3012
   857   3625   3133
   886   3620   3247
   916   3616   3354
   626   3673   870
   657   3675   1274
   684   3680   1512
   712   3687   1691
   740   3692   1834
   768   3699   1978
   796   3707   2136
   825   3715   2297
   854   3720   2453
   884   3723   2603
   914   3724   2744
   943   3724   2877
   974   3722   3004
   1004   3719   3120
   1035   3715   3224
   1065   3712   3322
   1097   3708   3418
   793   3740   1157
   832   3742   1472
   865   3751   1679
   894   3758   1835
   929   3768   1999
   959   3777   2173
   990   3785   2341
   1022   3790   2501
   1053   3793   2649
   1083   3795   2783
   1113   3794   2909
   1144   3793   3026
   1172   3793   3133
   1202   3790   3231
   1233   3786   3324
   1266   3783   3408
   1296   3779   3489
   165   0   0
   166   0   0
   167   0   257
   167   0   413
   167   0   554
   168   0   693
   168   0   827
   169   0   954
   170   0   1072
   170   0   1174
   171   0   1268
   172   0   1354
   173   0   1437
   174   0   1505
   176   0   1581
   177   0   1663
   177   0   1749
   168   156   0
   168   156   0
   169   177   288
   168   177   464
   168   176   628
   167   175   787
   166   174   938
   166   173   1078
   166   173   1202
   165   172   1307
   166   172   1400
   166   171   1488
   167   171   1574
   168   171   1656
   169   171   1736
   170   171   1814
   172   171   1899
   172   365   0
   173   365   0
   164   370   320
   162   370   518
   159   368   706
   156   366   884
   153   365   1047
   151   364   1192
   151   363   1315
   150   362   1420
   150   361   1517
   151   361   1609
   152   360   1695
   153   360   1777
   154   360   1856
   155   361   1946
   157   361   2054
   169   582   0
   171   582   0
   140   599   327
   133   599   548
   126   597   756
   121   594   948
   116   592   1118
   114   590   1265
   112   590   1386
   112   589   1495
   112   589   1594
   112   589   1687
   113   587   1773
   115   588   1855
   117   588   1945
   119   589   2056
   121   590   2186
   166   820   0
   168   820   0
   95   862   312
   83   860   557
   74   857   780
   68   854   983
   63   852   1155
   61   851   1298
   60   850   1423
   61   849   1534
   62   849   1633
   64   850   1724
   66   850   1808
   69   850   1901
   73   851   2007
   78   850   2134
   82   852   2292
   166   1057   0
   168   1057   0
   58   1120   304
   45   1115   568
   37   1112   804
   32   1109   1009
   30   1108   1178
   31   1107   1319
   33   1107   1444
   35   1107   1554
   39   1107   1651
   43   1107   1739
   48   1109   1831
   54   1110   1935
   61   1112   2057
   70   1112   2205
   78   1113   2386
   170   1295   0
   173   1295   0
   53   1363   327
   42   1361   604
   37   1358   845
   37   1357   1048
   39   1357   1210
   43   1357   1350
   48   1358   1474
   54   1360   1580
   61   1362   1673
   68   1363   1763
   77   1363   1866
   89   1367   1984
   101   1369   2123
   114   1371   2288
   126   1373   2475
   177   1546   0
   116   1590   11
   88   1598   392
   83   1598   676
   83   1598   917
   88   1598   1109
   96   1600   1266
   105   1602   1404
   114   1603   1522
   124   1606   1623
   135   1608   1713
   148   1611   1813
   162   1615   1927
   178   1620   2060
   196   1623   2214
   213   1627   2387
   230   1630   2565
   194   1829   3
   185   1841   131
   177   1851   504
   180   1856   791
   188   1861   1023
   201   1867   1204
   214   1873   1356
   229   1879   1488
   243   1884   1600
   258   1888   1695
   274   1893   1792
   292   1898   1901
   314   1908   2027
   335   1913   2172
   358   1922   2332
   381   1930   2501
   399   1934   2667
   340   2159   144
   341   2172   326
   346   2192   694
   358   2203   970
   375   2212   1185
   394   2224   1354
   412   2232   1498
   432   2241   1622
   451   2249   1726
   470   2256   1822
   489   2261   1924
   513   2272   2044
   534   2284   2182
   554   2295   2336
   576   2305   2497
   592   2317   2659
   607   2327   2822
   476   2560   262
   490   2569   522
   505   2580   882
   518   2597   1147
   532   2608   1344
   546   2623   1505
   560   2636   1643
   574   2646   1760
   589   2656   1862
   604   2666   1969
   620   2678   2089
   636   2691   2227
   653   2703   2380
   671   2714   2544
   689   2723   2705
   708   2732   2864
   725   2735   3020
   556   2944   308
   573   2944   659
   590   2950   1017
   607   2962   1273
   623   2973   1459
   639   2984   1618
   657   2993   1751
   673   3002   1862
   691   3010   1975
   708   3018   2097
   727   3029   2232
   746   3039   2385
   768   3050   2544
   786   3057   2702
   806   3060   2857
   826   3065   3010
   846   3065   3153
   641   3234   351
   661   3224   809
   683   3229   1149
   701   3237   1382
   721   3245   1562
   740   3253   1712
   759   3260   1834
   779   3268   1953
   799   3275   2078
   820   3284   2216
   842   3293   2367
   863   3300   2522
   885   3305   2678
   907   3308   2827
   929   3309   2971
   951   3310   3112
   973   3306   3242
   737   3436   395
   766   3425   974
   787   3428   1283
   810   3436   1491
   831   3444   1660
   854   3450   1797
   875   3457   1920
   897   3465   2053
   921   3472   2198
   944   3479   2347
   968   3485   2500
   991   3489   2652
   1015   3489   2796
   1038   3491   2938
   1062   3489   3072
   1087   3488   3195
   1111   3485   3311
   856   3568   678
   886   3566   1153
   912   3572   1416
   938   3580   1609
   962   3587   1763
   986   3593   1893
   1010   3601   2034
   1035   3609   2189
   1060   3617   2343
   1085   3622   2496
   1109   3625   2644
   1133   3627   2783
   1159   3625   2920
   1183   3624   3048
   1207   3622   3166
   1232   3619   3275
   1256   3617   3375
   1005   3663   968
   1032   3668   1336
   1061   3677   1564
   1089   3685   1737
   1113   3692   1881
   1140   3702   2036
   1166   3710   2200
   1191   3718   2361
   1216   3722   2517
   1240   3725   2659
   1265   3726   2794
   1290   3727   2926
   1315   3726   3045
   1340   3724   3156
   1366   3722   3258
   1393   3719   3354
   1420   3714   3444
   1180   3745   1253
   1209   3754   1538
   1237   3763   1735
   1263   3769   1895
   1292   3780   2067
   1319   3789   2245
   1346   3796   2413
   1371   3800   2569
   1396   3803   2709
   1422   3804   2840
   1448   3805   2962
   1473   3802   3075
   1499   3801   3176
   1526   3800   3269
   1554   3797   3358
   1581   3792   3441
   1607   3790   3518
   274   0   0
   274   0   0
   279   0   265
   280   0   427
   280   0   574
   280   0   713
   281   0   851
   282   0   984
   284   0   1100
   284   0   1196
   285   0   1283
   287   0   1369
   288   0   1453
   289   0   1535
   291   0   1616
   293   0   1694
   294   0   1779
   286   165   0
   286   165   0
   297   180   287
   298   179   478
   298   178   650
   297   176   815
   297   175   970
   297   173   1111
   296   172   1237
   297   171   1341
   297   171   1434
   298   170   1524
   299   170   1610
   300   169   1694
   301   170   1774
   303   169   1851
