Resources/LUT/Cinematic.3dl
# 17x17x17 .3dl lookup table from LUT Buddy
0 128 256 384 512 640 768 896 1023
   0   0   0
   0   0   242
   0   0   516
   0   0   769
   0   0   1000
   0   0   1194
   0   0   1354
   0   1   1511
   0   0   1668
   0   328   2
   0   331   286
   0   333   607
   0   334   891
   0   335   1129
   0   337   1307
   0   339   1465
   0   341   1614
   0   342   1765
   0   729   28
   0   733   335
   0   736   681
   0   738   970
   0   742   1189
   0   747   1357
   0   749   1505
   0   756   1645
   0   763   1835
   0   1167   63
   0   1168   401
   0   1170   780
   0   1176   1075
   0   1185   1285
   0   1193   1454
   0   1201   1599
   0   1213   1770
   0   1226   2021
   0   1624   111
   0   1628   518
   0   1638   943
   0   1652   1243
   0   1666   1465
   0   1680   1637
   0   1693   1804
   0   1712   2033
   0   1734   2355
   0   2366   183
   0   2391   726
   0   2417   1205
   1   2438   1518
   1   2457   1754
   2   2472   1941
   2   2493   2166
   23   2570   2529
   65   2622   2915
   8   3224   275
   7   3221   995
   8   3233   1457
   22   3263   1775
   74   3286   2011
   125   3302   2262
   179   3316   2581
   231   3322   2910
   280   3321   3221
   130   3677   406
   181   3646   1313
   223   3648   1693
   264   3654   1953
   308   3662   2231
   358   3668   2539
   408   3666   2843
   463   3658   3115
   521   3644   3351
   419   3769   1071
   470   3778   1627
   517   3788   1942
   566   3804   2273
   616   3810   2587
   684   3809   2858
   758   3802   3094
   834   3791   3294
   913   3780   3463
   165   0   0
   167   0   257
   167   0   554
   168   0   827
   170   0   1072
   171   0   1268
   173   0   1437
   176   0   1581
   177   0   1749
   172   365   0
   164   370   320
   159   368   706
   153   365   1047
   151   363   1315
   150   361   1517
   152   360   1695
   154   360   1856
   157   361   2054
   166   820   0
   95   862   312
   74   857   780
   63   852   1155
   60   850   1423
   62   849   1633
   66   850   1808
   73   851   2007
   82   852   2292
   170   1295   0
   53   1363   327
   37   1358   845
   39   1357   1210
   48   1358   1474
   61   1362   1673
   77   1363   1866
   101   1369   2123
   126   1373   2475
   194   1829   3
   177   1851   504
   188   1861   1023
   214   1873   1356
   243   1884   1600
   274   1893   1792
   314   1908   2027
   358   1922   2332
   399   1934   2667
   476   2560   262
   505   2580   882
   532   2608   1344
   560   2636   1643
   589   2656   1862
   620   2678   2089
   653   2703   2380
   689   2723   2705
   725   2735   3020
   641   3234   351
   683   3229   1149
   721   3245   1562
   759   3260   1834
   799   3275   2078
   842   3293   2367
   885   3305   2678
   929   3309   2971
   973   3306   3242
   856   3568   678
   912   3572   1416
   962   3587   1763
   1010   3601   2034
   1060   3617   2343
   1109   3625   2644
   1159   3625   2920
   1207   3622   3166
   1256   3617   3375
   1180   3745   1253
   1237   3763   1735
   1292   3780   2067
   1346   3796   2413
   1396   3803   2709
   1448   3805   2962
   1499   3801   3176
   1554   3797   3358
   1607   3790   3518
   386   0   0
   388   0   263
   393   0   584
   394   0   863
   398   0   1111
   402   0   1306
   406   0   1473
   410   0   1635
   415   0   1795
   441   321   0
   460   350   317
   461   368   738
   458   360   1096
   459   355   1364
   460   352   1572
   464   350   1752
   468   350   1918
   474   348   2141
   510   833   0
   447   867   272
   430   855   776
   425   846   1159
   428   843   1430
   434   841   1641
   444   840   1820
   456   843   2047
   471   843   2371
   561   1305   0
   477   1370   300
   475   1361   842
   487   1360   1206
   507   1364   1470
   528   1368   1669
   553   1373   1887
   584   1380   2181
   616   1387   2538
   691   1883   2
   695   1911   550
   726   1926   1072
   763   1943   1401
   800   1959   1640
   841   1977   1850
   887   1991   2112
   935   2011   2432
   979   2028   2751
   1031   2645   300
   1068   2671   976
   1104   2701   1420
   1138   2727   1711
   1171   2749   1935
   1205   2774   2186
   1241   2795   2492
   1276   2812   2806
   1311   2824   3104
   1236   3264   387
   1278   3272   1248
   1318   3289   1639
   1355   3305   1901
   1393   3322   2171
   1432   3338   2471
   1470   3348   2773
   1508   3352   3053
   1544   3349   3300
   1457   3598   868
   1503   3612   1519
   1548   3627   1844
   1592   3641   2145
   1634   3652   2459
   1673   3656   2750
   1713   3656   3012
   1751   3652   3240
   1792   3646   3434
   1756   3796   1411
   1811   3811   1844
   1862   3827   2203
   1911   3833   2544
   1959   3836   2823
   2009   3834   3058
   2062   3828   3255
   2118   3823   3424
   2182   3815   3572
   655   0   0
   665   0   242
   675   0   598
   680   0   890
   685   0   1139
   692   0   1327
   698   0   1493
   705   0   1650
   714   0   1808
   757   313   0
   804   286   294
   846   344   739
   846   333   1108
   849   328   1377
   853   324   1588
   858   322   1767
   866   322   1943
   875   322   2184
   815   613   0
   872   673   246
   871   795   753
   873   825   1137
   878   824   1410
   888   825   1620
   899   828   1808
   915   832   2055
   930   838   2402
   1056   1343   0
   992   1376   314
   967   1371   863
   984   1376   1219
   1005   1383   1482
   1028   1391   1682
   1056   1402   1918
   1087   1416   2231
   1119   1428   2581
   1191   1959   51
   1218   1989   659
   1255   2015   1167
   1294   2038   1488
   1332   2060   1720
   1370   2078   1944
   1416   2101   2223
   1462   2126   2535
   1498   2145   2843
   1516   2755   334
   1555   2785   1074
   1591   2814   1507
   1625   2837   1793
   1658   2860   2027
   1693   2882   2301
   1727   2900   2613
   1759   2914   2918
   1790   2920   3200
   1715   3336   438
   1760   3345   1345
   1796   3361   1721
   1832   3376   1985
   1871   3391   2276
   1906   3402   2577
   1943   3406   2868
   1980   3407   3135
   2020   3403   3369
   1944   3659   1038
   1998   3670   1621
   2047   3681   1936
   2097   3693   2258
   2145   3698   2569
   2190   3698   2846
   2238   3693   3095
   2287   3686   3306
   2339   3677   3488
   2339   3852   1555
   2392   3857   1956
   2444   3864   2322
   2491   3859   2651
   2534   3853   2911
   2578   3845   3126
   2625   3833   3307
   2671   3823   3457
   2719   3810   3592
   961   5   0
   981   0   224
   993   0   610
   997   0   906
   1003   0   1153
   1011   0   1338
   1019   0   1504
   1029   0   1661
   1039   0   1820
   1029   268   0
   1174   265   276
   1225   324   692
   1226   312   1107
   1228   307   1376
   1232   305   1586
   1239   306   1763
   1246   308   1948
   1253   311   2207
   1160   718   0
   1271   753   219
   1265   734   744
   1279   831   1133
   1289   833   1406
   1300   838   1611
   1313   846   1808
   1329   856   2070
   1345   868   2423
   1231   1015   0
   1310   1084   269
   1347   1223   853
   1414   1387   1258
   1450   1437   1526
   1474   1449   1729
   1501   1467   1978
   1534   1486   2296
   1561   1502   2631
   1787   2095   224
   1754   2116   836
   1721   2130   1295
   1756   2155   1603
   1793   2180   1827
   1831   2204   2061
   1872   2234   2354
   1912   2261   2671
   1950   2280   2978
   1954   2873   368
   1999   2901   1173
   2043   2928   1597
   2085   2950   1875
   2126   2969   2127
   2171   2990   2417
   2212   3006   2728
   2253   3016   3025
   2294   3020   3295
   2205   3422   642
   2262   3430   1441
   2312   3442   1804
   2354   3451   2072
   2399   3460   2374
   2442   3464   2674
   2482   3462   2953
   2522   3457   3202
   2564   3447   3420
   2497   3715   1194
   2549   3717   1713
   2592   3719   2023
   2636   3720   2350
   2674   3716   2651
   2712   3709   2911
   2747   3699   3141
   2785   3686   3334
   2823   3674   3501
   2827   3861   1670
   2866   3858   2053
   2902   3855   2415
   2934   3846   2723
   2962   3837   2963
   2992   3826   3164
   3024   3812   3327
   3054   3803   3467
   3090   3788   3593
   1270   10   0
   1276   0   208
   1287   0   610
   1292   0   924
   1299   0   1171
   1307   0   1357
   1317   0   1524
   1328   0   1681
   1342   0   1846
   1275   248   0
   1517   264   267
   1565   319   654
   1567   309   1108
   1571   307   1374
   1575   308   1583
   1582   311   1756
   1589   317   1950
   1596   326   2218
   1473   756   0
   1608   676   233
   1624   777   770
   1646   865   1131
   1658   874   1422
   1672   884   1621
   1689   895   1827
   1708   912   2100
   1729   929   2449
   1555   1043   0
   1698   1179   353
   1790   1386   972
   1828   1426   1322
   1897   1524   1602
   1926   1543   1809
   1966   1567   2068
   2007   1594   2382
   2048   1616   2702
   1805   1550   0
   1897   1660   656
   2011   1829   1225
   2153   2042   1624
   2310   2287   1932
   2378   2357   2199
   2425   2381   2505
   2473   2403   2821
   2513   2416   3118
   2760   3042   420
   2687   3043   1287
   2631   3046   1687
   2634   3056   1953
   2675   3069   2217
   2714   3079   2511
   2752   3085   2816
   2785   3086   3097
   2817   3082   3350
   2751   3481   811
   2774   3477   1520
   2812   3480   1861
   2846   3484   2138
   2881   3485   2442
   2912   3480   2733
   2944   3472   2995
   2973   3462   3229
   3002   3450   3427
   2938   3724   1317
   2975   3720   1779
   3007   3717   2091
   3038   3713   2417
   3064   3703   2706
   3091   3693   2953
   3118   3680   3167
   3145   3668   3346
   3174   3655   3500
   3159   3847   1765
   3186   3843   2143
   3211   3836   2499
   3232   3827   2785
   3250   3816   3010
   3274   3804   3195
   3297   3792   3347
   3323   3782   3477
   3350   3769   3594
   1588   19   0
   1575   0   195
   1586   0   597
   1592   0   947
   1601   0   1199
   1611   0   1388
   1623   0   1556
   1637   0   1714
   1653   0   1886
   1541   246   0
   1844   282   273
   1900   336   641
   1911   331   1111
   1920   333   1381
   1929   339   1586
   1941   347   1757
   1954   358   1955
   1967   374   2233
   1803   709   0
   1956   603   267
   2077   862   838
   2122   941   1156
   2149   960   1473
   2171   976   1667
   2195   994   1878
   2225   1019   2157
   2258   1045   2496
   2139   1270   0
   2266   1396   549
   2281   1376   1047
   2400   1572   1453
   2462   1646   1699
   2496   1672   1923
   2535   1698   2185
   2577   1725   2493
   2619   1744   2801
   2279   1517   46
   2413   1696   787
   2606   2016   1393
   2797   2311   1774
   2868   2397   2021
   2936   2474   2306
   2975   2492   2612
   3012   2505   2915
   3042   2513   3199
   2740   2363   361
   2863   2568   1216
   2958   2726   1652
   3033   2858   1946
   3103   2980   2232
   3165   3096   2561
   3193   3120   2859
   3217   3117   3125
   3239   3108   3358
   3324   3493   1003
   3279   3487   1591
   3245   3487   1904
   3229   3486   2190
   3248   3483   2493
   3271   3476   2770
   3291   3466   3020
   3312   3454   3236
   3330   3442   3424
   3274   3715   1423
   3286   3708   1836
   3309   3704   2161
   3330   3697   2484
   3348   3687   2757
   3367   3676   2991
   3386   3663   3188
   3405   3652   3353
   3428   3639   3500
   3397   3832   1859
   3417   3827   2246
   3430   3819   2588
   3446   3810   2851
   3462   3799   3060
   3477   3788   3229
   3498   3775   3371
   3518   3767   3491
   3537   3753   3598
   1988   34   0
   1934   2   190
   1962   0   587
   1979   0   984
   1995   0   1245
   2014   0   1439
   2029   3   1611
   2044   11   1762
   2053   21   1931
   1924   253   0
   2336   336   314
   2420   392   664
   2442   396   1114
   2457   407   1409
   2474   418   1606
   2492   432   1776
   2508   450   1981
   2530   474   2267
   2320   661   0
   2463   594   330
   2653   972   932
   2687   1034   1207
   2712   1060   1535
   2733   1080   1729
   2757   1101   1947
   2780   1130   2232
   2807   1156   2560
   2745   1421   89
   2780   1427   645
   2772   1355   1099
   2923   1696   1562
   2959   1747   1760
   2998   1772   2016
   3041   1793   2287
   3083   1812   2594
   3116   1825   2891
   2838   1681   207
   3006   1973   999
   3192   2290   1520
   3203   2255   1789
   3328   2513   2091
   3369   2553   2356
   3397   2569   2677
   3419   2577   2966
   3440   2579   3231
   3104   2188   547
   3235   2439   1239
   3345   2695   1682
   3421   2934   1990
   3464   3078   2300
   3488   3126   2603
   3504   3141   2885
   3520   3134   3139
   3529   3127   3355
   3448   3187   1047
   3451   3238   1556
   3460   3289   1880
   3482   3336   2166
   3500   3376   2479
   3518   3415   2776
   3532   3451   3040
   3545   3450   3248
   3560   3440   3418
   3576   3701   1574
   3561   3697   1916
   3548   3694   2251
   3543   3686   2561
   3548   3677   2815
   3560   3666   3034
   3573   3655   3214
   3588   3644   3372
   3605   3632   3504
   3569   3820   1977
   3577   3814   2366
   3589   3806   2686
   3599   3798   2928
   3609   3787   3116
   3623   3777   3270
   3637   3765   3398
   3650   3754   3511
   3668   3741   3609
   2625   91   38
   2525   46   231
   2541   48   606
   2572   53   1019
   2598   56   1294
   2621   58   1487
   2648   61   1659
   2677   64   1815
   2714   67   2008
   2618   271   0
   2917   398   362
   2975   447   692
   2990   452   1115
   3003   469   1441
   3015   483   1635
   3028   498   1805
   3040   520   2021
   3052   547   2319
   2865   621   0
   2980   601   375
   3126   1054   997
   3145   1102   1241
   3160   1130   1556
   3176   1153   1777
   3192   1179   2006
   3211   1208   2303
   3228   1233   2617
   3163   1430   124
   3169   1372   666
   3174   1341   1131
   3306   1788   1631
   3333   1820   1793
   3375   1846   2077
   3412   1866   2366
   3441   1882   2663
   3468   1896   2951
   3322   1934   345
   3467   2234   1122
   3505   2285   1551
   3492   2202   1798
   3637   2607   2148
   3658   2623   2370
   3680   2636   2725
   3691   2641   3001
   3703   2644   3249
   3487   2317   741
   3586   2603   1332
   3652   2897   1760
   3678   3059   2047
   3693   3024   2318
   3704   3161   2651
   3711   3164   2891
   3717   3158   3150
   3724   3151   3349
   3638   2984   1159
   3654   3084   1573
   3672   3197   1896
   3680   3302   2205
   3687   3404   2549
   3690   3441   2833
   3696   3463   3074
   3704   3457   3262
   3712   3448   3423
   3687   3606   1629
   3689   3612   1910
   3688   3620   2246
   3685   3620   2554
   3685   3614   2806
   3690   3618   3035
   3702   3630   3233
   3714   3646   3396
   3724   3632   3515
   3709   3811   2186
   3707   3805   2518
   3705   3797   2799
   3708   3788   3013
   3711   3779   3183
   3719   3770   3321
   3732   3756   3438
   3743   3744   3537
   3756   3729   3626
