Resources/LUT/Cinematic.3dl
# 17x17x17 .3dl lookup table from LUT Buddy
0 256 512 768 1023
   0   0   0
   0   0   516
   0   0   1000
   0   0   1354
   0   0   1668
   0   729   28
   0   736   681
   0   742   1189
   0   749   1505
   0   763   1835
   0   1624   111
   0   1638   943
   0   1666   1465
   0   1693   1804
   0   1734   2355
   8   3224   275
   8   3233   1457
   74   3286   2011
   179   3316   2581
   280   3321   3221
   419   3769   1071
   517   3788   1942
   616   3810   2587
   758   3802   3094
   913   3780   3463
   386   0   0
   393   0   584
   398   0   1111
   406   0   1473
   415   0   1795
   510   833   0
   430   855   776
   428   843   1430
   444   840   1820
   471   843   2371
   691   1883   2
   726   1926   1072
   800   1959   1640
   887   1991   2112
   979   2028   2751
   1236   3264   387
   1318   3289   1639
   1393   3322   2171
   1470   3348   2773
   1544   3349   3300
   1756   3796   1411
   1862   3827   2203
   1959   3836   2823
   2062   3828   3255
   2182   3815   3572
   961   5   0
   993   0   610
   1003   0   1153
   1019   0   1504
   1039   0   1820
   1160   718   0
   1265   734   744
   1289   833   1406
   1313   846   1808
   1345   868   2423
   1787   2095   224
   1721   2130   1295
   1793   2180   1827
   1872   2234   2354
   1950   2280   2978
   2205   3422   642
   2312   3442   1804
   2399   3460   2374
   2482   3462   2953
   2564   3447   3420
   2827   3861   1670
   2902   3855   2415
   2962   3837   2963
   3024   3812   3327
   3090   3788   3593
   1588   19   0
   1586   0   597
   1601   0   1199
   1623   0   1556
   1653   0   1886
   1803   709   0
   2077   862   838
   2149   960   1473
   2195   994   1878
   2258   1045   2496
   2279   1517   46
   2606   2016   1393
   2868   2397   2021
   2975   2492   2612
   3042   2513   3199
   3324   3493   1003
   3245   3487   1904
   3248   3483   2493
   3291   3466   3020
   3330   3442   3424
   3397   3832   1859
   3430   3819   2588
   3462   3799   3060
   3498   3775   3371
   3537   3753   3598
   2625   91   38
   2541   48   606
   2598   56   1294
   2648   61   1659
   2714   67   2008
   2865   621   0
   3126   1054   997
   3160   1130   1556
   3192   1179   2006
   3228   1233   2617
   3322   1934   345
   3505   2285   1551
   3637   2607   2148
   3680   2636   2725
   3703   2644   3249
   3638   2984   1159
   3672   3197   1896
   3687   3404   2549
   3696   3463   3074
   3712   3448   3423
   3709   3811   2186
   3705   3797   2799
   3711   3779   3183
   3732   3756   3438
   3756   3729   3626
