Resources/LUT/Cold Day.3dl
# 17x17x17 .3dl lookup table from LUT Buddy
0 256 512 768 1023
   0   0   0
   90   90   921
   432   432   2503
   826   826   3382
   1222   1222   3771
   61   722   61
   159   788   921
   475   1020   2479
   855   1339   3366
   1238   1682   3757
   279   1979   279
   369   2013   1113
   643   2140   2562
   992   2306   3394
   1354   2468   3766
   576   2957   576
   668   2968   1509
   924   3017   2758
   1250   3087   3469
   1592   3164   3800
   978   3633   1031
   1100   3631   2107
   1346   3641   3070
   1640   3655   3592
   1913   3670   3862
   271   20   20
   370   110   899
   665   443   2477
   1036   831   3367
   1417   1222   3760
   359   740   85
   451   807   941
   732   1036   2481
   1091   1351   3362
   1464   1690   3752
   572   1986   305
   666   2023   1170
   929   2149   2590
   1267   2313   3401
   1623   2472   3766
   879   2954   598
   991   2968   1623
   1247   3019   2817
   1564   3087   3487
   1878   3161   3805
   1287   3626   1132
   1437   3623   2257
   1699   3633   3159
   1965   3646   3622
   2206   3659   3875
   876   99   98
   943   201   934
   1172   504   2474
   1488   878   3360
   1828   1258   3752
   944   805   178
   1017   872   1007
   1244   1095   2501
   1557   1402   3363
   1886   1729   3748
   1119   2025   383
   1207   2065   1270
   1437   2189   2632
   1742   2344   3411
   2035   2494   3765
   1394   2969   686
   1513   2985   1771
   1756   3035   2884
   2025   3102   3509
   2266   3171   3810
   1790   3624   1310
   1948   3623   2430
   2164   3631   3260
   2371   3641   3656
   2562   3651   3886
   1612   259   253
   1664   343   1017
   1849   614   2491
   2092   965   3358
   2321   1330   3747
   1663   917   322
   1727   982   1111
   1915   1195   2533
   2150   1490   3368
   2370   1798   3744
   1809   2096   505
   1891   2136   1405
   2076   2253   2683
   2288   2397   3422
   2489   2535   3764
   2036   3003   851
   2139   3020   1943
   2313   3069   2962
   2499   3132   3531
   2667   3196   3814
   2326   3631   1575
   2456   3631   2627
   2614   3636   3355
   2769   3643   3696
   2924   3647   3899
   2368   449   439
   2398   520   1136
   2504   762   2520
   2646   1088   3360
   2786   1433   3740
   2391   1070   497
   2430   1133   1246
   2539   1335   2573
   2677   1614   3372
   2817   1891   3738
   2466   2196   663
   2518   2234   1566
   2633   2341   2739
   2764   2470   3433
   2900   2594   3761
   2593   3056   1105
   2664   3073   2124
   2779   3122   3046
   2907   3178   3554
   3039   3236   3815
   2772   3648   1967
   2873   3646   2862
   3000   3647   3457
   3129   3645   3744
   3256   3633   3916
