Resources/LUT/Cold Beauty.3dl
# 17x17x17 .3dl lookup table from LUT Buddy
0 128 256 384 512 640 768 896 1023
   0   0   0
   3   6   310
   22   62   888
   70   243   1462
   179   426   1986
   296   584   2427
   400   718   2790
   493   842   3095
   581   962   3379
   13   304   98
   17   319   367
   38   384   915
   90   485   1473
   197   603   1988
   308   720   2425
   409   832   2789
   500   944   3094
   587   1056   3375
   57   746   332
   61   751   518
   85   782   1000
   152   837   1534
   250   912   2033
   350   999   2463
   444   1091   2819
   529   1186   3120
   612   1283   3396
   155   1206   592
   162   1210   729
   195   1232   1142
   257   1274   1647
   337   1330   2119
   423   1397   2535
   505   1468   2880
   583   1541   3172
   660   1615   3444
   300   1704   858
   306   1707   973
   334   1721   1333
   384   1751   1802
   449   1790   2241
   519   1839   2637
   589   1892   2968
   659   1947   3250
   728   2007   3514
   447   2196   1117
   453   2197   1230
   477   2209   1558
   518   2230   1989
   571   2261   2395
   634   2301   2766
   711   2359   3071
   789   2417   3341
   870   2477   3590
   595   2656   1359
   605   2658   1485
   636   2675   1800
   685   2705   2183
   747   2742   2559
   814   2781   2898
   882   2824   3183
   952   2864   3440
   1025   2908   3680
   799   3133   1592
   811   3134   1751
   842   3148   2054
   885   3170   2394
   940   3195   2745
   999   3223   3050
   1060   3253   3315
   1124   3283   3558
   1191   3313   3785
   998   3570   1853
   1012   3572   2035
   1042   3582   2313
   1083   3593   2633
   1133   3613   2948
   1188   3633   3221
   1245   3653   3465
   1306   3672   3692
   1370   3694   3907
   19   3   22
   24   10   315
   50   74   883
   123   253   1454
   233   432   1977
   340   588   2418
   437   721   2783
   525   843   3088
   610   963   3371
   37   316   132
   43   331   384
   75   394   921
   152   494   1473
   256   610   1987
   358   725   2425
   451   837   2785
   537   948   3090
   621   1059   3373
   96   751   360
   105   757   539
   146   788   1013
   220   843   1544
   310   918   2038
   403   1005   2466
   489   1095   2820
   571   1190   3121
   652   1287   3398
   216   1210   614
   226   1215   752
   261   1237   1160
   322   1279   1662
   397   1335   2130
   477   1403   2542
   555   1473   2886
   631   1544   3177
   705   1618   3445
   358   1707   875
   367   1709   996
   396   1724   1355
   445   1753   1823
   507   1795   2257
   575   1843   2649
   643   1896   2977
   712   1951   3255
   781   2009   3517
   501   2197   1132
   510   2199   1255
   536   2210   1587
   577   2232   2015
   630   2262   2417
   698   2309   2781
   774   2365   3084
   853   2425   3350
   935   2484   3597
   652   2658   1372
   666   2663   1513
   701   2680   1836
   752   2710   2214
   814   2747   2587
   881   2786   2920
   950   2826   3199
   1023   2869   3451
   1099   2914   3688
   855   3134   1613
   872   3136   1784
   906   3151   2092
   954   3172   2432
   1011   3198   2776
   1073   3227   3077
   1139   3258   3335
   1207   3285   3573
   1277   3316   3799
   1056   3571   1876
   1077   3572   2075
   1113   3580   2358
   1161   3598   2678
   1217   3615   2987
   1276   3632   3251
   1338   3652   3490
   1405   3673   3713
   1478   3694   3921
   219   29   147
   228   44   389
   265   139   919
   327   303   1475
   403   465   1990
   482   613   2428
   560   741   2789
   637   860   3095
   713   979   3375
   248   362   261
   257   377   463
   292   434   960
   351   527   1502
   423   636   2004
   500   748   2437
   577   857   2795
   652   966   3097
   728   1075   3376
   307   774   451
   317   781   610
   349   811   1057
   402   865   1574
   469   939   2059
   542   1025   2481
   615   1114   2832
   688   1207   3130
   763   1303   3405
   396   1228   679
   406   1232   811
   435   1255   1206
   482   1297   1698
   543   1353   2155
   610   1419   2562
   678   1489   2901
   748   1559   3189
   819   1633   3455
   507   1719   926
   517   1722   1049
   544   1738   1402
   586   1767   1862
   641   1809   2288
   701   1857   2673
   765   1908   2994
   831   1964   3271
   905   2026   3528
   630   2206   1172
   641   2207   1304
   666   2221   1637
   705   2242   2056
   759   2277   2451
   831   2330   2807
   908   2386   3103
   986   2443   3364
   1068   2503   3610
   778   2674   1406
   796   2679   1562
   833   2698   1886
   885   2728   2257
   949   2764   2625
   1017   2802   2949
   1088   2844   3223
   1163   2885   3471
   1240   2927   3704
   978   3145   1653
   1000   3150   1839
   1038   3165   2145
   1090   3186   2482
   1152   3212   2820
   1217   3241   3111
   1285   3270   3364
   1359   3300   3598
   1437   3330   3817
   1183   3579   1922
   1211   3581   2132
   1252   3590   2418
   1305   3607   2734
   1368   3625   3034
   1435   3643   3292
   1505   3663   3525
   1582   3681   3744
   1665   3704   3935
   502   139   346
   508   162   517
   530   253   987
   569   383   1521
   623   524   2018
   683   657   2448
   748   777   2806
   815   893   3107
   884   1008   3386
   521   437   430
   527   449   584
   550   500   1030
   589   583   1550
   641   682   2038
   702   787   2461
   766   892   2815
   834   998   3114
   903   1105   3390
   560   814   580
   568   821   715
   591   851   1124
   629   903   1625
   681   975   2095
   741   1058   2509
   805   1148   2855
   871   1238   3147
   939   1331   3418
   624   1259   779
   633   1264   902
   656   1287   1274
   694   1327   1750
   746   1384   2195
   804   1448   2592
   867   1516   2924
   932   1585   3207
   998   1657   3471
   711   1742   1004
   721   1745   1127
   745   1762   1471
   784   1790   1915
   834   1833   2330
   891   1880   2706
   952   1931   3020
   1018   1989   3293
   1103   2064   3543
   816   2226   1238
   829   2227   1376
   855   2239   1707
   896   2266   2110
   961   2312   2494
   1033   2365   2839
   1109   2420   3129
   1188   2476   3386
   1271   2535   3628
   970   2702   1460
   992   2709   1630
   1032   2728   1953
   1086   2759   2312
   1150   2795   2670
   1221   2833   2986
   1296   2874   3253
   1375   2915   3498
   1460   2957   3726
   1166   3170   1713
   1193   3174   1910
   1236   3188   2213
   1293   3212   2544
   1359   3238   2871
   1432   3268   3152
   1508   3294   3399
   1590   3325   3628
   1676   3354   3844
   1375   3597   1987
   1410   3601   2205
   1460   3612   2491
   1524   3629   2803
   1595   3646   3091
   1672   3665   3340
   1750   3683   3568
   1833   3703   3780
   1918   3721   3956
   785   299   545
   790   315   671
   808   380   1080
   839   483   1585
   883   601   2062
   935   718   2483
   992   831   2833
   1053   941   3129
   1119   1053   3405
   801   530   609
   806   540   728
   826   583   1122
   858   654   1617
   902   744   2083
   955   842   2497
   1012   943   2845
   1074   1045   3138
   1140   1150   3412
   833   869   729
   841   877   843
   861   906   1215
   894   957   1694
   939   1027   2143
   993   1108   2549
   1052   1194   2886
   1114   1283   3174
   1182   1374   3441
   887   1303   901
   896   1309   1015
   918   1332   1363
   952   1372   1819
   999   1426   2246
   1054   1489   2633
   1114   1554   2958
   1178   1622   3237
   1247   1692   3496
   962   1775   1106
   973   1780   1227
   998   1796   1559
   1035   1825   1984
   1083   1867   2384
   1139   1914   2750
   1207   1972   3056
   1291   2045   3320
   1379   2119   3567
   1057   2252   1327
   1073   2256   1469
   1107   2275   1792
   1163   2314   2173
   1230   2364   2546
   1306   2417   2883
   1386   2472   3164
   1470   2527   3416
   1556   2583   3653
   1225   2743   1541
   1252   2752   1717
   1296   2771   2034
   1355   2802   2379
   1425   2837   2728
   1502   2877   3031
   1581   2916   3290
   1663   2956   3529
   1749   2999   3753
   1423   3204   1791
   1459   3210   1998
   1509   3225   2292
   1572   3250   2618
   1646   3276   2932
   1722   3305   3202
   1799   3331   3441
   1882   3360   3665
   1967   3389   3874
   1643   3627   2069
   1685   3630   2293
   1743   3641   2578
   1813   3660   2882
   1886   3678   3157
   1965   3695   3394
   2043   3713   3617
   2127   3731   3822
   2210   3747   3975
   1106   451   741
   1111   463   838
   1126   512   1193
   1156   593   1668
   1198   691   2120
   1247   795   2528
   1304   900   2871
   1363   1005   3163
   1426   1113   3434
   1119   633   790
   1126   641   887
   1143   678   1234
   1174   740   1700
   1218   821   2143
   1270   913   2547
   1326   1010   2884
   1387   1108   3173
   1450   1209   3440
   1149   942   891
   1158   949   989
   1177   977   1325
   1210   1027   1778
   1255   1093   2206
   1309   1172   2598
   1367   1255   2928
   1429   1341   3210
   1494   1427   3471
   1199   1362   1042
   1210   1367   1147
   1233   1390   1471
   1270   1429   1903
   1316   1481   2309
   1370   1541   2685
   1431   1605   3001
   1492   1671   3273
   1570   1753   3525
   1272   1821   1228
   1285   1824   1348
   1311   1841   1664
   1351   1872   2066
   1402   1913   2450
   1472   1975   2800
   1551   2044   3095
   1630   2115   3353
   1714   2188   3593
   1381   2307   1430
   1405   2319   1576
   1448   2343   1890
   1504   2382   2250
   1573   2429   2610
   1646   2481   2933
   1723   2535   3207
   1802   2588   3451
   1885   2644   3682
   1555   2799   1642
   1585   2807   1822
   1633   2828   2126
   1692   2858   2457
   1761   2894   2793
   1835   2930   3083
   1912   2971   3333
   1990   3009   3568
   2069   3048   3784
   1746   3251   1888
   1784   3259   2098
   1838   3276   2383
   1900   3297   2701
   1972   3324   3000
   2045   3350   3258
   2123   3377   3489
   2202   3404   3704
   2284   3433   3908
   1956   3666   2167
   2002   3672   2393
   2061   3683   2676
   2130   3700   2969
   2203   3716   3229
   2280   3733   3458
   2359   3749   3670
   2442   3766   3868
   2526   3777   3993
   1488   596   936
   1493   606   1015
   1506   643   1326
   1534   708   1767
   1570   792   2192
   1614   885   2585
   1662   983   2918
   1714   1083   3203
   1768   1186   3471
   1500   743   976
   1505   750   1057
   1522   782   1365
   1550   838   1799
   1588   913   2217
   1633   999   2606
   1683   1091   2934
   1736   1184   3213
   1791   1280   3476
   1525   1029   1062
   1533   1036   1150
   1552   1063   1454
   1583   1110   1876
   1622   1174   2281
   1670   1250   2659
   1721   1329   2978
   1775   1411   3252
   1830   1494   3508
   1569   1432   1197
   1579   1438   1294
   1602   1460   1598
   1634   1498   1998
   1676   1547   2385
   1725   1605   2746
   1783   1673   3051
   1856   1756   3311
   1932   1842   3555
   1630   1876   1366
   1644   1880   1482
   1671   1900   1786
   1717   1942   2154
   1780   2000   2519
   1849   2063   2855
   1919   2130   3137
   1992   2197   3389
   2069   2269   3625
   1757   2387   1547
   1782   2397   1698
   1824   2423   1997
   1876   2461   2335
   1940   2506   2681
   2009   2557   2988
   2079   2608   3252
   2153   2660   3491
   2229   2712   3712
   1915   2864   1757
   1946   2873   1938
   1992   2894   2223
   2049   2923   2544
   2114   2959   2863
   2183   2995   3142
   2255   3033   3383
   2329   3070   3609
   2405   3109   3818
   2089   3306   1998
   2129   3313   2206
   2181   3331   2482
   2243   3354   2789
   2311   3379   3072
   2383   3403   3319
   2456   3430   3542
   2531   3458   3748
   2607   3482   3939
   2281   3713   2274
   2332   3718   2504
   2394   3731   2784
   2462   3746   3064
   2532   3760   3307
   2604   3775   3526
   2680   3787   3728
   2757   3802   3919
   2832   3811   4011
   1880   734   1130
   1886   741   1196
   1897   772   1472
   1920   827   1875
   1951   901   2274
   1988   988   2653
   2029   1079   2972
   2075   1173   3251
   2123   1269   3510
   1888   859   1162
   1893   867   1233
   1910   895   1510
   1933   947   1908
   1966   1016   2300
   2004   1097   2672
   2047   1183   2988
   2093   1271   3261
   2145   1365   3518
   1908   1128   1239
   1916   1135   1317
   1932   1161   1596
   1959   1207   1983
   1993   1267   2365
   2035   1338   2725
   2081   1413   3031
   2141   1503   3297
   2209   1600   3541
   1942   1512   1359
   1953   1518   1450
   1973   1540   1734
   2001   1574   2100
   2044   1627   2467
   2105   1701   2807
   2168   1779   3097
   2235   1859   3351
   2305   1941   3590
   2010   1959   1509
   2027   1970   1624
   2061   1999   1907
   2109   2043   2246
   2167   2102   2595
   2228   2162   2914
   2294   2226   3187
   2358   2293   3431
   2428   2360   3658
   2139   2478   1686
   2163   2486   1828
   2203   2512   2107
   2253   2548   2426
   2310   2592   2755
   2374   2642   3050
   2438   2690   3300
   2505   2739   3531
   2571   2790   3747
   2280   2937   1889
   2310   2946   2059
   2354   2967   2329
   2408   2996   2636
   2467   3030   2939
   2531   3065   3201
   2596   3100   3434
   2663   3136   3649
   2729   3173   3852
   2434   3369   2122
   2474   3376   2318
   2525   3394   2590
   2581   3415   2884
   2644   3440   3151
   2708   3464   3383
   2771   3487   3598
   2836   3510   3796
   2901   3533   3964
   2606   3765   2388
   2655   3770   2626
   2712   3783   2899
   2774   3796   3163
   2837   3807   3391
   2901   3818   3598
   2966   3829   3792
   3031   3838   3968
   3096   3840   4026
   2270   869   1322
   2273   875   1377
   2282   902   1627
   2299   951   1990
   2325   1018   2364
   2357   1098   2723
   2390   1184   3032
   2431   1274   3300
   2487   1387   3547
   2270   983   1349
   2275   990   1410
   2288   1017   1663
   2309   1063   2022
   2336   1128   2390
   2367   1203   2744
   2401   1283   3045
   2458   1385   3309
   2516   1492   3554
   2284   1236   1416
   2291   1244   1488
   2304   1268   1746
   2327   1311   2093
   2356   1368   2452
   2400   1446   2794
   2456   1536   3084
   2510   1625   3339
   2569   1716   3578
   2307   1599   1524
   2316   1606   1613
   2342   1636   1872
   2381   1684   2201
   2429   1748   2545
   2481   1820   2871
   2537   1893   3145
   2592   1969   3391
   2650   2047   3624
   2396   2071   1655
   2414   2083   1768
   2444   2111   2030
   2485   2155   2341
   2535   2210   2673
   2587   2268   2976
   2642   2330   3236
   2697   2394   3471
   2756   2457   3693
   2509   2573   1833
   2529   2581   1962
   2564   2606   2218
   2607   2642   2520
   2657   2684   2832
   2711   2729   3110
   2765   2776   3349
   2819   2822   3573
   2874   2868   3780
   2627   3018   2029
   2652   3025   2179
   2690   3045   2435
   2737   3074   2732
   2789   3105   3016
   2840   3138   3264
   2895   3170   3486
   2949   3204   3693
   3004   3238   3886
   2757   3437   2258
   2788   3442   2436
   2832   3460   2702
   2882   3481   2979
   2935   3503   3229
   2988   3524   3450
   3042   3546   3654
   3098   3565   3842
   3152   3584   3987
   2896   3819   2533
   2939   3822   2756
   2989   3833   3022
   3041   3842   3266
   3096   3851   3481
   3150   3859   3680
   3208   3863   3862
   3265   3861   4002
   3323   3851   4037
