Resources/LUT/Cold Day.3dl
# 17x17x17 .3dl lookup table from LUT Buddy
   0   64   128   192   256   320   384   448   512   576   640   704   768   832   896   960   1023
   0   0   0
   0   0   5
   16   16   227
   44   44   546
   90   90   921
   162   162   1339
   247   247   1787
   337   337   2182
   432   432   2503
   531   531   2774
   630   630   3011
   729   729   3221
   826   826   3382
   925   925   3502
   1022   1022   3603
   1121   1122   3693
   1222   1222   3771
   5   96   5
   5   96   5
   21   112   219
   49   144   534
   94   197   904
   166   265   1319
   249   342   1765
   338   426   2165
   432   517   2488
   530   612   2759
   628   708   2997
   727   804   3207
   824   900   3374
   922   996   3495
   1020   1093   3598
   1118   1189   3687
   1218   1288   3766
   16   257   16
   16   257   16
   31   274   224
   59   305   532
   106   350   899
   176   408   1309
   258   477   1755
   346   555   2153
   439   640   2479
   536   730   2750
   634   821   2988
   731   913   3201
   828   1006   3369
   925   1098   3490
   1022   1192   3594
   1120   1287   3682
   1218   1382   3761
   35   472   35
   35   471   35
   49   485   240
   78   511   542
   127   549   904
   196   599   1312
   275   661   1754
   361   731   2151
   453   809   2476
   549   892   2747
   645   977   2986
   741   1064   3196
   837   1151   3366
   934   1240   3488
   1030   1331   3591
   1128   1421   3679
   1226   1515   3758
   61   722   61
   61   722   61
   76   733   269
   107   755   563
   159   788   921
   225   832   1326
   301   886   1764
   385   949   2159
   475   1020   2479
   568   1096   2749
   664   1175   2987
   760   1256   3197
   855   1339   3366
   950   1423   3487
   1045   1509   3590
   1142   1595   3678
   1238   1682   3757
   98   1003   98
   98   1002   98
   116   1012   309
   150   1031   597
   200   1060   951
   263   1098   1351
   336   1147   1786
   417   1204   2172
   505   1268   2490
   597   1338   2758
   691   1412   2992
   785   1487   3202
   878   1564   3368
   972   1644   3488
   1067   1723   3592
   1162   1798   3680
   1257   1872   3757
   151   1309   151
   151   1309   151
   170   1318   361
   203   1334   643
   250   1362   993
   309   1396   1390
   379   1440   1820
   457   1491   2196
   543   1550   2507
   633   1615   2770
   725   1683   3005
   816   1751   3211
   909   1818   3374
   1002   1884   3493
   1094   1948   3594
   1189   2011   3681
   1283   2071   3759
   213   1644   213
   213   1641   216
   231   1650   423
   262   1665   701
   306   1689   1047
   363   1720   1442
   430   1759   1863
   506   1804   2228
   589   1855   2531
   677   1908   2791
   766   1961   3021
   856   2015   3225
   947   2067   3382
   1037   2120   3500
   1130   2172   3599
   1222   2222   3685
   1315   2273   3762
   279   1979   279
   280   1978   296
   297   1984   495
   327   1996   771
   369   2013   1113
   423   2038   1507
   488   2068   1917
   562   2103   2270
   643   2140   2562
   729   2181   2818
   816   2222   3043
   903   2264   3244
   992   2306   3394
   1081   2347   3508
   1171   2389   3606
   1262   2429   3693
   1354   2468   3766
   349   2274   349
   351   2273   382
   368   2278   576
   396   2285   851
   437   2301   1192
   490   2319   1585
   553   2341   1981
   625   2367   2318
   704   2395   2600
   786   2427   2850
   872   2460   3072
   956   2492   3266
   1043   2523   3407
   1131   2555   3520
   1219   2587   3615
   1308   2619   3700
   1399   2652   3772
   422   2528   422
   425   2528   471
   441   2531   667
   469   2537   943
   510   2548   1284
   561   2561   1675
   623   2578   2053
   693   2598   2374
   769   2620   2645
   850   2644   2889
   932   2669   3103
   1016   2695   3295
   1100   2721   3425
   1187   2748   3533
   1275   2775   3626
   1366   2802   3709
   1459   2830   3779
   497   2748   497
   502   2747   568
   518   2750   767
   547   2754   1046
   587   2763   1389
   637   2773   1775
   697   2788   2132
   765   2805   2438
   840   2824   2698
   919   2844   2934
   1001   2865   3141
   1086   2886   3323
   1172   2909   3445
   1258   2932   3551
   1346   2955   3640
   1435   2977   3720
   1523   3001   3788
   576   2957   576
   582   2955   672
   599   2958   878
   629   2961   1162
   668   2968   1509
   719   2977   1885
   779   2989   2219
   848   3001   2506
   924   3017   2758
   1002   3035   2985
   1083   3052   3186
   1167   3069   3350
   1250   3087   3469
   1334   3106   3569
   1421   3125   3656
   1508   3145   3734
   1592   3164   3800
   661   3157   661
   671   3157   787
   692   3157   1005
   724   3160   1295
   766   3165   1647
   817   3173   2000
   877   3182   2313
   945   3192   2584
   1018   3206   2826
   1096   3218   3042
   1176   3232   3238
   1255   3249   3383
   1337   3262   3495
   1421   3277   3591
   1506   3294   3675
   1587   3310   3748
   1666   3327   3812
   762   3350   752
   775   3349   916
   796   3349   1147
   829   3350   1448
   871   3355   1795
   923   3360   2125
   982   3367   2415
   1048   3377   2668
   1121   3387   2901
   1196   3398   3108
   1273   3410   3293
   1352   3419   3418
   1433   3428   3524
   1515   3437   3615
   1594   3444   3697
   1670   3453   3766
   1745   3462   3827
   868   3510   889
   882   3509   1060
   906   3508   1306
   939   3509   1619
   983   3510   1950
   1034   3514   2254
   1094   3517   2520
   1159   3521   2761
   1230   3526   2982
   1304   3531   3179
   1380   3538   3342
   1457   3542   3457
   1536   3549   3556
   1612   3555   3643
   1685   3561   3719
   1757   3566   3785
   1828   3573   3844
   978   3633   1031
   994   3632   1221
   1020   3631   1486
   1055   3630   1799
   1100   3631   2107
   1152   3633   2385
   1212   3635   2634
   1278   3638   2863
   1346   3641   3070
   1419   3644   3258
   1494   3648   3391
   1569   3652   3498
   1640   3655   3592
   1711   3659   3672
   1779   3663   3744
   1848   3667   3807
   1913   3670   3862
   3   0   0
   4   0   0
   20   15   218
   49   43   536
   95   89   909
   167   160   1326
   251   244   1773
   341   335   2171
   436   430   2493
   535   528   2765
   634   627   3003
   733   725   3213
   832   824   3378
   930   922   3499
   1028   1019   3601
   1127   1119   3689
   1227   1218   3767
   12   96   6
   12   96   6
   28   112   214
   56   144   527
   102   197   897
   173   264   1310
   256   340   1755
   346   425   2154
   440   516   2481
   538   610   2752
   637   707   2992
   736   802   3203
   834   898   3372
   931   994   3492
   1029   1090   3596
   1128   1186   3684
   1227   1285   3763
   25   257   17
   26   257   17
   41   274   221
   69   305   528
   117   350   893
   188   408   1304
   269   477   1749
   357   554   2149
   450   639   2473
   547   728   2745
   645   820   2985
   743   911   3196
   841   1003   3366
   938   1097   3488
   1035   1191   3591
   1133   1284   3680
   1233   1381   3759
   46   472   35
   46   472   35
   62   486   240
   91   511   540
   142   549   902
   211   599   1310
   290   660   1750
   376   731   2148
   468   809   2472
   564   891   2744
   661   977   2984
   758   1063   3194
   854   1150   3364
   951   1240   3487
   1048   1330   3589
   1147   1420   3678
   1244   1513   3758
   75   722   61
   76   721   61
   93   733   270
   125   755   564
   178   789   922
   244   832   1326
   320   887   1764
   404   949   2155
   494   1020   2478
   589   1096   2748
   684   1175   2985
   780   1256   3195
   875   1339   3364
   972   1422   3486
   1067   1508   3588
   1165   1595   3676
   1262   1681   3757
   117   1002   99
   118   1001   99
   137   1013   312
   173   1031   600
   223   1061   953
   286   1099   1354
   359   1147   1789
   441   1205   2173
   529   1269   2491
   621   1338   2757
   716   1412   2993
   810   1487   3201
   904   1564   3367
   999   1644   3488
   1094   1722   3590
   1190   1797   3678
   1286   1871   3757
   175   1309   153
   176   1309   153
   196   1318   365
   229   1335   648
   277   1361   997
   336   1396   1395
   407   1440   1824
   486   1492   2199
   572   1551   2509
   663   1615   2773
   755   1683   3005
   847   1751   3211
   941   1818   3374
   1033   1884   3492
   1128   1948   3594
   1222   2010   3680
   1318   2071   3758
   240   1642   215
   242   1641   222
   261   1650   429
   292   1665   708
   338   1688   1054
   395   1720   1450
   463   1760   1870
   540   1805   2233
   624   1856   2535
   713   1908   2794
   802   1962   3023
   893   2016   3227
   984   2068   3383
   1076   2121   3500
   1169   2172   3599
   1263   2222   3685
   1358   2273   3762
   310   1978   281
   313   1978   303
   331   1983   502
   362   1995   780
   405   2013   1123
   461   2039   1517
   527   2067   1926
   602   2103   2276
   684   2142   2568
   770   2182   2823
   858   2222   3047
   947   2263   3246
   1036   2305   3394
   1127   2346   3509
   1218   2388   3607
   1310   2429   3693
   1403   2467   3766
   384   2273   351
   388   2271   389
   407   2277   586
   437   2286   863
   479   2298   1205
   533   2318   1598
   598   2340   1992
   671   2367   2328
   750   2395   2607
   835   2427   2856
   920   2460   3076
   1007   2492   3272
   1095   2522   3410
   1184   2554   3521
   1274   2587   3617
   1364   2618   3701
   1457   2651   3772
   462   2528   423
   467   2527   480
   485   2530   679
   515   2537   957
   558   2547   1301
   611   2561   1692
   675   2578   2067
   746   2598   2387
   824   2620   2655
   906   2643   2897
   989   2669   3109
   1074   2694   3300
   1161   2720   3427
   1248   2747   3535
   1336   2775   3628
   1426   2801   3710
   1516   2829   3779
   542   2747   499
   550   2746   578
   568   2747   781
   600   2754   1064
   642   2762   1409
   694   2773   1796
   756   2787   2148
   827   2804   2451
   903   2823   2709
   983   2843   2942
   1064   2864   3149
   1148   2885   3327
   1233   2908   3449
   1319   2931   3552
   1406   2954   3642
   1494   2976   3721
   1582   3001   3790
   627   2954   577
   637   2954   684
   656   2954   895
   689   2959   1184
   731   2966   1533
   783   2975   1906
   844   2987   2237
   913   3000   2521
   989   3016   2772
   1067   3034   2996
   1148   3052   3197
   1229   3067   3357
   1313   3086   3472
   1396   3105   3572
   1482   3124   3658
   1568   3143   3736
   1651   3162   3802
   719   3155   663
   731   3154   802
   753   3155   1025
   786   3158   1322
   828   3164   1674
   881   3171   2026
   942   3181   2334
   1010   3191   2601
   1083   3204   2841
   1160   3216   3055
   1240   3231   3249
   1319   3244   3390
   1400   3260   3500
   1484   3276   3596
   1568   3291   3678
   1648   3307   3750
   1727   3326   3814
   817   3348   767
   831   3345   934
   855   3346   1171
   889   3349   1478
   933   3353   1826
   986   3358   2151
   1047   3365   2437
   1114   3375   2688
   1187   3385   2917
   1263   3396   3123
   1340   3408   3303
   1419   3417   3425
   1499   3425   3531
   1579   3433   3620
   1657   3443   3701
   1732   3451   3769
   1805   3460   3829
   922   3507   905
   937   3506   1081
   963   3505   1336
   998   3506   1653
   1044   3507   1981
   1097   3511   2283
   1159   3514   2545
   1227   3519   2785
   1298   3524   3001
   1372   3529   3196
   1448   3534   3351
   1526   3540   3465
   1603   3545   3563
   1677   3552   3648
   1750   3558   3724
   1822   3563   3788
   1889   3570   3846
   1029   3630   1047
   1049   3627   1248
   1077   3628   1521
   1115   3627   1836
   1162   3628   2141
   1217   3630   2415
   1278   3632   2660
   1346   3636   2886
   1417   3638   3090
   1490   3642   3274
   1565   3645   3402
   1638   3648   3508
   1709   3653   3599
   1779   3656   3680
   1846   3660   3749
   1912   3664   3810
   1976   3667   3865
   71   3   3
   71   4   4
   88   19   217
   117   47   531
   167   92   903
   239   163   1317
   319   247   1764
   406   336   2162
   499   431   2487
   597   529   2758
   694   627   2996
   792   726   3207
   889   824   3374
   985   921   3494
   1083   1019   3597
   1182   1118   3686
   1281   1216   3764
   80   100   10
   80   100   10
   96   117   215
   125   148   525
   176   201   894
   246   267   1304
   325   343   1749
   412   427   2151
   504   517   2476
   600   612   2747
   697   708   2987
   794   803   3197
   891   898   3368
   989   995   3490
   1085   1089   3592
   1183   1187   3682
   1282   1285   3761
   93   262   21
   94   262   21
   109   279   223
   140   309   528
   192   354   893
   260   411   1301
   338   480   1745
   423   557   2144
   514   641   2471
   609   731   2742
   706   822   2981
   803   913   3192
   899   1006   3365
   996   1098   3487
   1091   1191   3589
   1189   1285   3677
   1288   1380   3756
   115   476   40
   116   476   40
   132   490   243
   165   515   542
   218   553   904
   283   603   1309
   359   664   1750
   443   734   2146
   532   811   2470
   627   894   2741
   723   979   2981
   818   1065   3190
   913   1153   3362
   1009   1241   3483
   1105   1330   3587
   1203   1421   3676
   1300   1514   3755
   147   725   66
   148   725   66
   167   737   275
   202   759   569
   253   792   925
   316   835   1329
   389   889   1765
   471   952   2156
   559   1023   2478
   652   1098   2747
   747   1177   2985
   841   1258   3194
   935   1340   3363
   1030   1424   3485
   1126   1509   3587
   1222   1596   3676
   1318   1682   3755
   194   1005   105
   195   1005   105
   215   1015   319
   249   1034   606
   297   1063   959
   357   1101   1359
   428   1151   1792
   508   1207   2177
   594   1271   2492
   686   1341   2758
   779   1414   2993
   872   1489   3201
   965   1566   3367
   1059   1645   3487
   1153   1723   3589
   1248   1798   3676
   1344   1872   3756
   250   1311   158
   251   1311   158
   271   1320   373
   303   1338   657
   349   1364   1006
   407   1399   1404
   476   1444   1830
   554   1495   2205
   638   1553   2513
   728   1618   2775
   819   1686   3007
   910   1753   3213
   1002   1820   3374
   1095   1885   3492
   1188   1949   3593
   1283   2011   3680
   1377   2072   3758
   313   1644   220
   315   1643   232
   334   1651   438
   365   1667   719
   409   1691   1065
   465   1723   1460
   532   1762   1879
   608   1807   2240
   691   1857   2540
   778   1911   2797
   867   1963   3026
   957   2017   3229
   1047   2071   3384
   1138   2121   3500
   1230   2172   3599
   1323   2223   3685
   1418   2273   3761
   381   1979   286
   385   1979   313
   403   1984   513
   433   1997   793
   476   2014   1136
   531   2040   1532
   597   2070   1938
   671   2105   2285
   752   2142   2574
   836   2183   2828
   924   2223   3049
   1012   2265   3251
   1100   2306   3396
   1190   2348   3510
   1281   2389   3607
   1373   2429   3692
   1466   2469   3766
   455   2274   356
   460   2273   400
   478   2277   599
   508   2285   878
   550   2301   1221
   604   2319   1615
   668   2341   2006
   741   2368   2339
   820   2396   2617
   902   2429   2863
   988   2461   3080
   1074   2492   3275
   1161   2524   3412
   1250   2556   3523
   1339   2587   3617
   1429   2619   3701
   1521   2651   3772
   531   2528   428
   538   2527   493
   556   2530   693
   587   2537   974
   629   2547   1320
   683   2561   1711
   746   2578   2082
   816   2598   2399
   894   2620   2666
   975   2644   2905
   1059   2669   3116
   1143   2695   3305
   1229   2721   3431
   1315   2747   3538
   1403   2774   3629
   1493   2802   3712
   1583   2831   3781
   612   2745   503
   620   2746   591
   640   2748   799
   671   2753   1084
   714   2762   1432
   767   2773   1816
   829   2787   2167
   898   2804   2465
   974   2823   2722
   1054   2843   2952
   1135   2864   3157
   1219   2886   3332
   1303   2908   3453
   1388   2930   3555
   1475   2953   3644
   1562   2976   3723
   1648   2998   3791
   697   2953   582
   708   2954   699
   729   2954   915
   761   2959   1208
   804   2965   1561
   857   2975   1930
   918   2988   2258
   987   3000   2538
   1062   3016   2787
   1139   3033   3008
   1220   3050   3205
   1302   3067   3363
   1384   3085   3477
   1468   3104   3575
   1554   3122   3662
   1638   3142   3738
   1718   3162   3802
   789   3154   667
   802   3153   820
   825   3154   1049
   859   3157   1349
   902   3162   1705
   955   3170   2051
   1017   3179   2357
   1084   3190   2618
   1158   3203   2856
   1235   3215   3070
   1314   3229   3260
   1394   3244   3395
   1476   3259   3506
   1557   3275   3598
   1639   3291   3682
   1718   3306   3754
   1794   3323   3816
   889   3345   785
   903   3343   955
   928   3344   1199
   964   3347   1512
   1008   3350   1858
   1061   3356   2180
   1123   3364   2460
   1192   3374   2709
   1264   3384   2935
   1339   3394   3137
   1417   3406   3313
   1495   3416   3433
   1576   3424   3537
   1654   3432   3624
   1730   3441   3704
   1804   3450   3771
   1874   3459   3832
   993   3505   923
   1010   3504   1108
   1038   3504   1370
   1075   3504   1691
   1121   3506   2018
   1176   3509   2313
   1238   3513   2570
   1306   3517   2807
   1378   3522   3020
   1452   3527   3213
   1528   3533   3362
   1605   3538   3474
   1681   3544   3570
   1753   3550   3653
   1825   3555   3727
   1894   3561   3792
   1959   3567   3849
   1103   3627   1072
   1122   3626   1281
   1153   3625   1562
   1192   3625   1876
   1241   3627   2177
   1297   3627   2446
   1359   3631   2687
   1428   3633   2912
   1500   3636   3113
   1573   3639   3292
   1646   3642   3414
   1717   3646   3517
   1787   3650   3606
   1855   3653   3685
   1920   3657   3754
   1984   3660   3814
   2046   3664   3868
   154   10   10
   155   10   10
   172   25   219
   207   53   530
   260   99   900
   325   170   1311
   401   253   1757
   484   341   2155
   574   435   2481
   669   532   2753
   764   631   2991
   860   729   3202
   955   826   3370
   1051   924   3492
   1147   1021   3594
   1245   1120   3684
   1342   1218   3763
   164   108   17
   164   108   17
   182   124   219
   217   156   527
   269   209   892
   333   274   1301
   407   349   1745
   490   433   2145
   579   522   2471
   673   616   2745
   768   711   2983
   863   807   3194
   959   902   3365
   1054   997   3487
   1150   1092   3590
   1247   1189   3679
