Resources/LUT/Cold Day.3dl
# 17x17x17 .3dl lookup table from LUT Buddy
0 128 256 384 512 640 768 896 1023
   0   0   0
   16   16   227
   90   90   921
   247   247   1787
   432   432   2503
   630   630   3011
   826   826   3382
   1022   1022   3603
   1222   1222   3771
   16   257   16
   31   274   224
   106   350   899
   258   477   1755
   439   640   2479
   634   821   2988
   828   1006   3369
   1022   1192   3594
   1218   1382   3761
   61   722   61
   76   733   269
   159   788   921
   301   886   1764
   475   1020   2479
   664   1175   2987
   855   1339   3366
   1045   1509   3590
   1238   1682   3757
   151   1309   151
   170   1318   361
   250   1362   993
   379   1440   1820
   543   1550   2507
   725   1683   3005
   909   1818   3374
   1094   1948   3594
   1283   2071   3759
   279   1979   279
   297   1984   495
   369   2013   1113
   488   2068   1917
   643   2140   2562
   816   2222   3043
   992   2306   3394
   1171   2389   3606
   1354   2468   3766
   422   2528   422
   441   2531   667
   510   2548   1284
   623   2578   2053
   769   2620   2645
   932   2669   3103
   1100   2721   3425
   1275   2775   3626
   1459   2830   3779
   576   2957   576
   599   2958   878
   668   2968   1509
   779   2989   2219
   924   3017   2758
   1083   3052   3186
   1250   3087   3469
   1421   3125   3656
   1592   3164   3800
   762   3350   752
   796   3349   1147
   871   3355   1795
   982   3367   2415
   1121   3387   2901
   1273   3410   3293
   1433   3428   3524
   1594   3444   3697
   1745   3462   3827
   978   3633   1031
   1020   3631   1486
   1100   3631   2107
   1212   3635   2634
   1346   3641   3070
   1494   3648   3391
   1640   3655   3592
   1779   3663   3744
   1913   3670   3862
   71   3   3
   88   19   217
   167   92   903
   319   247   1764
   499   431   2487
   694   627   2996
   889   824   3374
   1083   1019   3597
   1281   1216   3764
   93   262   21
   109   279   223
   192   354   893
   338   480   1745
   514   641   2471
   706   822   2981
   899   1006   3365
   1091   1191   3589
   1288   1380   3756
   147   725   66
   167   737   275
   253   792   925
   389   889   1765
   559   1023   2478
   747   1177   2985
   935   1340   3363
   1126   1509   3587
   1318   1682   3755
   250   1311   158
   271   1320   373
   349   1364   1006
   476   1444   1830
   638   1553   2513
   819   1686   3007
   1002   1820   3374
   1188   1949   3593
   1377   2072   3758
   381   1979   286
   403   1984   513
   476   2014   1136
   597   2070   1938
   752   2142   2574
   924   2223   3049
   1100   2306   3396
   1281   2389   3607
   1466   2469   3766
   531   2528   428
   556   2530   693
   629   2547   1320
   746   2578   2082
   894   2620   2666
   1059   2669   3116
   1229   2721   3431
   1403   2774   3629
   1583   2831   3781
   697   2953   582
   729   2954   915
   804   2965   1561
   918   2988   2258
   1062   3016   2787
   1220   3050   3205
   1384   3085   3477
   1554   3122   3662
   1718   3162   3802
   889   3345   785
   928   3344   1199
   1008   3350   1858
   1123   3364   2460
   1264   3384   2935
   1417   3406   3313
   1576   3424   3537
   1730   3441   3704
   1874   3459   3832
   1103   3627   1072
   1153   3625   1562
   1241   3627   2177
   1359   3631   2687
   1500   3636   3113
   1646   3642   3414
   1787   3650   3606
   1920   3657   3754
   2046   3664   3868
   271   20   20
   290   35   227
   370   110   899
   500   262   1753
   665   443   2477
   849   637   2987
   1036   831   3367
   1225   1026   3593
   1417   1222   3760
   299   282   38
   318   299   240
   395   372   899
   521   495   1746
   684   655   2467
   865   833   2977
   1050   1014   3360
   1237   1199   3585
   1428   1387   3754
   359   740   85
   378   752   298
   451   807   941
   574   903   1776
   732   1036   2481
   909   1189   2985
   1091   1351   3362
   1275   1519   3585
   1464   1690   3752
   451   1323   181
   471   1332   399
   542   1376   1031
   660   1455   1850
   814   1567   2523
   986   1698   3012
   1162   1829   3375
   1343   1957   3593
   1528   2079   3756
   572   1986   305
   595   1993   545
   666   2023   1170
   781   2078   1966
   929   2149   2590
   1095   2231   3060
   1267   2313   3401
   1442   2394   3608
   1623   2472   3766
   717   2530   446
   744   2534   733
   817   2551   1366
   930   2583   2119
   1074   2625   2688
   1233   2673   3131
   1400   2725   3438
   1572   2777   3633
   1742   2831   3782
   879   2954   598
   915   2956   965
   991   2968   1623
   1105   2989   2301
   1247   3019   2817
   1401   3051   3228
   1564   3087   3487
   1725   3124   3666
   1878   3161   3805
   1070   3344   830
   1115   3343   1267
   1198   3349   1929
   1315   3365   2511
   1455   3384   2973
   1607   3405   3333
   1758   3423   3548
   1901   3439   3711
   2034   3455   3836
   1287   3626   1132
   1344   3622   1655
   1437   3623   2257
   1560   3628   2749
   1699   3633   3159
   1836   3639   3438
   1965   3646   3622
   2088   3652   3764
   2206   3659   3875
   554   51   50
   569   66   255
   633   147   910
   744   292   1754
   892   467   2473
   1061   658   2982
   1236   849   3363
   1417   1040   3588
   1602   1236   3756
   578   318   69
   593   334   274
   657   404   919
   767   523   1755
   914   680   2469
   1081   855   2976
   1254   1034   3358
   1433   1217   3582
   1617   1403   3752
   629   766   122
   647   779   334
   710   833   969
   819   930   1795
   964   1060   2490
   1128   1212   2987
   1300   1372   3363
   1476   1537   3583
   1658   1705   3751
   712   1345   217
   731   1354   439
   796   1399   1066
   903   1479   1876
   1045   1588   2535
   1207   1718   3019
   1375   1848   3377
   1548   1972   3593
   1725   2091   3755
   823   2003   338
   847   2009   589
   914   2041   1216
   1020   2094   2000
   1159   2166   2610
   1317   2245   3073
   1482   2325   3405
   1651   2404   3610
   1818   2481   3765
   959   2539   476
   989   2544   784
   1059   2562   1423
   1167   2593   2160
   1305   2635   2715
   1459   2682   3149
   1620   2733   3445
   1782   2785   3637
   1932   2838   3783
   1114   2959   627
   1153   2961   1028
   1231   2974   1693
   1342   2995   2350
   1480   3025   2850
   1631   3057   3250
   1784   3092   3498
   1929   3128   3673
   2065   3165   3808
   1302   3345   885
   1352   3345   1349
   1437   3353   2008
   1555   3368   2565
   1693   3386   3013
   1834   3407   3355
   1969   3423   3563
   2096   3439   3720
   2216   3455   3840
   1519   3623   1211
   1583   3622   1761
   1681   3622   2341
   1801   3626   2814
   1926   3631   3209
   2049   3636   3464
   2164   3643   3639
   2275   3648   3775
   2381   3655   3880
   876   99   98
   889   117   299
   943   201   934
   1040   336   1765
   1172   504   2474
   1325   689   2980
   1488   878   3360
   1659   1067   3585
   1828   1258   3752
   897   367   120
   911   382   322
   967   449   950
   1063   564   1775
   1194   717   2476
   1348   888   2979
   1510   1064   3358
   1678   1243   3581
   1846   1427   3749
   944   805   178
   959   818   384
   1017   872   1007
   1114   966   1822
   1244   1095   2501
   1396   1244   2994
   1557   1402   3363
   1724   1566   3583
   1886   1729   3748
   1018   1377   267
   1036   1388   491
   1096   1433   1111
   1194   1512   1910
   1324   1621   2553
   1475   1747   3029
   1633   1874   3380
   1796   1995   3593
   1949   2109   3754
   1119   2025   383
   1143   2034   645
   1207   2065   1270
   1307   2119   2040
   1437   2189   2632
   1585   2265   3086
   1742   2344   3411
   1893   2421   3613
   2035   2494   3765
   1245   2553   517
   1277   2557   847
   1346   2576   1490
   1450   2608   2205
   1582   2649   2744
   1728   2696   3167
   1875   2746   3454
   2013   2796   3640
   2144   2849   3785
   1394   2969   686
   1436   2972   1103
   1513   2985   1771
   1623   3006   2401
   1756   3035   2884
   1893   3067   3274
   2025   3102   3509
   2148   3136   3678
   2266   3171   3810
   1577   3351   955
   1631   3351   1445
   1719   3359   2091
   1832   3374   2624
   1955   3392   3057
   2076   3412   3378
   2192   3427   3577
   2302   3441   3728
   2408   3457   3844
   1790   3624   1310
   1857   3621   1878
   1948   3623   2430
   2055   3626   2886
   2164   3631   3260
   2270   3636   3490
   2371   3641   3656
   2470   3646   3785
   2562   3651   3886
   1230   174   170
   1241   191   357
   1289   267   970
   1374   392   1786
   1493   553   2482
   1634   733   2981
   1785   916   3359
   1933   1100   3582
   2074   1289   3750
   1248   428   193
   1262   443   382
   1311   507   992
   1397   618   1802
   1516   765   2487
   1657   931   2983
   1807   1103   3357
   1953   1280   3579
   2090   1460   3746
   1290   856   246
   1305   869   446
   1357   921   1055
   1445   1014   1855
   1565   1140   2516
   1706   1286   3002
   1853   1441   3365
   1995   1602   3582
   2128   1759   3747
   1356   1420   329
   1376   1432   555
   1431   1477   1166
   1521   1556   1949
   1643   1664   2572
   1783   1786   3040
   1924   1908   3385
   2058   2023   3594
   2186   2133   3753
   1450   2057   439
   1474   2065   712
   1536   2097   1334
   1629   2149   2084
   1753   2217   2656
   1888   2292   3101
   2019   2367   3417
   2145   2442   3614
   2263   2513   3765
   1567   2572   569
   1600   2577   920
   1668   2596   1565
   1768   2628   2254
   1889   2669   2774
   2014   2715   3187
   2136   2763   3461
   2249   2812   3644
   2359   2862   3785
   1709   2984   760
   1753   2986   1190
   1829   2999   1856
   1930   3021   2455
   2043   3050   2921
   2157   3082   3298
   2266   3115   3519
   2371   3149   3686
   2471   3182   3812
   1880   3360   1038
   1934   3362   1556
   2013   3370   2180
   2110   3385   2687
   2214   3403   3102
   2315   3418   3401
   2414   3433   3590
   2509   3446   3736
   2597   3459   3848
   2066   3627   1430
   2130   3625   2004
   2212   3626   2524
   2302   3629   2959
   2396   3633   3309
   2488   3638   3518
   2575   3642   3676
   2658   3646   3797
   2743   3650   3893
   1612   259   253
   1621   274   426
   1664   343   1017
   1741   459   1815
   1849   614   2491
   1971   787   2986
   2092   965   3358
   2209   1146   3581
   2321   1330   3747
   1627   500   274
   1640   515   454
   1684   576   1043
   1763   682   1836
   1871   824   2500
   1991   985   2989
   2112   1153   3359
   2227   1325   3578
   2338   1502   3743
   1663   917   322
   1679   930   518
   1727   982   1111
   1809   1073   1894
   1915   1195   2533
   2033   1338   3010
   2150   1490   3368
   2262   1646   3582
   2370   1798   3744
   1724   1474   400
   1743   1487   628
   1796   1532   1229
   1879   1610   1993
   1984   1715   2593
   2097   1832   3052
   2208   1947   3389
   2316   2060   3595
   2420   2164   3751
   1809   2096   505
   1834   2106   788
   1891   2136   1405
   1975   2187   2131
   2076   2253   2683
   2184   2324   3118
   2288   2397   3422
   2390   2467   3616
   2489   2535   3764
   1914   2597   633
   1947   2603   1003
   2007   2622   1649
   2090   2653   2307
   2187   2693   2807
   2287   2738   3209
   2386   2785   3470
   2482   2833   3647
   2570   2882   3785
   2036   3003   851
   2075   3005   1288
   2139   3020   1943
   2221   3042   2510
   2313   3069   2962
   2406   3099   3318
   2499   3132   3531
   2584   3165   3691
   2667   3196   3814
   2173   3375   1138
   2221   3378   1680
   2288   3385   2273
   2371   3399   2754
   2456   3415   3151
   2544   3428   3426
   2625   3441   3605
   2704   3453   3745
   2783   3466   3851
   2326   3631   1575
   2384   3630   2136
   2456   3631   2627
   2536   3633   3041
   2614   3636   3355
   2691   3640   3548
   2769   3643   3696
   2846   3645   3809
   2924   3647   3899
   2012   351   343
   2019   365   504
   2054   428   1072
   2115   537   1850
   2197   684   2505
   2288   850   2991
   2381   1021   3359
   2471   1197   3579
   2562   1378   3743
   2023   583   362
   2033   597   533
   2069   655   1103
   2131   756   1875
   2212   892   2517
   2304   1048   2997
   2395   1211   3360
   2487   1378   3577
   2576   1551   3740
   2050   989   406
   2062   1002   598
   2102   1053   1176
   2164   1141   1936
   2245   1260   2553
   2335   1400   3022
   2426   1548   3371
   2516   1700   3582
   2602   1841   3742
   2096   1538   479
   2113   1551   709
   2154   1596   1299
   2218   1674   2037
   2298   1775   2616
   2387   1886   3065
   2473   1995   3393
   2561   2100   3595
   2643   2200   3749
   2160   2143   579
   2181   2153   871
   2225   2183   1483
   2292   2231   2180
   2369   2295   2711
   2454   2363   3134
   2539   2431   3428
   2620   2498   3618
   2699   2563   3763
   2239   2628   740
   2265   2632   1093
   2314   2653   1735
   2379   2683   2359
   2458   2722   2840
   2539   2767   3231
   2618   2812   3479
   2694   2857   3650
   2770   2905   3784
   2330   3025   966
   2364   3031   1395
   2417   3043   2034
   2485   3065   2569
   2562   3093   3003
   2636   3123   3339
   2710   3153   3542
   2783   3184   3697
   2856   3215   3815
   2438   3393   1277
   2481   3394   1809
   2539   3403   2368
   2608   3417   2825
   2679   3428   3204
   2749   3441   3452
   2821   3451   3621
   2893   3463   3753
   2964   3475   3855
   2563   3638   1738
   2614   3637   2277
   2675   3638   2738
   2743   3639   3128
   2814   3642   3403
   2884   3644   3581
   2955   3644   3718
   3026   3644   3822
   3095   3644   3907
   2368   449   439
   2373   462   591
   2398   520   1136
   2444   624   1890
   2504   762   2520
   2574   922   2998
   2646   1088   3360
   2715   1259   3577
   2786   1433   3740
   2374   674   455
   2381   687   620
   2408   743   1170
   2455   839   1917
   2515   969   2536
   2584   1118   3006
   2656   1277   3361
   2725   1439   3575
   2796   1606   3738
   2391   1070   497
   2399   1082   686
   2430   1133   1246
   2478   1218   1981
   2539   1335   2573
   2609   1470   3031
   2677   1614   3372
   2747   1757   3580
   2817   1891   3738
   2420   1612   565
   2434   1625   796
   2467   1672   1373
   2515   1746   2085
   2577   1841   2640
   2646   1946   3077
   2714   2048   3396
   2782   2146   3595
   2852   2241   3746
   2466   2196   663
   2483   2205   961
   2518   2234   1566
   2570   2282   2230
   2633   2341   2739
   2697   2407   3150
   2764   2470   3433
   2832   2533   3618
   2900   2594   3761
   2523   2663   858
   2543   2668   1191
   2585   2687   1823
   2638   2719   2412
   2699   2757   2875
   2763   2799   3254
   2828   2842   3486
   2895   2886   3653
   2963   2932   3783
   2593   3056   1105
   2619   3058   1514
   2664   3073   2124
   2717   3094   2629
   2779   3122   3046
   2842   3149   3360
   2907   3178   3554
   2973   3208   3702
   3039   3236   3815
   2675   3417   1468
   2708   3418   1944
   2757   3424   2466
   2816   3433   2901
   2879   3444   3259
   2942   3455   3479
   3007   3465   3638
   3070   3474   3762
   3133   3482   3859
   2772   3648   1967
   2817   3646   2428
   2873   3646   2862
   2936   3647   3228
   3000   3647   3457
   3064   3647   3619
   3129   3645   3744
   3192   3640   3840
   3256   3633   3916
