Resources/LUT/Cold Beauty.3dl
# 17x17x17 .3dl lookup table from LUT Buddy
   0   64   128   192   256   320   384   448   512   576   640   704   768   832   896   960   1023
   0   0   0
   0   0   4
   3   6   310
   10   19   605
   22   62   888
   40   144   1171
   70   243   1462
   118   338   1739
   179   426   1986
   239   509   2214
   296   584   2427
   349   654   2617
   400   718   2790
   447   780   2946
   493   842   3095
   537   900   3240
   581   962   3379
   3   74   26
   3   73   26
   7   95   321
   14   137   612
   27   198   894
   45   269   1174
   76   344   1461
   124   421   1737
   184   496   1982
   243   568   2210
   299   636   2421
   352   700   2613
   402   761   2787
   449   820   2943
   494   878   3090
   538   936   3235
   582   996   3374
   13   304   98
   13   303   98
   17   319   367
   25   346   642
   38   384   915
   57   431   1191
   90   485   1473
   139   544   1746
   197   603   1988
   254   663   2215
   308   720   2425
   360   777   2616
   409   832   2789
   455   887   2945
   500   944   3094
   544   1000   3236
   587   1056   3375
   31   532   206
   31   532   206
   35   541   434
   43   558   688
   56   583   951
   78   615   1220
   115   654   1497
   164   696   1766
   218   743   2006
   273   792   2231
   325   842   2440
   375   892   2628
   423   943   2799
   468   995   2956
   511   1047   3103
   555   1099   3245
   597   1153   3383
   57   746   332
   57   745   331
   61   751   518
   70   763   749
   85   782   1000
   112   807   1261
   152   837   1534
   199   872   1798
   250   912   2033
   300   954   2254
   350   999   2463
   398   1045   2650
   444   1091   2819
   487   1138   2974
   529   1186   3120
   571   1234   3260
   612   1283   3396
   95   967   460
   95   966   460
   100   971   617
   112   982   826
   132   998   1064
   163   1019   1317
   200   1043   1583
   243   1075   1841
   290   1109   2071
   337   1148   2290
   383   1187   2494
   428   1227   2678
   471   1269   2847
   512   1311   2999
   553   1354   3144
   594   1398   3282
   634   1441   3419
   155   1206   592
   154   1206   592
   162   1210   729
   175   1219   918
   195   1232   1142
   223   1250   1387
   257   1274   1647
   296   1300   1895
   337   1330   2119
   381   1363   2335
   423   1397   2535
   465   1432   2715
   505   1468   2880
   544   1504   3031
   583   1541   3172
   622   1577   3312
   660   1615   3444
   226   1457   726
   226   1456   728
   233   1461   849
   245   1467   1021
   264   1479   1233
   289   1493   1469
   319   1513   1720
   354   1535   1957
   391   1560   2178
   430   1586   2388
   469   1615   2583
   507   1645   2761
   545   1675   2920
   582   1706   3068
   619   1738   3208
   655   1771   3345
   692   1803   3476
   300   1704   858
   300   1703   867
   306   1707   973
   318   1713   1132
   334   1721   1333
   357   1735   1560
   384   1751   1802
   415   1769   2030
   449   1790   2241
   484   1814   2448
   519   1839   2637
   554   1865   2809
   589   1892   2968
   624   1919   3111
   659   1947   3250
   694   1976   3384
   728   2007   3514
   374   1952   989
   375   1950   1003
   380   1952   1100
   391   1957   1250
   406   1965   1441
   426   1975   1662
   451   1990   1893
   479   2008   2108
   509   2025   2314
   541   2047   2515
   573   2069   2698
   606   2092   2866
   638   2114   3019
   672   2141   3160
   709   2168   3296
   750   2205   3426
   793   2241   3551
   447   2196   1117
   448   2197   1138
   453   2197   1230
   463   2202   1373
   477   2209   1558
   495   2218   1772
   518   2230   1989
   543   2243   2194
   571   2261   2395
   601   2280   2588
   634   2301   2766
   672   2331   2925
   711   2359   3071
   749   2387   3208
   789   2417   3341
   829   2447   3469
   870   2477   3590
   517   2427   1241
   518   2427   1268
   523   2428   1359
   532   2431   1497
   545   2437   1678
   564   2446   1884
   587   2459   2087
   618   2480   2281
   652   2501   2474
   687   2525   2660
   723   2549   2830
   760   2574   2985
   796   2599   3127
   833   2623   3259
   871   2648   3388
   909   2673   3513
   948   2699   3633
   595   2656   1359
   598   2655   1396
   605   2658   1485
   618   2665   1624
   636   2675   1800
   658   2689   1993
   685   2705   2183
   714   2720   2370
   747   2742   2559
   780   2761   2736
   814   2781   2898
   848   2801   3046
   882   2824   3183
   917   2841   3315
   952   2864   3440
   988   2885   3563
   1025   2908   3680
   696   2897   1475
   699   2899   1521
   708   2902   1615
   721   2907   1754
   739   2914   1925
   760   2926   2107
   785   2940   2286
   813   2954   2468
   843   2971   2650
   874   2988   2816
   906   3006   2973
   937   3022   3113
   970   3039   3247
   1003   3055   3373
   1036   3074   3496
   1072   3093   3614
   1106   3112   3731
   799   3133   1592
   803   3133   1650
   811   3134   1751
   824   3139   1891
   842   3148   2054
   862   3157   2224
   885   3170   2394
   912   3182   2573
   940   3195   2745
   969   3209   2905
   999   3223   3050
   1029   3239   3187
   1060   3253   3315
   1092   3269   3436
   1124   3283   3558
   1157   3298   3673
   1191   3313   3785
   900   3360   1723
   905   3359   1787
   913   3360   1892
   926   3365   2030
   943   3370   2183
   962   3378   2344
   985   3387   2511
   1009   3399   2682
   1036   3409   2845
   1064   3421   2996
   1093   3433   3134
   1122   3446   3264
   1152   3458   3387
   1182   3469   3506
   1214   3484   3622
   1246   3495   3734
   1279   3508   3845
   998   3570   1853
   1003   3568   1926
   1012   3572   2035
   1026   3577   2169
   1042   3582   2313
   1061   3587   2470
   1083   3593   2633
   1107   3604   2795
   1133   3613   2948
   1160   3624   3091
   1188   3633   3221
   1216   3643   3345
   1245   3653   3465
   1275   3663   3581
   1306   3672   3692
   1336   3683   3801
   1370   3694   3907
   0   0   0
   0   0   0
   4   6   302
   12   19   597
   24   61   880
   41   142   1164
   73   241   1454
   122   336   1732
   182   425   1977
   243   507   2207
   299   583   2420
   353   652   2612
   403   717   2784
   451   779   2942
   496   839   3091
   540   899   3235
   584   961   3374
   4   75   28
   4   75   28
   9   96   317
   16   138   607
   29   199   889
   48   269   1169
   81   344   1456
   131   421   1732
   190   496   1977
   249   568   2206
   305   636   2418
   357   698   2609
   407   759   2781
   454   818   2939
   499   878   3089
   543   936   3232
   587   995   3371
   15   304   101
   15   304   101
   19   319   366
   28   346   640
   40   384   913
   61   432   1188
   97   486   1470
   148   544   1743
   205   603   1984
   262   663   2213
   316   720   2423
   367   777   2613
   416   832   2786
   462   887   2944
   507   944   3091
   550   1000   3233
   593   1056   3373
   34   533   211
   34   533   211
   39   543   436
   47   559   688
   61   584   951
   86   616   1219
   125   655   1496
   176   697   1765
   229   743   2004
   283   793   2230
   335   843   2438
   384   893   2627
   432   944   2799
   476   995   2955
   520   1047   3099
   563   1100   3243
   605   1153   3381
   61   746   336
   61   746   336
   66   752   522
   76   764   752
   94   783   1002
   124   807   1262
   165   838   1535
   212   873   1798
   262   913   2033
   313   956   2255
   362   1000   2460
   409   1045   2649
   454   1092   2819
   497   1138   2972
   539   1186   3119
   581   1235   3259
   622   1283   3395
   102   967   464
   103   967   464
   110   972   622
   123   983   830
   146   998   1067
   177   1019   1320
   215   1045   1587
   259   1076   1844
   304   1111   2072
   351   1149   2291
   397   1188   2494
   441   1229   2679
   484   1269   2847
   524   1312   2999
   565   1355   3143
   606   1398   3282
   646   1442   3418
   167   1207   596
   167   1206   596
   175   1211   735
   190   1219   924
   211   1234   1148
   239   1251   1392
   274   1275   1651
   313   1301   1898
   354   1331   2122
   397   1364   2338
   439   1399   2537
   480   1434   2717
   520   1469   2883
   558   1505   3032
   597   1541   3172
   636   1578   3312
   674   1616   3443
   240   1457   731
   241   1457   734
   249   1461   856
   262   1468   1029
   281   1479   1240
   307   1495   1474
   337   1513   1726
   372   1535   1963
   409   1560   2181
   448   1587   2391
   486   1617   2585
   524   1646   2763
   561   1676   2923
   598   1708   3070
   635   1739   3209
   671   1772   3346
   708   1804   3476
   315   1705   863
   316   1703   874
   323   1707   980
   335   1713   1141
   353   1722   1341
   376   1735   1570
   403   1751   1810
   434   1769   2036
   468   1792   2248
   502   1814   2452
   538   1841   2642
   573   1866   2814
   608   1892   2970
   643   1920   3114
   677   1949   3252
   712   1977   3386
   747   2007   3514
   391   1952   993
   392   1950   1011
   398   1953   1109
   409   1957   1260
   425   1963   1451
   446   1975   1673
   471   1991   1902
   499   2009   2117
   529   2026   2323
   561   2048   2521
   593   2069   2705
   626   2092   2871
   659   2115   3024
   693   2142   3165
   731   2171   3298
   773   2207   3428
   816   2243   3553
   464   2197   1121
   466   2195   1145
   472   2197   1239
   482   2201   1384
   497   2207   1569
   516   2218   1783
   539   2230   2000
   564   2243   2204
   592   2261   2405
   623   2281   2596
   658   2303   2773
   697   2333   2932
   736   2361   3078
   774   2389   3213
   814   2419   3344
   853   2447   3471
   894   2479   3593
   535   2427   1245
   537   2426   1276
   543   2427   1368
   553   2430   1511
   567   2435   1692
   586   2447   1898
   612   2461   2100
   643   2482   2293
   678   2503   2487
   713   2527   2671
   749   2551   2839
   786   2576   2992
   822   2599   3131
   858   2625   3265
   896   2649   3392
   935   2674   3517
   973   2701   3637
   615   2656   1363
   620   2656   1404
   628   2660   1497
   642   2666   1638
   661   2677   1815
   685   2691   2009
   711   2706   2197
   741   2723   2384
   773   2743   2572
   806   2763   2746
   840   2783   2908
   873   2803   3054
   908   2822   3192
   943   2843   3319
   979   2865   3446
   1015   2887   3567
   1054   2910   3683
   717   2898   1478
   721   2896   1529
   730   2899   1627
   745   2906   1769
   763   2915   1942
   786   2927   2122
   811   2939   2301
   839   2955   2483
   869   2972   2662
   901   2989   2830
   932   3006   2984
   964   3022   3122
   998   3041   3255
   1032   3057   3381
   1066   3076   3503
   1101   3094   3621
   1137   3111   3735
   818   3131   1599
   823   3131   1661
   833   3134   1765
   848   3141   1908
   866   3149   2071
   887   3158   2240
   911   3169   2413
   938   3182   2589
   967   3196   2759
   997   3210   2918
   1027   3224   3063
   1059   3238   3197
   1091   3253   3324
   1123   3268   3445
   1157   3283   3565
   1191   3299   3680
   1226   3314   3792
   919   3358   1730
   925   3355   1798
   934   3356   1907
   949   3361   2047
   966   3366   2201
   988   3377   2361
   1012   3388   2531
   1038   3399   2700
   1066   3409   2861
   1095   3421   3011
   1125   3433   3148
   1155   3445   3275
   1186   3456   3398
   1218   3470   3517
   1251   3483   3631
   1284   3496   3744
   1318   3509   3851
   1017   3568   1861
   1024   3568   1939
   1035   3570   2052
   1050   3573   2187
   1068   3580   2334
   1089   3586   2490
   1114   3596   2655
   1139   3602   2816
   1166   3612   2966
   1195   3622   3106
   1223   3632   3235
   1253   3641   3359
   1283   3651   3475
   1314   3662   3593
   1346   3671   3702
   1380   3683   3811
   1415   3692   3912
   19   3   22
   20   3   22
   24   10   315
   33   27   603
   50   74   883
   80   157   1165
   123   253   1454
   177   345   1732
   233   432   1977
   288   514   2206
   340   588   2418
   390   657   2611
   437   721   2783
   481   783   2941
   525   843   3088
   568   903   3233
   610   963   3371
   24   90   57
   24   90   58
   29   112   334
   40   154   617
   59   213   895
   89   281   1173
   133   354   1458
   187   429   1734
   241   503   1979
   295   574   2207
   346   641   2418
   395   703   2608
   442   764   2782
   486   823   2939
   529   881   3086
   572   938   3230
   614   998   3369
   37   316   132
   37   316   132
   43   331   384
   55   357   650
   75   394   921
   107   441   1193
   152   494   1473
   203   551   1746
   256   610   1987
   308   668   2213
   358   725   2425
   405   782   2615
   451   837   2785
   494   892   2945
   537   948   3090
   579   1003   3232
   621   1059   3373
   60   540   241
   60   540   241
   67   550   454
   81   567   700
   104   591   960
   138   623   1227
   181   660   1503
   229   703   1770
   278   749   2008
   328   798   2232
   376   847   2440
   422   898   2629
   466   949   2798
   509   999   2956
   551   1052   3100
   593   1103   3242
   634   1156   3380
   96   751   360
   97   751   360
   105   757   539
   121   770   765
   146   788   1013
   180   813   1272
   220   843   1544
   264   878   1805
   310   918   2038
   357   960   2260
   403   1005   2466
   447   1049   2652
   489   1095   2820
   530   1143   2974
   571   1190   3121
   612   1237   3259
   652   1287   3398
   150   971   484
   151   971   485
   160   977   639
   176   987   844
   200   1003   1080
   231   1024   1331
   267   1050   1596
   307   1081   1850
   350   1116   2079
   393   1153   2297
   436   1193   2500
   478   1232   2683
   518   1273   2849
   558   1316   3001
   598   1359   3145
   637   1401   3284
   676   1445   3419
   216   1210   614
   217   1210   614
   226   1215   752
   240   1224   938
   261   1237   1160
   289   1255   1404
   322   1279   1662
   358   1305   1907
   397   1335   2130
   437   1369   2344
   477   1403   2542
   516   1438   2721
   555   1473   2886
   593   1509   3035
   631   1544   3177
   668   1581   3315
   705   1618   3445
   286   1461   745
   288   1460   752
   296   1465   872
   309   1471   1043
   328   1483   1254
   353   1497   1489
   382   1517   1739
   415   1539   1972
   450   1564   2189
   487   1591   2399
   523   1620   2593
   560   1649   2768
   596   1679   2928
   632   1710   3074
   668   1743   3212
   704   1775   3348
   740   1809   3479
   358   1707   875
   359   1707   889
   367   1709   996
   379   1715   1157
   396   1724   1355
   419   1737   1583
   445   1753   1823
   475   1774   2046
   507   1795   2257
   541   1818   2462
   575   1843   2649
   609   1870   2820
   643   1896   2977
   677   1922   3119
   712   1951   3255
   746   1978   3389
   781   2009   3517
   430   1953   1005
   432   1953   1025
   439   1954   1124
   450   1960   1277
   466   1968   1467
   487   1980   1689
   511   1994   1916
   538   2011   2130
   568   2030   2334
   598   2050   2533
   630   2072   2714
   663   2095   2880
   695   2118   3030
   729   2145   3170
   769   2176   3303
   812   2213   3432
   854   2246   3556
   501   2197   1132
   504   2197   1159
   510   2199   1255
   521   2202   1400
   536   2210   1587
   555   2221   1801
   577   2232   2015
   602   2246   2218
   630   2262   2417
   662   2283   2606
   698   2309   2781
   736   2337   2940
   774   2365   3084
   813   2393   3218
   853   2425   3350
   893   2453   3476
   935   2484   3597
   571   2428   1255
   573   2427   1290
   580   2428   1385
   591   2432   1529
   605   2438   1711
   625   2449   1915
   653   2466   2114
   684   2487   2307
   718   2509   2500
   754   2533   2682
   790   2555   2847
   826   2579   3000
   862   2605   3140
   900   2630   3271
   938   2655   3399
   977   2680   3523
   1016   2704   3642
   652   2658   1372
   657   2660   1416
   666   2663   1513
   681   2670   1656
   701   2680   1836
   725   2694   2026
   752   2710   2214
   782   2727   2401
   814   2747   2587
   847   2766   2760
   881   2786   2920
   916   2806   3065
   950   2826   3199
   987   2847   3327
   1023   2869   3451
   1061   2891   3572
   1099   2914   3688
   754   2902   1487
   759   2899   1544
   769   2902   1645
   784   2909   1790
   804   2919   1962
   826   2930   2141
   851   2942   2319
   880   2959   2500
   911   2975   2678
   943   2993   2844
   975   3009   2996
   1008   3026   3134
   1043   3044   3264
   1076   3060   3390
   1112   3080   3511
   1148   3097   3628
   1185   3114   3741
   855   3134   1613
   862   3134   1677
   872   3136   1784
   887   3144   1930
   906   3151   2092
   928   3161   2259
   954   3172   2432
   981   3184   2608
   1011   3198   2776
   1042   3213   2934
   1073   3227   3077
   1106   3240   3208
   1139   3258   3335
   1172   3270   3456
   1207   3285   3573
   1242   3301   3688
   1277   3316   3799
   956   3359   1745
   963   3356   1815
   974   3359   1929
   990   3364   2070
   1009   3370   2224
   1031   3379   2385
   1057   3391   2553
   1084   3402   2721
   1113   3412   2881
   1143   3422   3027
   1174   3435   3161
   1205   3446   3289
   1237   3460   3410
   1270   3472   3529
   1303   3483   3643
   1337   3497   3752
   1374   3508   3861
   1056   3571   1876
   1064   3570   1959
   1077   3572   2075
   1094   3575   2210
   1113   3580   2358
   1136   3588   2516
   1161   3598   2678
   1189   3606   2838
   1217   3615   2987
   1246   3622   3125
   1276   3632   3251
   1307   3643   3375
   1338   3652   3490
   1371   3663   3606
   1405   3673   3713
   1440   3683   3822
   1478   3694   3921
   81   10   69
   81   10   69
   90   19   343
   107   44   619
   135   98   896
   171   183   1176
   214   273   1463
   260   361   1737
   308   446   1981
   356   525   2210
   402   598   2423
   446   665   2612
   489   729   2785
   531   789   2943
   572   849   3090
   612   908   3233
   653   968   3372
   91   118   109
   92   118   110
   102   141   366
   119   181   637
   147   237   909
   183   301   1184
   224   371   1468
   270   443   1741
   316   515   1984
   363   585   2211
   409   650   2422
   452   711   2611
   495   771   2784
   536   830   2940
   577   887   3089
   617   945   3231
