Resources/LUT/Cold Beauty.3dl
# 17x17x17 .3dl lookup table from LUT Buddy
0 256 512 768 1023
   0   0   0
   22   62   888
   179   426   1986
   400   718   2790
   581   962   3379
   57   746   332
   85   782   1000
   250   912   2033
   444   1091   2819
   612   1283   3396
   300   1704   858
   334   1721   1333
   449   1790   2241
   589   1892   2968
   728   2007   3514
   595   2656   1359
   636   2675   1800
   747   2742   2559
   882   2824   3183
   1025   2908   3680
   998   3570   1853
   1042   3582   2313
   1133   3613   2948
   1245   3653   3465
   1370   3694   3907
   219   29   147
   265   139   919
   403   465   1990
   560   741   2789
   713   979   3375
   307   774   451
   349   811   1057
   469   939   2059
   615   1114   2832
   763   1303   3405
   507   1719   926
   544   1738   1402
   641   1809   2288
   765   1908   2994
   905   2026   3528
   778   2674   1406
   833   2698   1886
   949   2764   2625
   1088   2844   3223
   1240   2927   3704
   1183   3579   1922
   1252   3590   2418
   1368   3625   3034
   1505   3663   3525
   1665   3704   3935
   785   299   545
   808   380   1080
   883   601   2062
   992   831   2833
   1119   1053   3405
   833   869   729
   861   906   1215
   939   1027   2143
   1052   1194   2886
   1182   1374   3441
   962   1775   1106
   998   1796   1559
   1083   1867   2384
   1207   1972   3056
   1379   2119   3567
   1225   2743   1541
   1296   2771   2034
   1425   2837   2728
   1581   2916   3290
   1749   2999   3753
   1643   3627   2069
   1743   3641   2578
   1886   3678   3157
   2043   3713   3617
   2210   3747   3975
   1488   596   936
   1506   643   1326
   1570   792   2192
   1662   983   2918
   1768   1186   3471
   1525   1029   1062
   1552   1063   1454
   1622   1174   2281
   1721   1329   2978
   1830   1494   3508
   1630   1876   1366
   1671   1900   1786
   1780   2000   2519
   1919   2130   3137
   2069   2269   3625
   1915   2864   1757
   1992   2894   2223
   2114   2959   2863
   2255   3033   3383
   2405   3109   3818
   2281   3713   2274
   2394   3731   2784
   2532   3760   3307
   2680   3787   3728
   2832   3811   4011
   2270   869   1322
   2282   902   1627
   2325   1018   2364
   2390   1184   3032
   2487   1387   3547
   2284   1236   1416
   2304   1268   1746
   2356   1368   2452
   2456   1536   3084
   2569   1716   3578
   2396   2071   1655
   2444   2111   2030
   2535   2210   2673
   2642   2330   3236
   2756   2457   3693
   2627   3018   2029
   2690   3045   2435
   2789   3105   3016
   2895   3170   3486
   3004   3238   3886
   2896   3819   2533
   2989   3833   3022
   3096   3851   3481
   3208   3863   3862
   3323   3851   4037
