Resources/LUT/Connor.3dl
# 17x17x17 .3dl lookup table from LUT Buddy
0 128 256 384 512 640 768 896 1023
   6   6   38
   29   29   172
   86   94   392
   148   189   608
   219   300   829
   314   432   1071
   417   562   1298
   496   657   1457
   564   736   1587
   33   183   89
   54   202   214
   107   258   429
   163   333   639
   235   425   852
   328   538   1087
   432   657   1312
   511   745   1471
   579   819   1600
   178   816   364
   193   828   446
   232   857   617
   283   897   797
   349   949   986
   440   1031   1208
   541   1120   1424
   616   1185   1576
   682   1243   1701
   499   1720   768
   510   1727   821
   541   1744   946
   583   1767   1093
   639   1800   1258
   711   1845   1449
   790   1893   1638
   851   1933   1772
   905   1966   1883
   1060   2882   1321
   1069   2885   1361
   1092   2890   1449
   1124   2899   1563
   1168   2914   1699
   1228   2936   1865
   1292   2959   2033
   1342   2975   2149
   1385   2989   2247
   1539   3539   1751
   1547   3538   1788
   1568   3542   1863
   1596   3545   1960
   1637   3555   2076
   1690   3566   2215
   1748   3579   2352
   1793   3589   2451
   1831   3596   2535
   1874   3862   2023
   1881   3860   2060
   1903   3863   2128
   1930   3867   2212
   1970   3875   2317
   2019   3884   2443
   2067   3892   2561
   2104   3898   2650
   2135   3903   2724
   2029   3969   2144
   2042   3969   2191
   2062   3972   2257
   2090   3974   2338
   2125   3978   2442
   2170   3982   2562
   2212   3988   2667
   2243   3991   2747
   2273   3994   2816
   2099   4000   2207
   2111   4000   2257
   2132   4002   2326
   2161   4004   2411
   2199   4008   2518
   2245   4013   2640
   2278   4015   2726
   2307   4017   2802
   2332   4020   2865
   9   6   39
   30   28   167
   87   92   386
   147   186   602
   218   297   823
   312   428   1063
   416   559   1292
   495   654   1452
   563   733   1583
   36   183   90
   56   202   212
   108   258   427
   164   332   636
   235   424   848
   328   537   1083
   432   656   1310
   511   744   1468
   579   818   1597
   180   816   364
   195   826   446
   233   856   617
   285   896   796
   350   949   985
   441   1030   1206
   541   1118   1423
   617   1184   1573
   682   1242   1699
   499   1718   767
   511   1723   821
   542   1740   946
   584   1764   1094
   640   1799   1260
   712   1842   1449
   791   1892   1637
   850   1928   1770
   905   1962   1883
   1060   2880   1321
   1068   2879   1359
   1092   2886   1450
   1125   2897   1565
   1168   2910   1701
   1228   2931   1866
   1292   2954   2031
   1342   2970   2147
   1384   2984   2244
   1537   3535   1749
   1546   3534   1788
   1566   3537   1865
   1596   3543   1962
   1636   3550   2078
   1691   3563   2218
   1748   3576   2352
   1792   3584   2451
   1830   3591   2533
   1871   3858   2020
   1882   3859   2063
   1903   3860   2130
   1933   3866   2216
   1969   3871   2320
   2020   3880   2446
   2067   3889   2562
   2104   3895   2650
   2135   3899   2723
   2031   3968   2148
   2045   3970   2196
   2065   3971   2263
   2092   3973   2345
   2130   3978   2449
   2177   3983   2572
   2216   3987   2671
   2249   3990   2751
   2277   3993   2817
   2099   3999   2210
   2115   4000   2264
   2140   4002   2335
   2169   4005   2422
   2211   4009   2531
   2257   4013   2650
   2293   4016   2735
   2326   4018   2809
   2360   4020   2871
   38   10   44
   60   30   168
   111   95   387
   166   188   602
   234   298   821
   326   427   1060
   430   560   1290
   508   654   1449
   576   734   1580
   69   189   99
   89   209   221
   133   265   433
   186   338   640
   256   429   851
   348   541   1084
   451   661   1311
   530   747   1469
   597   822   1599
   207   822   372
   222   835   455
   261   864   625
   311   903   803
   376   956   991
   466   1037   1210
   566   1124   1426
   641   1190   1577
   708   1248   1702
   525   1723   772
   538   1729   829
   570   1747   955
   614   1772   1101
   670   1805   1266
   743   1848   1456
   822   1898   1643
   883   1935   1775
   940   1969   1888
   1084   2879   1323
   1096   2882   1367
   1121   2888   1457
   1156   2899   1573
   1203   2914   1710
   1263   2934   1875
   1331   2958   2039
   1383   2975   2155
   1428   2986   2250
   1563   3534   1753
   1579   3536   1797
   1603   3539   1874
   1638   3545   1972
   1681   3553   2090
   1740   3565   2228
   1802   3579   2362
   1850   3586   2459
   1896   3594   2542
   1906   3859   2024
   1926   3860   2074
   1953   3863   2144
   1987   3867   2229
   2030   3873   2336
   2087   3883   2463
   2141   3893   2577
   2184   3898   2664
   2224   3903   2737
   2082   3970   2160
   2104   3972   2211
   2134   3974   2281
   2171   3977   2366
   2217   3982   2472
   2274   3987   2597
   2322   3991   2693
   2369   3994   2772
   2412   3997   2839
   2176   4001   2229
   2208   4004   2289
   2244   4006   2363
   2288   4010   2454
   2345   4014   2566
   2404   4018   2682
   2459   4022   2768
   2514   4024   2843
   2569   4027   2907
   325   77   132
   335   100   247
   365   168   454
   409   254   655
   472   356   865
   555   479   1097
   648   607   1323
   721   699   1481
   785   777   1610
   363   262   200
   377   285   307
   406   337   507
   451   405   699
   514   492   904
   597   599   1129
   691   715   1352
   765   801   1508
   831   873   1637
   494   880   446
   514   896   527
   554   934   696
   604   980   873
   661   1028   1054
   744   1106   1268
   837   1192   1481
   910   1257   1630
   977   1313   1753
   795   1769   828
   816   1781   888
   857   1809   1016
   907   1842   1167
   962   1874   1328
   1030   1916   1513
   1108   1965   1699
   1169   2002   1830
   1229   2036   1941
   1326   2906   1367
   1348   2911   1415
   1386   2922   1511
   1438   2941   1633
   1489   2957   1770
   1555   2977   1933
   1625   3000   2094
   1685   3017   2208
   1741   3030   2303
   1807   3550   1793
   1835   3553   1842
   1877   3562   1927
   1929   3572   2030
   1985   3582   2147
   2048   3594   2284
   2115   3608   2414
   2170   3617   2510
   2223   3624   2592
   2148   3869   2062
   2180   3873   2118
   2223   3879   2193
   2272   3886   2285
   2330   3896   2397
   2393   3905   2522
   2453   3913   2633
   2510   3921   2721
   2564   3927   2795
   2335   3976   2202
   2373   3980   2260
   2420   3984   2335
   2477   3990   2428
   2545   3996   2542
   2613   4002   2665
   2675   4006   2758
   2738   4010   2840
   2803   4015   2909
   2466   4008   2280
   2516   4011   2346
   2575   4016   2429
   2644   4021   2527
   2724   4027   2648
   2806   4033   2766
   2884   4036   2853
   2962   4040   2930
   3046   4043   2997
   976   365   407
   976   360   453
   989   385   607
   1026   456   816
   1070   541   1006
   1131   644   1213
   1206   756   1423
   1274   842   1576
   1334   914   1702
   1021   488   449
   1044   531   531
   1056   536   647
   1089   588   843
   1133   665   1044
   1194   760   1249
   1268   862   1455
   1337   941   1604
   1402   1011   1730
   1183   1063   631
   1206   1085   700
   1239   1111   844
   1277   1121   1004
   1333   1211   1193
   1382   1255   1395
   1452   1333   1593
   1521   1395   1735
   1587   1449   1854
   1429   1903   970
   1454   1913   1026
   1491   1937   1144
   1540   1968   1287
   1602   2008   1449
   1679   2058   1639
   1767   2118   1828
   1835   2155   1959
   1898   2190   2070
   1920   2974   1485
   1950   2979   1535
   1997   2992   1629
   2052   3010   1747
   2119   3032   1888
   2200   3063   2054
   2283   3092   2213
   2354   3115   2329
   2418   3130   2422
   2357   3592   1900
   2392   3596   1952
   2437   3604   2033
   2493   3616   2133
   2555   3630   2249
   2629   3648   2389
   2706   3667   2521
   2774   3680   2621
   2839   3690   2705
   2651   3899   2164
   2691   3903   2220
   2743   3910   2294
   2799   3917   2384
   2866   3928   2497
   2944   3941   2629
   3018   3952   2741
   3090   3960   2830
   3161   3967   2908
   2835   3993   2301
   2886   3996   2360
   2946   4001   2438
   3014   4006   2531
   3092   4013   2646
   3176   4020   2773
   3256   4026   2869
   3336   4030   2953
   3417   4034   3025
   2997   4022   2390
   3063   4025   2459
   3138   4031   2545
   3223   4035   2648
   3316   4041   2770
   3412   4046   2884
   3506   4050   2975
   3602   4054   3056
   3685   4056   3125
   2113   855   817
   2115   853   846
   2113   835   917
   2121   827   1024
   2161   896   1218
   2215   985   1449
   2276   1082   1662
   2328   1155   1801
   2381   1221   1919
   2163   948   850
   2190   981   905
   2206   991   991
   2213   963   1075
   2245   1003   1241
   2305   1088   1472
   2372   1183   1695
   2430   1256   1836
   2485   1320   1954
   2304   1285   954
   2328   1302   1006
   2373   1359   1128
   2439   1472   1286
   2503   1581   1460
   2533   1555   1573
   2591   1613   1784
   2647   1674   1947
   2704   1730   2077
   2575   2169   1240
   2611   2197   1294
   2659   2240   1402
   2712   2273   1531
   2766   2288   1678
   2824   2295   1849
   2890   2332   2031
   2961   2421   2179
   3025   2473   2288
   2951   3138   1727
   2992   3145   1778
   3030   3154   1865
   3075   3163   1970
   3118   3169   2091
   3165   3180   2233
   3220   3198   2374
   3273   3210   2479
   3336   3232   2574
   3177   3685   2109
   3222   3693   2164
   3268   3702   2239
   3322   3713   2330
   3377   3728   2440
   3440   3745   2571
   3500   3761   2691
   3550   3773   2784
   3599   3783   2863
   3399   3958   2361
   3443   3962   2415
   3491   3968   2486
   3542   3974   2572
   3590   3981   2676
   3643   3989   2796
   3692   3994   2896
   3740   4000   2980
   3783   4005   3050
   3548   4024   2488
   3589   4027   2546
   3635   4031   2619
   3682   4034   2706
   3734   4039   2814
   3785   4043   2930
   3832   4046   3016
   3876   4049   3092
   3917   4051   3159
   3664   4047   2576
   3712   4050   2644
   3763   4052   2725
   3815   4055   2823
   3867   4059   2935
   3915   4061   3038
   3954   4062   3119
   3988   4063   3193
   4011   4064   3248
   3366   1433   1276
   3369   1432   1295
   3374   1422   1348
   3377   1398   1413
   3378   1353   1486
   3398   1413   1672
   3427   1498   1893
   3454   1563   2052
   3479   1620   2185
   3389   1504   1299
   3398   1528   1339
   3408   1539   1404
   3417   1524   1472
   3424   1487   1548
   3442   1503   1694
   3472   1584   1911
   3500   1647   2068
   3525   1704   2203
   3445   1740   1367
   3463   1777   1414
   3485   1854   1516
   3510   1943   1646
   3538   2026   1794
   3557   2019   1896
   3575   1972   1993
   3601   2016   2133
   3629   2064   2262
   3571   2450   1593
   3584   2447   1633
   3603   2447   1715
   3624   2452   1820
   3650   2472   1951
   3682   2531   2116
   3722   2638   2296
   3752   2712   2424
   3782   2755   2522
   3706   3230   1977
   3726   3246   2025
   3749   3272   2106
   3777   3306   2206
   3805   3345   2324
   3840   3393   2466
   3871   3428   2602
   3895   3447   2700
   3918   3452   2780
   3813   3710   2278
   3831   3712   2322
   3853   3720   2387
   3878   3731   2467
   3904   3748   2569
   3933   3768   2690
   3959   3790   2805
   3981   3807   2894
   3998   3822   2971
   3923   4005   2570
   3938   4004   2608
   3953   4002   2657
   3969   4001   2722
   3986   4000   2803
   4002   4002   2905
   4014   4005   2988
   4024   4006   3056
   4033   4010   3119
   3966   4046   2670
   3981   4045   2709
   3997   4043   2762
   4009   4044   2832
   4021   4046   2923
   4031   4048   3019
   4040   4049   3089
   4047   4050   3151
   4054   4052   3204
   4003   4056   2721
   4014   4056   2772
   4025   4056   2837
   4035   4057   2919
   4045   4059   3016
   4052   4061   3096
   4058   4063   3160
   4063   4063   3214
   4068   4065   3261
   3925   1836   1591
   3928   1835   1608
   3931   1828   1652
   3934   1809   1707
   3938   1774   1773
   3941   1729   1864
   3948   1804   2065
   3955   1859   2212
   3963   1911   2336
   3932   1894   1609
   3935   1913   1642
   3941   1924   1700
   3945   1912   1758
   3950   1885   1825
   3954   1834   1906
   3961   1879   2080
   3967   1935   2224
   3974   1982   2345
   3955   2105   1671
   3959   2130   1710
   3967   2184   1799
   3975   2246   1915
   3982   2307   2045
   3986   2306   2137
   3991   2274   2220
   3996   2250   2288
   4001   2285   2396
   3990   2597   1845
   3994   2601   1883
   3997   2611   1957
   4003   2630   2052
   4008   2667   2169
   4016   2742   2318
   4023   2832   2475
   4028   2891   2590
   4033   2927   2676
   4022   3457   2242
   4024   3465   2280
   4027   3478   2345
   4032   3492   2425
   4035   3504   2517
   4039   3516   2630
   4044   3525   2741
   4046   3528   2822
   4050   3528   2891
   4038   3781   2442
   4041   3785   2478
   4043   3795   2538
   4047   3806   2611
   4050   3822   2703
   4053   3840   2813
   4057   3856   2914
   4059   3868   2993
   4062   3878   3060
   4049   3979   2604
   4051   3981   2643
   4054   3986   2702
   4057   3992   2773
   4060   3999   2862
   4063   4007   2965
   4066   4013   3047
   4067   4016   3113
   4070   4020   3171
   4056   4025   2686
   4058   4028   2734
   4061   4033   2798
   4064   4037   2875
   4067   4042   2966
   4069   4048   3060
   4072   4051   3130
   4074   4053   3188
   4075   4055   3239
   4062   4043   2752
   4064   4046   2810
   4067   4050   2881
   4070   4054   2967
   4073   4059   3064
   4074   4061   3135
   4076   4064   3196
   4078   4065   3246
   4079   4066   3288
   4037   2004   1741
   4038   2004   1756
   4037   1996   1795
   4037   1978   1844
   4037   1947   1904
   4037   1894   1978
   4038   1944   2154
   4039   1995   2291
   4041   2036   2406
   4038   2056   1758
   4039   2070   1789
   4040   2078   1841
   4040   2069   1893
   4041   2047   1955
   4040   2001   2026
   4041   2012   2167
   4043   2059   2299
   4045   2101   2412
   4044   2249   1814
   4045   2270   1851
   4046   2313   1932
   4047   2366   2034
   4050   2422   2152
   4051   2425   2238
   4052   2396   2317
   4053   2363   2371
   4055   2381   2461
   4051   2696   1972
   4052   2699   2007
   4053   2707   2073
   4055   2728   2159
   4056   2761   2264
   4058   2827   2400
   4060   2909   2548
   4061   2961   2652
   4063   2997   2737
   4060   3522   2345
   4061   3527   2378
   4062   3537   2436
   4063   3547   2507
   4064   3557   2594
   4066   3565   2697
   4067   3573   2801
   4068   3574   2875
   4070   3573   2939
   4067   3824   2523
   4067   3826   2553
   4068   3834   2608
   4069   3845   2677
   4070   3856   2763
   4072   3872   2866
   4073   3885   2960
   4074   3894   3033
   4075   3902   3094
   4071   3992   2665
   4071   3993   2698
   4072   3997   2754
   4073   4002   2822
   4074   4009   2907
   4076   4016   3004
   4076   4020   3078
   4078   4024   3141
   4078   4027   3193
   4073   4032   2742
   4074   4034   2783
   4075   4038   2843
   4076   4041   2917
   4077   4046   3006
   4078   4051   3092
   4079   4054   3156
   4080   4055   3210
   4081   4057   3256
   4075   4047   2802
   4076   4049   2854
   4077   4054   2928
   4078   4057   3012
   4079   4061   3101
   4080   4063   3166
   4081   4065   3221
   4082   4066   3266
   4083   4066   3302
