Resources/LUT/Connor.3dl
# 17x17x17 .3dl lookup table from LUT Buddy
   0   64   128   192   256   320   384   448   512   576   640   704   768   832   896   960   1023
   6   6   38
   8   8   50
   29   29   172
   55   55   280
   86   94   392
   117   139   500
   148   189   608
   180   242   717
   219   300   829
   264   364   949
   314   432   1071
   369   502   1194
   417   562   1298
   458   612   1382
   496   657   1457
   532   699   1525
   564   736   1587
   10   35   43
   10   35   43
   32   56   172
   57   85   284
   88   122   394
   119   164   502
   149   211   609
   181   262   716
   219   318   829
   264   380   947
   314   446   1068
   369   515   1192
   418   575   1296
   458   624   1379
   496   668   1455
   532   710   1524
   564   747   1586
   33   183   89
   33   183   89
   54   202   214
   79   226   321
   107   258   429
   133   293   533
   163   333   639
   196   376   742
   235   425   852
   279   479   969
   328   538   1087
   383   601   1207
   432   657   1312
   473   703   1396
   511   745   1471
   546   783   1539
   579   819   1600
   92   461   206
   92   461   206
   109   476   310
   127   494   406
   150   515   503
   175   539   599
   204   572   700
   237   607   800
   276   648   906
   320   694   1019
   370   743   1135
   423   797   1254
   473   846   1357
   513   886   1438
   550   923   1512
   585   957   1579
   617   988   1639
   178   816   364
   178   815   364
   193   828   446
   210   841   529
   232   857   617
   256   875   706
   283   897   797
   313   921   888
   349   949   986
   392   987   1094
   440   1031   1208
   492   1076   1323
   541   1120   1424
   579   1153   1504
   616   1185   1576
   650   1215   1641
   682   1243   1701
   313   1235   551
   313   1234   551
   325   1242   616
   341   1253   686
   361   1266   765
   383   1281   844
   409   1297   929
   437   1316   1015
   470   1339   1106
   507   1365   1205
   548   1393   1307
   594   1427   1414
   641   1465   1514
   678   1493   1589
   714   1522   1661
   746   1546   1724
   777   1570   1782
   499   1720   768
   499   1720   768
   510   1727   821
   524   1734   880
   541   1744   946
   561   1754   1018
   583   1767   1093
   609   1782   1172
   639   1800   1258
   673   1822   1352
   711   1845   1449
   751   1869   1549
   790   1893   1638
   821   1912   1708
   851   1933   1772
   878   1947   1831
   905   1966   1883
   752   2306   1029
   751   2300   1028
   761   2306   1071
   772   2310   1120
   788   2319   1177
   804   2324   1238
   824   2333   1305
   846   2342   1376
   872   2355   1455
   902   2368   1542
   937   2386   1633
   975   2406   1728
   1009   2421   1810
   1037   2434   1877
   1063   2447   1938
   1087   2456   1992
   1109   2467   2043
   1060   2882   1321
   1062   2883   1328
   1069   2885   1361
   1080   2887   1401
   1092   2890   1449
   1107   2894   1503
   1124   2899   1563
   1145   2906   1628
   1168   2914   1699
   1195   2924   1779
   1228   2936   1865
   1262   2948   1955
   1292   2959   2033
   1319   2967   2093
   1342   2975   2149
   1365   2982   2201
   1385   2989   2247
   1313   3260   1552
   1314   3258   1559
   1320   3258   1586
   1331   3262   1625
   1342   3263   1668
   1356   3265   1718
   1373   3270   1775
   1392   3275   1834
   1414   3281   1902
   1440   3288   1976
   1470   3296   2056
   1502   3305   2137
   1530   3313   2205
   1554   3320   2261
   1576   3325   2312
   1597   3331   2360
   1618   3335   2403
   1539   3539   1751
   1540   3538   1762
   1547   3538   1788
   1556   3540   1823
   1568   3542   1863
   1581   3544   1910
   1596   3545   1960
   1615   3550   2015
   1637   3555   2076
   1662   3560   2144
   1690   3566   2215
   1723   3573   2291
   1748   3579   2352
   1772   3584   2404
   1793   3589   2451
   1813   3593   2495
   1831   3596   2535
   1726   3732   1909
   1727   3729   1919
   1735   3730   1945
   1745   3732   1977
   1756   3734   2015
   1770   3736   2057
   1786   3740   2104
   1803   3741   2154
   1824   3745   2212
   1850   3750   2275
   1878   3755   2343
   1908   3762   2415
   1931   3765   2469
   1951   3769   2518
   1972   3773   2562
   1991   3777   2604
   2006   3778   2641
   1874   3862   2023
   1876   3861   2037
   1881   3860   2060
   1892   3863   2092
   1903   3863   2128
   1915   3865   2168
   1930   3867   2212
   1949   3871   2261
   1970   3875   2317
   1993   3878   2377
   2019   3884   2443
   2045   3888   2510
   2067   3892   2561
   2087   3896   2607
   2104   3898   2650
   2120   3900   2688
   2135   3903   2724
   1971   3937   2098
   1975   3936   2116
   1983   3938   2142
   1992   3938   2173
   2003   3939   2207
   2015   3940   2246
   2030   3943   2289
   2047   3944   2337
   2066   3946   2391
   2088   3949   2450
   2113   3953   2514
   2138   3956   2578
   2155   3957   2624
   2174   3961   2669
   2190   3962   2708
   2205   3963   2746
   2219   3965   2780
   2029   3969   2144
   2034   3969   2165
   2042   3969   2191
   2052   3971   2223
   2062   3972   2257
   2075   3972   2296
   2090   3974   2338
   2106   3976   2387
   2125   3978   2442
   2148   3981   2502
   2170   3982   2562
   2193   3986   2621
   2212   3988   2667
   2229   3990   2708
   2243   3991   2747
   2259   3992   2784
   2273   3994   2816
   2068   3987   2181
   2073   3987   2200
   2082   3987   2228
   2092   3989   2260
   2102   3990   2294
   2116   3992   2334
   2130   3992   2376
   2147   3994   2426
   2167   3996   2481
   2189   3999   2542
   2212   4001   2603
   2231   4003   2656
   2248   4004   2698
   2265   4006   2739
   2280   4008   2778
   2294   4008   2810
   2305   4010   2843
   2099   4000   2207
   2106   4001   2231
   2111   4000   2257
   2122   4001   2289
   2132   4002   2326
   2147   4004   2367
   2161   4004   2411
   2180   4006   2462
   2199   4008   2518
   2221   4011   2578
   2245   4013   2640
   2262   4015   2685
   2278   4015   2726
   2292   4017   2765
   2307   4017   2802
   2319   4018   2834
   2332   4020   2865
   6   6   38
   6   6   38
   28   28   169
   54   54   277
   85   92   388
   116   138   497
   147   188   605
   179   240   713
   217   298   825
   262   362   946
   312   429   1067
   367   500   1191
   416   560   1295
   457   611   1379
   495   655   1454
   530   697   1522
   563   735   1585
   10   35   43
   10   35   43
   31   56   170
   57   84   282
   88   121   392
   118   164   500
   148   211   607
   180   261   714
   218   317   825
   263   378   944
   313   444   1065
   367   513   1188
   417   574   1294
   457   622   1376
   496   667   1452
   531   710   1522
   564   746   1585
   33   183   89
   33   183   89
   54   201   213
   79   226   320
   106   258   427
   133   293   532
   163   332   637
   195   375   740
   234   424   850
   278   479   966
   328   537   1085
   382   599   1205
   432   657   1311
   472   702   1394
   510   744   1468
   545   782   1537
   578   818   1598
   92   461   206
   92   460   206
   109   475   309
   127   493   405
   150   514   502
   175   539   597
   204   571   699
   237   607   799
   276   647   906
   320   692   1017
   369   743   1134
   423   797   1252
   473   846   1356
   512   886   1437
   550   922   1511
   584   956   1577
   617   988   1639
   179   815   364
   178   815   364
   193   826   446
   210   840   529
   232   856   617
   256   875   706
   283   896   796
   313   920   887
   349   949   985
   392   987   1094
   440   1030   1207
   492   1076   1321
   541   1118   1423
   579   1152   1501
   616   1185   1574
   650   1214   1639
   681   1242   1699
   313   1234   551
   312   1232   550
   326   1242   617
   341   1252   687
   361   1265   765
   383   1280   844
   409   1297   929
   437   1316   1015
   470   1337   1106
   507   1364   1204
   548   1392   1307
   594   1427   1413
   640   1462   1512
   678   1493   1588
   713   1519   1658
   746   1545   1722
   776   1568   1781
   498   1718   767
   498   1717   766
   510   1723   821
   524   1732   880
   541   1742   946
   561   1753   1017
   583   1766   1093
   609   1782   1172
   639   1799   1258
   673   1820   1351
   711   1843   1449
   752   1868   1548
   791   1892   1638
   821   1912   1707
   851   1930   1771
   877   1946   1829
   904   1964   1883
   751   2301   1027
   751   2300   1030
   760   2301   1071
   773   2311   1120
   786   2313   1176
   803   2320   1237
   824   2331   1305
   845   2338   1376
   872   2351   1456
   903   2366   1542
   937   2383   1633
   974   2402   1727
   1008   2417   1810
   1036   2431   1876
   1061   2442   1937
   1086   2455   1991
   1109   2463   2041
   1060   2882   1321
   1061   2880   1328
   1068   2880   1359
   1079   2884   1401
   1091   2887   1449
   1107   2893   1504
   1124   2898   1563
   1145   2904   1628
   1169   2912   1700
   1196   2922   1780
   1227   2932   1865
   1261   2945   1955
   1291   2955   2031
   1318   2965   2093
   1341   2972   2149
   1363   2979   2199
   1384   2987   2246
   1313   3260   1552
   1312   3255   1558
   1321   3258   1587
   1330   3259   1625
   1341   3260   1668
   1356   3264   1719
   1372   3267   1774
   1390   3272   1835
   1412   3277   1902
   1438   3284   1977
   1469   3293   2056
   1501   3303   2138
   1529   3311   2205
   1553   3317   2260
   1576   3323   2311
   1596   3327   2358
   1614   3330   2401
   1538   3537   1751
   1539   3535   1761
   1546   3536   1788
   1555   3537   1823
   1567   3539   1864
   1581   3542   1910
   1596   3544   1961
   1613   3547   2015
   1636   3552   2077
   1661   3559   2146
   1690   3565   2217
   1722   3572   2291
   1748   3578   2352
   1770   3582   2404
   1793   3587   2451
   1811   3590   2495
   1830   3593   2534
   1723   3730   1908
   1726   3728   1920
   1735   3730   1946
   1744   3731   1979
   1755   3733   2016
   1770   3735   2059
   1783   3736   2104
   1802   3739   2156
   1824   3743   2213
   1850   3749   2277
   1877   3755   2345
   1908   3760   2415
   1930   3763   2469
   1951   3767   2518
   1972   3772   2563
   1989   3773   2603
   2005   3776   2640
   1872   3859   2021
   1874   3858   2036
   1882   3860   2061
   1892   3861   2093
   1902   3861   2128
   1916   3864   2169
   1931   3866   2213
   1949   3870   2264
   1969   3873   2318
   1992   3877   2379
   2018   3882   2445
   2046   3886   2512
   2067   3890   2561
   2086   3894   2606
   2104   3896   2651
   2120   3898   2688
   2134   3901   2723
   1970   3936   2097
   1976   3936   2117
   1983   3936   2143
   1993   3938   2174
   2004   3939   2209
   2016   3941   2249
   2031   3942   2291
   2047   3943   2339
   2067   3946   2394
   2090   3949   2454
   2114   3953   2518
   2137   3954   2578
   2156   3957   2626
   2174   3959   2670
   2190   3961   2709
   2205   3963   2746
   2218   3964   2779
   2030   3969   2147
   2036   3969   2167
   2044   3970   2194
   2052   3970   2224
   2063   3971   2259
   2076   3972   2300
   2091   3974   2341
   2106   3975   2390
   2127   3979   2446
   2148   3980   2504
   2173   3983   2567
   2195   3986   2625
   2213   3988   2669
   2228   3988   2709
   2245   3990   2751
   2259   3992   2785
   2271   3993   2817
   2068   3987   2181
   2075   3987   2203
   2083   3989   2231
   2093   3989   2262
   2104   3990   2298
   2118   3992   2338
   2130   3992   2380
   2149   3994   2431
   2168   3996   2487
   2191   3999   2547
   2215   4001   2609
   2233   4002   2658
   2250   4004   2701
   2266   4006   2741
   2281   4008   2779
   2294   4008   2812
   2308   4010   2844
   2100   4001   2211
   2103   3999   2231
   2114   4001   2261
   2123   4001   2293
   2134   4002   2330
   2148   4003   2370
   2164   4004   2416
   2181   4006   2467
   2202   4008   2524
   2224   4011   2583
   2247   4013   2645
   2263   4013   2688
   2278   4015   2730
   2295   4017   2769
   2309   4018   2803
   2321   4018   2836
   2335   4020   2866
   9   6   39
   9   6   39
   30   28   167
   56   54   275
   87   92   386
   118   137   494
   147   186   602
   180   239   710
   218   297   823
   262   360   942
   312   428   1063
   367   498   1187
   416   559   1292
   457   609   1376
   495   654   1452
   530   696   1520
   563   733   1583
   13   35   44
   13   35   44
   33   56   169
   59   84   281
   90   121   391
   119   163   498
   149   210   605
   181   260   712
   219   316   823
   263   377   942
   313   443   1062
   367   511   1185
   417   572   1292
   457   622   1375
   495   666   1450
   531   708   1519
   564   744   1581
   36   183   90
   36   183   90
   56   202   212
   81   226   319
   108   258   427
   135   293   531
   164   332   636
   196   375   739
   235   424   848
   279   478   964
   328   537   1083
   382   599   1203
   432   656   1310
   473   702   1393
   511   744   1468
   546   782   1535
   579   818   1597
   94   461   206
   94   461   207
   111   476   310
   129   493   405
   151   515   502
   176   539   597
   206   571   698
   239   607   799
   277   647   905
   321   693   1017
   370   742   1132
   423   796   1250
   473   846   1355
   512   885   1435
   550   922   1510
   585   956   1576
   617   988   1637
   180   816   364
   180   815   364
   195   826   446
   212   840   529
   233   856   617
   257   875   705
   285   896   796
   315   920   887
   350   949   985
   393   987   1094
   441   1030   1206
   492   1075   1320
   541   1118   1423
   580   1152   1501
   617   1184   1573
   650   1213   1638
   682   1242   1699
   314   1233   551
   314   1233   551
   327   1241   617
   343   1251   687
   363   1264   765
   385   1279   845
   410   1297   929
   438   1315   1015
   471   1338   1106
   508   1364   1205
   549   1392   1307
   595   1426   1413
   642   1463   1512
   679   1492   1589
   713   1518   1658
   746   1544   1722
   776   1568   1780
   499   1718   767
   499   1717   767
   511   1723   821
   525   1730   880
   542   1740   946
   561   1751   1017
   584   1764   1094
   610   1781   1173
   640   1799   1260
   674   1818   1352
   712   1842   1449
   753   1867   1548
   791   1892   1637
   822   1911   1707
   850   1928   1770
   878   1945   1829
   905   1962   1883
   752   2300   1026
   751   2297   1031
   761   2301   1072
   772   2304   1120
   787   2313   1177
   805   2321   1239
   824   2328   1306
   845   2337   1377
   872   2350   1455
   903   2364   1541
   938   2384   1633
   974   2400   1727
   1008   2416   1810
   1037   2431   1876
   1062   2441   1936
   1087   2453   1991
   1108   2461   2040
   1060   2880   1321
   1061   2877   1327
   1068   2879   1359
   1079   2882   1401
   1092   2886   1450
   1107   2890   1503
   1125   2897   1565
   1145   2903   1629
   1168   2910   1701
   1196   2919   1780
   1228   2931   1866
   1262   2943   1955
   1292   2954   2031
   1317   2963   2093
   1342   2970   2147
   1364   2977   2198
   1384   2984   2244
   1311   3255   1548
   1313   3255   1559
   1321   3257   1588
   1329   3257   1625
   1342   3260   1670
   1354   3261   1719
   1372   3266   1775
   1390   3269   1834
   1414   3276   1903
   1440   3285   1979
   1468   3292   2056
   1503   3303   2139
   1529   3308   2205
   1553   3315   2261
   1575   3320   2311
   1596   3326   2359
   1615   3328   2400
   1537   3535   1749
   1539   3534   1760
   1546   3534   1788
   1555   3535   1822
   1566   3537   1865
   1580   3539   1910
   1596   3543   1962
   1615   3548   2017
   1636   3550   2078
   1661   3556   2146
   1691   3563   2218
   1722   3570   2293
   1748   3576   2352
   1771   3580   2403
   1792   3584   2451
   1811   3587   2493
   1830   3591   2533
   1725   3729   1907
   1728   3728   1921
   1734   3728   1946
   1744   3730   1979
   1756   3731   2017
   1768   3732   2059
   1784   3735   2106
   1802   3738   2157
   1825   3742   2215
   1850   3747   2279
   1878   3753   2346
   1908   3758   2416
   1930   3763   2470
   1953   3766   2518
   1970   3769   2562
   1988   3772   2603
   2005   3775   2640
   1871   3858   2020
   1876   3858   2038
   1882   3859   2063
   1892   3859   2094
   1903   3860   2130
   1917   3864   2172
   1933   3866   2216
   1949   3868   2265
   1969   3871   2320
   1993   3875   2382
   2020   3880   2446
   2049   3887   2515
   2067   3889   2562
   2086   3893   2608
   2104   3895   2650
   2121   3897   2689
   2135   3899   2723
   1970   3935   2098
   1979   3937   2120
   1983   3936   2144
   1994   3937   2175
   2005   3939   2212
   2018   3940   2251
   2032   3941   2294
   2049   3943   2342
   2069   3946   2398
   2091   3949   2457
   2114   3951   2520
   2141   3955   2582
   2158   3957   2627
   2176   3959   2672
   2192   3961   2710
   2208   3962   2746
   2221   3963   2779
   2031   3968   2148
   2038   3969   2169
   2045   3970   2196
   2053   3970   2226
   2065   3971   2263
   2078   3972   2303
   2092   3973   2345
   2110   3976   2395
   2130   3978   2449
   2151   3980   2509
   2177   3983   2572
   2198   3986   2627
   2216   3987   2671
   2233   3988   2713
   2249   3990   2751
   2263   3991   2786
   2277   3993   2817
   2071   3987   2183
   2077   3987   2206
   2085   3988   2233
   2095   3989   2266
   2106   3990   2301
   2120   3991   2341
   2135   3992   2386
   2152   3994   2436
   2175   3996   2492
   2196   3998   2551
   2220   4000   2613
   2240   4003   2663
   2258   4004   2706
   2274   4006   2745
   2290   4007   2781
   2306   4008   2816
   2318   4009   2846
   2099   3999   2210
   2107   3999   2235
   2115   4000   2264
   2128   4002   2298
   2140   4002   2335
   2154   4004   2376
   2169   4005   2422
   2189   4007   2474
   2211   4009   2531
   2233   4011   2591
   2257   4013   2650
   2274   4014   2693
   2293   4016   2735
   2310   4016   2772
   2326   4018   2809
   2343   4019   2841
   2360   4020   2871
   13   7   39
   13   7   39
   34   28   165
   59   54   273
   90   92   384
   120   136   493
   149   186   601
   181   238   708
   219   296   820
   263   359   939
   312   426   1060
   367   496   1184
   417   558   1290
   457   607   1373
   495   653   1449
   530   694   1518
   563   732   1580
   17   35   44
   17   35   44
   37   56   169
   62   84   280
   93   121   391
   122   163   497
   151   210   604
   183   260   711
   221   315   822
   264   377   939
   314   442   1060
   368   511   1183
   418   572   1290
   458   621   1373
   497   666   1450
   532   707   1518
