Resources/LUT/Connor.3dl
# 17x17x17 .3dl lookup table from LUT Buddy
0 256 512 768 1023
   6   6   38
   86   94   392
   219   300   829
   417   562   1298
   564   736   1587
   178   816   364
   232   857   617
   349   949   986
   541   1120   1424
   682   1243   1701
   1060   2882   1321
   1092   2890   1449
   1168   2914   1699
   1292   2959   2033
   1385   2989   2247
   1874   3862   2023
   1903   3863   2128
   1970   3875   2317
   2067   3892   2561
   2135   3903   2724
   2099   4000   2207
   2132   4002   2326
   2199   4008   2518
   2278   4015   2726
   2332   4020   2865
   38   10   44
   111   95   387
   234   298   821
   430   560   1290
   576   734   1580
   207   822   372
   261   864   625
   376   956   991
   566   1124   1426
   708   1248   1702
   1084   2879   1323
   1121   2888   1457
   1203   2914   1710
   1331   2958   2039
   1428   2986   2250
   1906   3859   2024
   1953   3863   2144
   2030   3873   2336
   2141   3893   2577
   2224   3903   2737
   2176   4001   2229
   2244   4006   2363
   2345   4014   2566
   2459   4022   2768
   2569   4027   2907
   976   365   407
   989   385   607
   1070   541   1006
   1206   756   1423
   1334   914   1702
   1183   1063   631
   1239   1111   844
   1333   1211   1193
   1452   1333   1593
   1587   1449   1854
   1920   2974   1485
   1997   2992   1629
   2119   3032   1888
   2283   3092   2213
   2418   3130   2422
   2651   3899   2164
   2743   3910   2294
   2866   3928   2497
   3018   3952   2741
   3161   3967   2908
   2997   4022   2390
   3138   4031   2545
   3316   4041   2770
   3506   4050   2975
   3685   4056   3125
   3366   1433   1276
   3374   1422   1348
   3378   1353   1486
   3427   1498   1893
   3479   1620   2185
   3445   1740   1367
   3485   1854   1516
   3538   2026   1794
   3575   1972   1993
   3629   2064   2262
   3706   3230   1977
   3749   3272   2106
   3805   3345   2324
   3871   3428   2602
   3918   3452   2780
   3923   4005   2570
   3953   4002   2657
   3986   4000   2803
   4014   4005   2988
   4033   4010   3119
   4003   4056   2721
   4025   4056   2837
   4045   4059   3016
   4058   4063   3160
   4068   4065   3261
   4037   2004   1741
   4037   1996   1795
   4037   1947   1904
   4038   1944   2154
   4041   2036   2406
   4044   2249   1814
   4046   2313   1932
   4050   2422   2152
   4052   2396   2317
   4055   2381   2461
   4060   3522   2345
   4062   3537   2436
   4064   3557   2594
   4067   3573   2801
   4070   3573   2939
   4071   3992   2665
   4072   3997   2754
   4074   4009   2907
   4076   4020   3078
   4078   4027   3193
   4075   4047   2802
   4077   4054   2928
   4079   4061   3101
   4081   4065   3221
   4083   4066   3302
