Resources/LUT/Crime Scene.3dl
# 17x17x17 .3dl lookup table from LUT Buddy
   0   64   128   192   256   320   384   448   512   576   640   704   768   832   896   960   1023
   0   0   11
   0   0   52
   0   0   934
   0   0   1829
   0   0   2621
   0   0   3124
   0   0   3339
   0   0   3472
   0   0   3577
   0   0   3668
   0   0   3739
   0   0   3799
   0   2   3848
   0   3   3889
   0   3   3925
   0   4   3954
   0   5   3977
   0   187   11
   0   192   12
   0   329   910
   0   348   1802
   0   346   2602
   0   347   3112
   0   345   3334
   0   346   3468
   0   345   3575
   0   346   3664
   0   345   3737
   0   345   3796
   0   345   3846
   0   344   3889
   0   344   3923
   0   344   3952
   0   344   3977
   0   634   11
   0   644   12
   0   836   901
   0   862   1789
   0   860   2593
   0   861   3108
   0   859   3332
   0   859   3466
   0   858   3573
   0   859   3663
   0   856   3735
   0   856   3796
   0   855   3845
   0   855   3887
   0   853   3922
   0   855   3952
   0   852   3977
   0   1199   11
   0   1208   12
   0   1398   900
   0   1425   1791
   0   1422   2592
   0   1421   3107
   0   1418   3332
   0   1419   3466
   0   1417   3571
   0   1418   3663
   0   1417   3735
   0   1415   3795
   0   1413   3845
   0   1413   3887
   0   1413   3922
   0   1415   3952
   0   1410   3975
   0   1800   11
   0   1809   12
   0   1988   913
   0   2013   1803
   0   2009   2597
   0   2010   3111
   0   2007   3334
   0   2008   3466
   0   2003   3573
   0   2004   3663
   0   2002   3735
   0   2000   3796
   0   1998   3846
   0   1995   3887
   0   1994   3922
   0   2000   3952
   0   1994   3975
   0   2390   11
   0   2398   13
   0   2518   936
   0   2535   1825
   0   2533   2615
   0   2535   3117
   0   2529   3337
   0   2528   3469
   0   2527   3575
   0   2527   3665
   0   2522   3737
   0   2523   3796
   0   2523   3846
   0   2519   3887
   0   2517   3922
   0   2523   3952
   0   2515   3975
   0   2841   11
   0   2847   13
   0   2913   970
   0   2926   1862
   0   2923   2643
   0   2923   3130
   0   2921   3344
   0   2920   3473
   0   2919   3579
   0   2916   3668
   0   2914   3739
   0   2912   3798
   0   2911   3848
   0   2911   3888
   0   2908   3924
   0   2917   3951
   0   2908   3975
   0   3145   11
   0   3148   44
   0   3174   1019
   0   3179   1914
   0   3178   2678
   0   3177   3147
   0   3176   3352
   0   3176   3480
   0   3174   3583
   0   3174   3672
   0   3171   3742
   0   3170   3801
   0   3170   3850
   0   3167   3890
   0   3166   3924
   0   3174   3950
   0   3170   3975
   0   3302   12
   0   3302   144
   0   3316   1085
   0   3319   1982
   0   3317   2723
   0   3318   3170
   0   3315   3363
   0   3314   3488
   0   3313   3590
   0   3313   3678
   0   3312   3745
   0   3310   3804
   0   3309   3852
   0   3308   3893
   0   3308   3926
   0   3317   3950
   0   3312   3974
   0   3407   12
   0   3408   255
   0   3414   1165
   0   3414   2064
   0   3413   2777
   0   3412   3193
   0   3412   3376
   0   3410   3499
   0   3410   3599
   0   3410   3684
   0   3409   3752
   0   3407   3809
   0   3406   3856
   0   3405   3895
   0   3405   3927
   0   3415   3950
   0   3409   3973
   0   3488   12
   0   3488   371
   0   3491   1267
   0   3492   2165
   0   3490   2842
   0   3490   3220
   0   3488   3392
   0   3488   3511
   0   3487   3609
   0   3486   3692
   0   3485   3758
   0   3484   3814
   0   3483   3860
   4   3482   3900
   15   3481   3929
   28   3494   3950
   39   3486   3973
   0   3556   12
   0   3555   507
   0   3558   1392
   0   3556   2282
   0   3555   2914
   0   3554   3250
   0   3554   3411
   0   3554   3527
   0   3552   3622
   3   3552   3702
   9   3552   3766
   23   3550   3820
   29   3549   3866
   49   3546   3903
   60   3547   3933
   89   3563   3950
   99   3553   3973
   0   3615   13
   0   3616   653
   0   3617   1538
   0   3616   2411
   0   3615   2994
   2   3613   3284
   4   3612   3432
   19   3611   3543
   22   3611   3636
   43   3609   3713
   44   3608   3776
   75   3607   3828
   78   3606   3872
   114   3605   3909
   127   3603   3936
   177   3623   3950
   181   3612   3971
   1   3672   13
   10   3672   827
   10   3671   1714
   25   3670   2552
   20   3668   3077
   43   3668   3319
   34   3668   3454
   65   3666   3562
   59   3665   3653
   103   3664   3726
   97   3663   3786
   148   3662   3837
   149   3660   3878
   200   3660   3915
   213   3658   3941
   277   3680   3950
   273   3666   3971
   21   3721   26
   54   3719   1031
   34   3719   1925
   76   3717   2698
   52   3717   3153
   103   3717   3357
   77   3715   3482
   135   3713   3585
   114   3712   3671
   184   3711   3741
   167   3710   3799
   238   3709   3847
   234   3707   3888
   297   3705   3921
   314   3703   3946
   396   3729   3950
   383   3713   3971
   47   3762   372
   118   3762   1267
   70   3760   2159
   151   3760   2852
   100   3758   3219
   187   3758   3393
   138   3756   3511
   225   3756   3609
   184   3754   3691
   277   3754   3757
   256   3751   3812
   342   3750   3857
   340   3748   3896
   415   3748   3929
   437   3746   3951
   540   3772   3950
   517   3754   3971
   86   3801   634
   203   3801   1540
   121   3799   2402
   242   3797   2999
   166   3796   3282
   285   3795   3432
   220   3794   3542
   331   3793   3635
   281   3791   3711
   390   3790   3775
   366   3789   3826
   469   3787   3870
   468   3785   3906
   558   3783   3936
   586   3782   3956
   715   3810   3952
   677   3791   3973
   8   0   11
   16   0   11
   10   0   914
   19   0   1805
   13   0   2605
   21   0   3115
   16   0   3336
   25   0   3468
   20   0   3575
   28   2   3666
   24   3   3737
   32   3   3798
   30   4   3846
   37   5   3889
   37   5   3924
   42   6   3952
   46   6   3977
   11   186   11
   21   192   12
   14   329   898
   25   346   1791
   17   346   2591
   29   346   3107
   21   345   3332
   33   346   3466
   26   345   3572
   38   346   3663
   33   345   3735
   43   345   3796
   40   344   3846
   50   345   3887
   49   345   3922
   57   345   3952
   61   345   3975
   14   635   11
   29   644   12
   18   834   892
   34   862   1783
   22   860   2587
   39   860   3106
   27   858   3330
   44   859   3465
   34   858   3571
   50   859   3662
   43   857   3735
   57   856   3795
   52   856   3844
   65   855   3887
   65   855   3922
   75   855   3952
   80   854   3976
   18   1199   11
   38   1205   12
   22   1395   898
   45   1424   1788
   28   1420   2589
   50   1421   3105
   35   1418   3330
   58   1419   3465
   44   1417   3571
   65   1418   3662
   55   1416   3733
   75   1415   3794
   69   1413   3844
   85   1413   3885
   85   1413   3922
   98   1413   3952
   104   1410   3975
   23   1800   11
   50   1809   12
   28   1984   914
   58   2010   1804
   36   2009   2600
   65   2010   3110
   45   2007   3334
   74   2004   3467
   58   2003   3572
   85   2004   3663
   72   2002   3735
   97   2000   3794
   89   1996   3845
   110   1994   3887
   110   1994   3922
   126   1997   3950
   134   1993   3975
   29   2390   11
   64   2397   13
   36   2515   940
   74   2535   1830
   47   2533   2619
   85   2532   3119
   59   2529   3338
   96   2528   3470
   74   2526   3575
   109   2527   3665
   92   2522   3737
   124   2523   3796
   114   2518   3846
   142   2518   3887
   141   2515   3922
   162   2522   3950
   171   2515   3975
   37   2840   11
   82   2843   13
   47   2913   981
   95   2924   1874
   60   2922   2648
   108   2923   3132
   75   2920   3344
   123   2919   3474
   95   2917   3579
   139   2915   3668
   118   2913   3739
   158   2911   3798
   146   2911   3848
   179   2907   3887
   177   2906   3923
   203   2915   3950
   212   2907   3975
   47   3145   11
   105   3148   74
   60   3174   1035
   121   3178   1929
   76   3178   2688
   137   3177   3151
   96   3175   3354
   155   3174   3481
   120   3173   3584
   175   3171   3672
   149   3171   3742
   197   3170   3802
   182   3169   3850
   221   3167   3890
   220   3166   3924
   251   3174   3950
   261   3169   3975
   60   3301   12
   132   3302   178
   76   3316   1106
   152   3318   2005
   97   3317   2734
   172   3315   3174
   122   3314   3366
   193   3314   3490
   151   3313   3592
   216   3312   3678
   186   3310   3746
   241   3310   3804
   226   3309   3853
   270   3308   3893
   270   3308   3926
   308   3316   3950
   317   3309   3975
   76   3406   12
   166   3405   290
   96   3412   1194
   188   3414   2092
   122   3412   2793
   210   3412   3199
   153   3410   3380
   236   3410   3501
   189   3410   3601
   263   3409   3686
   231   3408   3752
   295   3407   3810
   278   3406   3856
   328   3404   3896
   329   3404   3927
   375   3415   3950
   383   3409   3973
   96   3487   12
   205   3487   411
   121   3490   1301
   229   3490   2196
   154   3489   2861
   256   3489   3227
   193   3488   3396
   286   3487   3515
   237   3486   3611
   319   3485   3694
   285   3484   3760
   355   3483   3816
   339   3482   3861
   396   3482   3900
   399   3480   3931
   454   3494   3950
   459   3486   3973
   123   3555   12
   247   3554   546
   155   3556   1431
   278   3556   2317
   197   3554   2935
   309   3554   3259
   242   3554   3417
   345   3552   3531
   293   3552   3625
   383   3552   3704
   349   3550   3768
   427   3550   3822
   411   3546   3867
   475   3546   3903
   481   3546   3934
   547   3562   3950
   547   3552   3973
   158   3615   13
   298   3615   702
   199   3616   1587
   332   3615   2452
   246   3613   3015
   370   3612   3294
   300   3612   3437
   412   3611   3548
   358   3609   3640
   459   3609   3716
   423   3608   3779
   510   3607   3830
   494   3605   3874
   566   3604   3909
   576   3603   3938
   660   3623   3950
   650   3611   3973
   202   3672   13
   356   3670   882
   250   3670   1773
   397   3670   2595
   306   3668   3102
   442   3668   3331
   367   3666   3462
   492   3666   3569
   434   3664   3657
   547   3663   3730
   509   3662   3789
   607   3660   3839
   592   3659   3880
   674   3658   3917
   688   3656   3941
   787   3678   3950
   769   3666   3973
   254   3719   153
   424   3719   1096
   311   3717   1993
   472   3717   2743
   374   3715   3173
   525   3715   3366
   445   3713   3489
   585   3713   3590
   525   3711   3677
   649   3710   3745
   612   3709   3801
   721   3707   3849
   707   3705   3889
   797   3704   3923
   814   3703   3946
   930   3729   3950
   901   3711   3972
   317   3762   453
   503   3762   1342
   382   3760   2229
   560   3760   2897
   456   3758   3238
   623   3756   3405
   538   3756   3520
   692   3754   3616
   629   3753   3696
   768   3752   3762
   730   3750   3815
   848   3748   3860
   837   3747   3898
   933   3746   3931
   954   3744   3951
   1091   3772   3952
   1047   3754   3973
   389   3799   721
   597   3799   1630
   466   3797   2478
   663   3797   3042
   551   3795   3302
   738   3795   3444
   647   3792   3552
   817   3791   3644
   752   3790   3718
   901   3789   3779
   863   3787   3830
   991   3785   3872
   983   3783   3909
   1087   3781   3938
   1112   3780   3958
   1270   3809   3954
   1212   3789   3973
   232   0   11
   361   0   12
   265   0   899
   382   0   1788
   289   0   2593
   390   0   3108
   312   1   3332
   399   2   3466
   337   3   3573
   407   4   3663
   363   4   3737
   417   5   3796
   390   6   3846
   429   6   3887
   418   6   3922
   441   7   3952
   448   8   3977
   242   186   11
   375   190   12
   275   328   887
   395   348   1779
   300   346   2584
   404   347   3102
   325   346   3329
   413   347   3464
   351   346   3571
   424   346   3662
   379   346   3734
   436   347   3794
   409   346   3844
   449   346   3887
   439   346   3922
   464   346   3952
   471   346   3975
   254   635   11
   390   642   12
   288   834   887
   411   862   1775
   314   860   2580
   421   861   3101
   341   860   3328
   432   859   3462
   369   858   3570
   444   859   3661
   399   857   3733
   459   858   3794
   430   857   3844
   473   857   3887
   464   855   3921
   491   856   3950
   499   855   3975
   270   1196   11
   409   1205   12
   303   1395   896
   429   1424   1784
   331   1422   2586
   442   1419   3103
   361   1418   3330
   454   1419   3464
   390   1417   3571
   468   1418   3662
   423   1417   3733
   485   1415   3794
   457   1413   3844
   503   1413   3887
   494   1413   3920
   522   1416   3950
   532   1412   3975
   287   1800   11
   430   1809   12
   321   1984   916
   452   2010   1805
   351   2009   2600
   465   2009   3110
   383   2003   3334
   480   2004   3467
   415   2003   3572
   498   2004   3663
   451   2002   3734
   516   2000   3794
   489   1995   3844
   537   1994   3887
   529   1994   3922
   560   1997   3950
   571   1993   3975
   308   2388   11
   455   2394   13
   342   2514   948
   478   2535   1840
   375   2530   2625
   494   2532   3120
   409   2528   3338
   512   2528   3470
   445   2526   3575
   531   2523   3665
   484   2522   3737
   553   2522   3796
   526   2518   3846
   577   2517   3887
   570   2514   3922
   606   2521   3950
   617   2515   3975
   332   2839   11
   485   2843   13
   367   2914   995
   507   2924   1885
   403   2922   2657
   527   2920   3136
   440   2920   3347
   548   2919   3475
   481   2915   3581
   570   2915   3668
   523   2912   3740
   596   2911   3798
   570   2909   3848
   624   2907   3888
   619   2905   3922
   660   2914   3950
   671   2907   3975
   359   3145   11
   518   3147   104
   397   3174   1053
   543   3178   1948
   436   3177   2699
   565   3177   3156
   477   3175   3356
   590   3174   3482
   522   3172   3585
   617   3171   3674
   569   3170   3742
   647   3170   3802
   621   3168   3850
   680   3166   3890
   675   3166   3924
   721   3174   3950
   733   3169   3974
   390   3301   12
   556   3302   211
   431   3315   1127
   584   3318   2023
   474   3315   2749
   610   3315   3180
   520   3314   3370
   639   3313   3493
   569   3313   3594
   671   3312   3680
   623   3310   3747
   705   3309   3806
   680   3308   3853
   741   3307   3893
   740   3307   3926
   792   3315   3950
   802   3308   3975
   426   3405   12
   600   3405   323
   471   3412   1223
   630   3412   2119
   518   3412   2811
   661   3411   3205
   569   3410   3384
   695   3410   3505
   624   3409   3603
   731   3409   3687
   683   3407   3754
   771   3406   3810
   746   3404   3857
   813   3404   3896
   813   3404   3928
   874   3415   3950
   881   3407   3973
   467   3486   12
   650   3486   450
   517   3490   1336
   683   3490   2228
   568   3489   2881
   719   3488   3235
   625   3487   3401
   758   3487   3519
   686   3486   3615
   799   3485   3697
   752   3483   3762
   844   3482   3816
   821   3482   3862
   892   3480   3901
   894   3480   3931
   964   3494   3950
   965   3486   3973
   514   3554   13
   706   3554   589
   568   3556   1475
   745   3556   2356
   627   3554   2958
   784   3554   3268
   690   3553   3421
   828   3552   3535
   757   3552   3628
   875   3551   3706
   830   3550   3770
   926   3548   3824
   905   3546   3868
   978   3546   3905
   984   3545   3934
   1067   3562   3950
   1062   3552   3973
   568   3615   13
   768   3614   753
   629   3615   1640
   812   3613   2493
   693   3612   3041
   858   3612   3303
   763   3611   3443
   906   3609   3553
   835   3609   3644
   959   3608   3719
   915   3607   3781
   1015   3606   3832
   998   3604   3874
   1077   3603   3910
   1085   3602   3938
   1180   3623   3950
   1165   3611   3973
   628   3670   13
   838   3670   943
   695   3668   1834
   886   3669   2638
   768   3668   3122
   937   3666   3340
   844   3666   3469
   993   3664   3574
   924   3664   3662
   1052   3662   3733
   1010   3660   3791
   1117   3660   3841
   1100   3658   3882
   1185   3656   3917
   1198   3655   3943
   1310   3678   3952
   1283   3664   3973
   699   3719   260
   915   3717   1167
   773   3717   2063
   969   3717   2788
   850   3715   3192
   1027   3713   3377
   935   3713   3498
   1091   3711   3597
   1022   3711   3681
   1158   3709   3749
   1115   3708   3804
   1228   3705   3852
   1215   3704   3891
   1307   3703   3923
   1323   3701   3948
   1455   3727   3952
   1414   3711   3973
   777   3760   531
   1001   3760   1425
   858   3760   2305
   1063   3758   2942
   944   3756   3257
   1129   3756   3416
   1036   3754   3529
   1198   3754   3623
   1133   3752   3701
   1274   3751   3765
   1236   3748   3818
   1354   3747   3863
   1346   3745   3901
   1443   3744   3932
   1465   3742   3953
   1618   3770   3952
   1560   3752   3973
   867   3799   816
   1098   3797   1727
   955   3797   2553
   1164   3796   3089
   1050   3795   3320
   1241   3793   3455
   1151   3792   3562
   1320   3790   3651
   1258   3789   3724
   1406   3787   3783
   1371   3785   3834
   1498   3783   3876
   1492   3782   3910
   1597   3781   3940
   1625   3780   3959
   1803   3808   3955
   1730   3788   3975
   667   0   11
   836   0   12
   714   0   888
   863   0   1772
   746   2   2583
   872   3   3103
   776   4   3329
   882   4   3464
   806   5   3569
   893   5   3662
   838   6   3734
   905   6   3794
   872   7   3844
   918   7   3887
   906   8   3922
   932   8   3952
   941   9   3975
   680   187   11
   849   191   12
   727   328   882
   876   348   1767
   760   347   2577
   887   348   3098
   791   347   3328
   898   348   3462
   822   347   3569
   911   347   3661
   857   347   3733
   924   348   3794
   892   348   3843
   940   348   3885
   928   348   3921
   956   348   3952
