Resources/LUT/Crime Scene.3dl
# 17x17x17 .3dl lookup table from LUT Buddy
0 128 256 384 512 640 768 896 1023
   0   0   11
   0   0   934
   0   0   2621
   0   0   3339
   0   0   3577
   0   0   3739
   0   2   3848
   0   3   3925
   0   5   3977
   0   634   11
   0   836   901
   0   860   2593
   0   859   3332
   0   858   3573
   0   856   3735
   0   855   3845
   0   853   3922
   0   852   3977
   0   1800   11
   0   1988   913
   0   2009   2597
   0   2007   3334
   0   2003   3573
   0   2002   3735
   0   1998   3846
   0   1994   3922
   0   1994   3975
   0   2841   11
   0   2913   970
   0   2923   2643
   0   2921   3344
   0   2919   3579
   0   2914   3739
   0   2911   3848
   0   2908   3924
   0   2908   3975
   0   3302   12
   0   3316   1085
   0   3317   2723
   0   3315   3363
   0   3313   3590
   0   3312   3745
   0   3309   3852
   0   3308   3926
   0   3312   3974
   0   3488   12
   0   3491   1267
   0   3490   2842
   0   3488   3392
   0   3487   3609
   0   3485   3758
   0   3483   3860
   15   3481   3929
   39   3486   3973
   0   3615   13
   0   3617   1538
   0   3615   2994
   4   3612   3432
   22   3611   3636
   44   3608   3776
   78   3606   3872
   127   3603   3936
   181   3612   3971
   21   3721   26
   34   3719   1925
   52   3717   3153
   77   3715   3482
   114   3712   3671
   167   3710   3799
   234   3707   3888
   314   3703   3946
   383   3713   3971
   86   3801   634
   121   3799   2402
   166   3796   3282
   220   3794   3542
   281   3791   3711
   366   3789   3826
   468   3785   3906
   586   3782   3956
   677   3791   3973
   232   0   11
   265   0   899
   289   0   2593
   312   1   3332
   337   3   3573
   363   4   3737
   390   6   3846
   418   6   3922
   448   8   3977
   254   635   11
   288   834   887
   314   860   2580
   341   860   3328
   369   858   3570
   399   857   3733
   430   857   3844
   464   855   3921
   499   855   3975
   287   1800   11
   321   1984   916
   351   2009   2600
   383   2003   3334
   415   2003   3572
   451   2002   3734
   489   1995   3844
   529   1994   3922
   571   1993   3975
   332   2839   11
   367   2914   995
   403   2922   2657
   440   2920   3347
   481   2915   3581
   523   2912   3740
   570   2909   3848
   619   2905   3922
   671   2907   3975
   390   3301   12
   431   3315   1127
   474   3315   2749
   520   3314   3370
   569   3313   3594
   623   3310   3747
   680   3308   3853
   740   3307   3926
   802   3308   3975
   467   3486   12
   517   3490   1336
   568   3489   2881
   625   3487   3401
   686   3486   3615
   752   3483   3762
   821   3482   3862
   894   3480   3931
   965   3486   3973
   568   3615   13
   629   3615   1640
   693   3612   3041
   763   3611   3443
   835   3609   3644
   915   3607   3781
   998   3604   3874
   1085   3602   3938
   1165   3611   3973
   699   3719   260
   773   3717   2063
   850   3715   3192
   935   3713   3498
   1022   3711   3681
   1115   3708   3804
   1215   3704   3891
   1323   3701   3948
   1414   3711   3973
   867   3799   816
   955   3797   2553
   1050   3795   3320
   1151   3792   3562
   1258   3789   3724
   1371   3785   3834
   1492   3782   3910
   1625   3780   3959
   1730   3788   3975
   1165   0   11
   1213   2   878
   1243   4   2574
   1273   5   3326
   1303   6   3569
   1334   7   3731
   1366   8   3844
   1399   10   3921
   1433   11   3975
   1190   637   11
   1237   836   886
   1271   862   2575
   1305   862   3327
   1339   861   3568
   1374   860   3731
   1412   860   3842
   1450   859   3920
   1491   859   3974
   1231   1802   11
   1277   1987   931
   1315   2010   2609
   1352   2008   3334
   1392   2003   3573
   1432   2003   3734
   1474   1999   3844
   1519   1994   3920
   1564   1992   3973
   1287   2841   11
   1334   2911   1024
   1375   2922   2676
   1419   2920   3351
   1463   2915   3581
   1511   2912   3740
   1561   2909   3848
   1613   2904   3922
   1665   2907   3973
   1357   3301   12
   1407   3316   1179
   1456   3315   2781
   1505   3313   3376
   1558   3312   3597
   1616   3309   3750
   1673   3307   3853
   1734   3306   3926
   1799   3308   3973
   1446   3486   12
   1501   3489   1412
   1558   3488   2923
   1617   3486   3411
   1680   3485   3620
   1747   3482   3764
   1819   3480   3864
   1891   3479   3931
   1964   3484   3973
   1556   3614   13
   1618   3613   1750
   1688   3611   3088
   1758   3609   3456
   1834   3608   3652
   1914   3605   3785
   1998   3603   3877
   2082   3601   3940
   2159   3609   3973
   1690   3717   432
   1768   3716   2208
   1850   3713   3230
   1933   3711   3514
   2022   3709   3691
   2114   3705   3810
   2207   3702   3894
   2302   3699   3950
   2380   3709   3975
   1863   3797   1021
   1954   3795   2700
   2053   3793   3355
   2149   3789   3581
   2246   3786   3737
   2347   3783   3841
   2449   3779   3915
   2547   3776   3963
   2625   3785   3977
   2170   1   11
   2212   6   865
   2239   7   2562
   2262   8   3323
   2281   9   3566
   2308   10   3730
   2333   11   3841
   2361   12   3919
   2386   13   3973
   2194   643   11
   2234   841   888
   2262   866   2573
   2289   867   3326
   2315   866   3567
   2343   866   3730
   2371   867   3841
   2402   866   3918
   2429   864   3971
   2229   1805   11
   2268   1987   947
   2298   2013   2618
   2329   2011   3335
   2359   2006   3572
   2390   2005   3733
   2423   2003   3842
   2454   2002   3918
   2487   1995   3971
   2275   2844   11
   2314   2914   1059
   2348   2921   2699
   2382   2920   3355
   2415   2918   3584
   2452   2913   3740
   2490   2912   3847
   2525   2907   3920
   2560   2906   3971
   2338   3302   12
   2375   3316   1235
   2414   3315   2813
   2452   3313   3384
   2492   3311   3600
   2531   3309   3750
   2576   3308   3854
   2613   3305   3925
   2653   3307   3973
   2409   3486   12
   2452   3489   1498
   2494   3488   2964
   2536   3486   3420
   2580   3484   3625
   2626   3482   3767
   2673   3480   3865
   2716   3479   3931
   2758   3483   3973
   2495   3613   23
   2540   3613   1868
   2587   3611   3129
   2636   3609   3470
   2686   3607   3660
   2735   3604   3789
   2787   3601   3879
   2834   3599   3940
   2876   3607   3973
   2592   3717   587
   2646   3714   2353
   2697   3711   3265
   2751   3710   3530
   2804   3707   3700
   2858   3703   3817
   2913   3701   3897
   2962   3697   3951
   3003   3707   3975
   2709   3796   1240
   2765   3793   2840
   2821   3791   3389
   2881   3787   3602
   2936   3783   3750
   2995   3780   3849
   3050   3777   3920
   3101   3773   3964
   3137   3781   3979
   2901   3   11
   2924   9   861
   2936   11   2552
   2949   12   3319
   2960   12   3563
   2971   13   3727
   2988   14   3838
   3003   16   3915
   3011   16   3969
   2914   652   11
   2935   849   895
   2949   873   2577
   2964   873   3323
   2977   873   3565
   2990   872   3728
   3008   877   3839
   3022   876   3915
   3035   870   3969
   2933   1817   11
   2953   1995   970
   2968   2019   2632
   2984   2017   3336
   2999   2015   3572
   3016   2011   3731
   3034   2014   3841
   3052   2009   3915
   3067   2003   3969
   2959   2849   12
   2979   2916   1097
   2996   2924   2720
   3014   2922   3358
   3031   2920   3584
   3049   2917   3740
   3072   2917   3845
   3091   2910   3918
   3105   2909   3969
   2990   3302   12
   3011   3316   1294
   3030   3317   2846
   3051   3314   3389
   3071   3311   3604
   3093   3310   3752
   3119   3309   3853
   3135   3305   3923
   3148   3306   3971
   3030   3486   13
   3051   3489   1583
   3075   3488   3006
   3097   3487   3430
   3121   3484   3632
   3140   3482   3769
   3160   3481   3864
   3176   3478   3930
   3190   3482   3971
   3076   3613   185
   3100   3612   1995
   3124   3610   3166
   3145   3608   3483
   3164   3606   3667
   3185   3603   3793
   3207   3601   3879
   3223   3597   3939
   3236   3605   3973
   3125   3717   756
   3148   3714   2491
   3169   3711   3299
   3190   3709   3547
   3211   3705   3710
   3235   3703   3821
   3256   3699   3899
   3274   3695   3951
   3288   3704   3975
   3174   3795   1483
   3196   3791   2973
   3218   3789   3421
   3243   3785   3621
   3264   3781   3760
   3289   3779   3856
   3313   3774   3922
   3332   3770   3966
   3346   3779   3980
   3253   5   11
   3261   13   859
   3265   14   2549
   3270   15   3316
   3274   16   3559
   3279   16   3722
   3288   18   3834
   3296   19   3911
   3296   20   3965
   3257   662   11
   3265   857   905
   3271   881   2581
   3276   882   3323
   3281   882   3563
   3287   882   3724
   3297   892   3836
   3303   891   3911
   3305   881   3964
   3265   1828   11
   3271   2005   992
   3278   2026   2644
   3284   2027   3339
   3291   2022   3571
   3297   2021   3728
   3308   2031   3837
   3313   2024   3911
   3317   2014   3963
   3273   2855   12
   3281   2923   1136
   3288   2930   2743
   3295   2928   3362
   3302   2922   3585
   3310   2919   3738
   3322   2926   3843
   3328   2917   3915
   3333   2911   3965
   3285   3305   12
   3293   3317   1355
   3301   3318   2880
   3309   3316   3396
   3319   3313   3604
   3327   3311   3751
   3341   3312   3852
   3347   3307   3919
   3354   3308   3967
   3299   3488   13
   3309   3489   1675
   3318   3489   3045
   3328   3487   3440
   3337   3484   3636
   3348   3482   3770
   3362   3482   3864
   3369   3478   3926
   3375   3481   3967
   3318   3614   353
   3328   3612   2122
   3339   3610   3200
   3350   3609   3495
   3360   3605   3673
   3373   3603   3796
   3387   3602   3880
   3394   3597   3937
   3400   3603   3970
   3338   3717   938
   3348   3714   2630
   3362   3710   3332
   3373   3708   3563
   3387   3704   3719
   3400   3703   3827
   3415   3700   3901
   3425   3693   3949
   3431   3702   3974
   3364   3795   1748
   3376   3791   3096
   3389   3788   3453
   3403   3784   3644
   3417   3780   3772
   3434   3777   3863
   3450   3773   3926
   3462   3766   3966
   3470   3775   3981
   3409   8   11
   3415   17   857
   3418   18   2542
   3421   19   3312
   3423   21   3554
   3428   21   3715
   3435   24   3829
   3441   25   3904
   3439   25   3957
   3413   675   11
   3417   872   915
   3420   892   2584
   3423   893   3321
   3427   893   3558
   3431   893   3718
   3441   913   3829
   3443   912   3904
   3445   897   3957
   3415   1845   11
   3420   2021   1015
   3424   2041   2658
   3428   2038   3338
   3432   2036   3568
   3436   2033   3723
   3448   2059   3833
   3451   2048   3906
   3453   2029   3957
   3421   2865   12
   3425   2930   1175
   3429   2937   2764
   3434   2932   3366
   3439   2928   3583
   3445   2926   3734
   3457   2940   3838
   3460   2926   3908
   3462   2919   3958
   3426   3308   12
   3431   3320   1415
   3437   3320   2909
   3442   3317   3401
   3449   3314   3605
   3456   3314   3748
   3469   3318   3847
   3472   3310   3914
   3475   3308   3959
   3435   3490   37
   3440   3492   1765
   3448   3490   3082
   3453   3487   3448
   3462   3485   3637
   3470   3484   3770
   3484   3485   3861
   3487   3479   3921
   3491   3480   3962
   3445   3617   535
   3453   3613   2245
   3460   3611   3230
   3468   3609   3508
   3477   3605   3679
   3488   3604   3797
   3501   3604   3879
   3505   3598   3932
   3509   3601   3965
   3457   3717   1131
   3467   3714   2760
   3476   3710   3362
   3485   3706   3579
   3495   3704   3727
   3509   3701   3830
   3523   3700   3901
   3530   3693   3946
   3533   3699   3971
   3474   3793   2046
   3485   3791   3188
   3497   3786   3486
   3509   3782   3664
   3520   3778   3784
   3536   3775   3869
   3551   3771   3928
   3559   3764   3965
   3564   3769   3981
   3517   11   11
   3520   22   854
   3523   24   2537
   3525   25   3306
   3528   27   3549
   3532   28   3708
   3541   31   3821
   3547   33   3897
   3545   32   3949
   3517   692   11
   3522   889   921
   3523   907   2588
   3527   906   3317
   3531   908   3554
   3534   909   3712
   3544   941   3821
   3549   941   3897
   3548   919   3948
   3519   1865   11
   3522   2040   1034
   3526   2058   2669
   3529   2053   3337
   3534   2052   3564
   3537   2053   3717
   3551   2092   3825
   3553   2078   3897
   3553   2053   3947
   3523   2877   12
   3526   2939   1211
   3531   2945   2784
   3533   2939   3365
   3538   2938   3580
   3544   2936   3729
   3558   2961   3832
   3559   2942   3901
   3560   2929   3949
   3527   3313   12
   3530   3323   1476
   3536   3323   2937
   3540   3319   3405
   3546   3318   3604
   3552   3316   3745
   3566   3325   3843
   3569   3314   3906
   3569   3309   3951
   3531   3492   303
   3535   3493   1862
   3542   3492   3113
   3547   3488   3455
   3554   3485   3639
   3563   3486   3768
   3578   3490   3857
   3579   3481   3914
   3581   3480   3955
   3539   3617   779
   3544   3614   2370
   3551   3613   3260
   3557   3608   3519
   3565   3605   3683
   3577   3605   3796
   3591   3608   3876
   3593   3598   3926
   3595   3600   3960
   3549   3719   1421
   3555   3715   2889
   3562   3711   3393
   3570   3708   3596
   3580   3704   3734
   3594   3703   3833
   3608   3702   3900
   3612   3692   3941
   3613   3695   3968
   3559   3793   2344
   3569   3790   3266
   3578   3785   3523
   3588   3781   3687
   3599   3775   3796
   3615   3773   3875
   3630   3769   3929
   3637   3760   3962
   3640   3763   3979
   3603   14   11
   3606   30   850
   3607   31   2531
   3610   33   3300
   3611   34   3543
   3616   36   3701
   3627   43   3813
   3633   46   3888
   3629   43   3939
   3603   711   11
   3606   911   928
   3607   926   2586
   3609   922   3311
   3613   927   3548
   3617   931   3704
   3630   977   3815
   3633   976   3888
   3631   952   3939
   3603   1891   11
   3606   2064   1051
   3609   2080   2677
   3610   2071   3333
   3615   2073   3560
   3618   2077   3710
   3634   2138   3818
   3635   2116   3888
   3635   2090   3937
   3605   2895   12
   3606   2953   1245
   3612   2959   2801
   3613   2951   3366
   3618   2949   3576
   3624   2950   3723
   3640   2989   3826
   3639   2964   3890
   3639   2947   3939
   3607   3320   37
   3609   3327   1535
   3614   3327   2964
   3617   3322   3407
   3622   3321   3603
   3628   3321   3740
   3647   3334   3837
   3645   3322   3896
   3643   3315   3941
   3609   3498   520
   3612   3496   1956
   3618   3495   3141
   3622   3490   3461
   3629   3488   3640
   3636   3488   3765
   3655   3496   3853
   3655   3484   3906
   3653   3481   3946
   3613   3622   1065
   3618   3618   2490
   3623   3615   3288
   3628   3611   3530
   3637   3607   3687
   3647   3608   3795
   3664   3611   3874
   3665   3601   3920
   3665   3599   3953
   3619   3721   1825
   3625   3716   3010
   3631   3713   3422
   3638   3707   3612
   3648   3704   3742
   3661   3703   3835
   3677   3704   3900
   3679   3693   3936
   3680   3693   3964
   3627   3795   2731
   3633   3790   3340
   3642   3785   3561
   3652   3778   3712
   3663   3774   3811
   3680   3772   3883
   3694   3768   3933
   3698   3754   3960
   3703   3753   3979
