Resources/LUT/Crime Scene.3dl
# 17x17x17 .3dl lookup table from LUT Buddy
0 256 512 768 1023
   0   0   11
   0   0   2621
   0   0   3577
   0   2   3848
   0   5   3977
   0   1800   11
   0   2009   2597
   0   2003   3573
   0   1998   3846
   0   1994   3975
   0   3302   12
   0   3317   2723
   0   3313   3590
   0   3309   3852
   0   3312   3974
   0   3615   13
   0   3615   2994
   22   3611   3636
   78   3606   3872
   181   3612   3971
   86   3801   634
   166   3796   3282
   281   3791   3711
   468   3785   3906
   677   3791   3973
   1165   0   11
   1243   4   2574
   1303   6   3569
   1366   8   3844
   1433   11   3975
   1231   1802   11
   1315   2010   2609
   1392   2003   3573
   1474   1999   3844
   1564   1992   3973
   1357   3301   12
   1456   3315   2781
   1558   3312   3597
   1673   3307   3853
   1799   3308   3973
   1556   3614   13
   1688   3611   3088
   1834   3608   3652
   1998   3603   3877
   2159   3609   3973
   1863   3797   1021
   2053   3793   3355
   2246   3786   3737
   2449   3779   3915
   2625   3785   3977
   2901   3   11
   2936   11   2552
   2960   12   3563
   2988   14   3838
   3011   16   3969
   2933   1817   11
   2968   2019   2632
   2999   2015   3572
   3034   2014   3841
   3067   2003   3969
   2990   3302   12
   3030   3317   2846
   3071   3311   3604
   3119   3309   3853
   3148   3306   3971
   3076   3613   185
   3124   3610   3166
   3164   3606   3667
   3207   3601   3879
   3236   3605   3973
   3174   3795   1483
   3218   3789   3421
   3264   3781   3760
   3313   3774   3922
   3346   3779   3980
   3409   8   11
   3418   18   2542
   3423   21   3554
   3435   24   3829
   3439   25   3957
   3415   1845   11
   3424   2041   2658
   3432   2036   3568
   3448   2059   3833
   3453   2029   3957
   3426   3308   12
   3437   3320   2909
   3449   3314   3605
   3469   3318   3847
   3475   3308   3959
   3445   3617   535
   3460   3611   3230
   3477   3605   3679
   3501   3604   3879
   3509   3601   3965
   3474   3793   2046
   3497   3786   3486
   3520   3778   3784
   3551   3771   3928
   3564   3769   3981
   3603   14   11
   3607   31   2531
   3611   34   3543
   3627   43   3813
   3629   43   3939
   3603   1891   11
   3609   2080   2677
   3615   2073   3560
   3634   2138   3818
   3635   2090   3937
   3607   3320   37
   3614   3327   2964
   3622   3321   3603
   3647   3334   3837
   3643   3315   3941
   3613   3622   1065
   3623   3615   3288
   3637   3607   3687
   3664   3611   3874
   3665   3599   3953
   3627   3795   2731
   3642   3785   3561
   3663   3774   3811
   3694   3768   3933
   3703   3753   3979
