Resources/LUT/Cross Process.3dl
# 17x17x17 .3dl lookup table from LUT Buddy
0 256 512 768 1023
   220   290   976
   436   489   1499
   869   899   2509
   1106   1126   3055
   1175   1192   3213
   273   694   992
   463   795   1489
   871   1080   2474
   1115   1278   3048
   1185   1335   3211
   675   2186   1171
   781   2207   1626
   1079   2300   2572
   1270   2372   3099
   1326   2386   3254
   951   3012   1341
   1045   3031   1820
   1302   3102   2760
   1437   3142   3175
   1485   3152   3314
   1084   3333   1522
   1193   3356   2061
   1439   3422   2970
   1525   3438   3242
   1566   3441   3359
   470   323   987
   615   504   1488
   969   899   2481
   1193   1133   3049
   1261   1200   3211
   528   711   1004
   666   811   1497
   1001   1092   2475
   1225   1287   3049
   1295   1346   3213
   856   2185   1183
   960   2208   1652
   1229   2303   2600
   1406   2374   3107
   1473   2386   3260
   1141   3014   1357
   1251   3037   1872
   1498   3110   2813
   1633   3145   3190
   1708   3157   3324
   1355   3338   1591
   1504   3363   2181
   1754   3430   3035
   1888   3448   3272
   2013   3454   3386
   1843   703   1165
   1887   803   1595
   2025   1086   2521
   2142   1288   3091
   2196   1351   3255
   1905   962   1189
   1966   1042   1625
   2113   1271   2545
   2246   1444   3101
   2318   1502   3264
   2101   2277   1357
   2185   2307   1795
   2352   2402   2699
   2493   2470   3174
   2594   2492   3324
   2371   3086   1575
   2497   3114   2050
   2698   3192   2941
   2852   3234   3280
   2985   3252   3414
   2715   3417   1837
   2899   3459   2450
   3112   3525   3189
   3260   3547   3391
   3390   3556   3501
   3293   1238   1535
   3311   1292   1860
   3375   1468   2664
   3437   1617   3209
   3462   1664   3365
   3306   1392   1548
   3331   1444   1889
   3402   1604   2696
   3467   1736   3218
   3497   1779   3371
   3374   2470   1664
   3408   2494   2036
   3488   2580   2854
   3551   2637   3282
   3586   2649   3420
   3463   3205   1856
   3511   3230   2270
   3606   3300   3084
   3664   3327   3373
   3708   3336   3490
   3558   3503   2077
   3640   3545   2723
   3732   3592   3306
   3789   3599   3465
   3842   3599   3555
   3688   1391   1656
   3702   1436   1952
   3754   1590   2708
   3807   1728   3250
   3827   1770   3403
   3689   1532   1665
   3708   1578   1982
   3766   1721   2750
   3817   1841   3259
   3839   1880   3409
   3735   2567   1778
   3759   2592   2133
   3825   2673   2921
   3873   2724   3324
   3897   2735   3456
   3790   3260   1992
   3827   3282   2390
   3902   3351   3162
   3943   3373   3414
   3973   3380   3524
   3845   3548   2258
   3918   3595   2981
   3978   3623   3382
   4021   3623   3510
   4055   3608   3588
