Resources/LUT/Cross Process.3dl
# 17x17x17 .3dl lookup table from LUT Buddy
   0   64   128   192   256   320   384   448   512   576   640   704   768   832   896   960   1023
   220   290   976
   233   302   1006
   306   369   1187
   368   425   1335
   436   489   1499
   515   562   1684
   614   656   1915
   735   770   2196
   869   899   2509
   971   997   2744
   1036   1058   2893
   1077   1098   2989
   1106   1126   3055
   1128   1147   3105
   1145   1164   3146
   1161   1179   3182
   1175   1192   3213
   224   329   977
   224   329   977
   306   399   1181
   367   451   1327
   435   511   1490
   512   580   1673
   610   669   1903
   729   780   2180
   864   906   2492
   967   1004   2731
   1033   1067   2885
   1075   1106   2982
   1105   1135   3051
   1127   1156   3102
   1145   1173   3145
   1161   1188   3180
   1175   1201   3212
   229   383   978
   229   383   978
   309   444   1179
   369   492   1324
   436   547   1485
   512   612   1668
   609   696   1894
   726   801   2169
   860   923   2480
   966   1020   2726
   1032   1083   2879
   1075   1123   2980
   1105   1151   3048
   1127   1171   3100
   1146   1188   3143
   1161   1203   3178
   1176   1216   3210
   243   500   982
   243   500   982
   320   548   1179
   378   587   1323
   443   634   1484
   519   691   1665
   613   765   1890
   729   860   2162
   861   973   2473
   968   1067   2722
   1035   1126   2879
   1078   1165   2978
   1108   1191   3048
   1130   1211   3099
   1149   1228   3141
   1164   1242   3178
   1178   1255   3210
   273   694   992
   273   693   992
   345   729   1186
   400   758   1329
   463   795   1489
   535   839   1668
   627   901   1892
   740   981   2164
   871   1080   2474
   975   1163   2721
   1043   1218   2879
   1086   1253   2978
   1115   1278   3048
   1137   1296   3100
   1156   1311   3144
   1171   1324   3179
   1185   1335   3211
   329   970   1011
   329   970   1011
   393   994   1204
   443   1015   1344
   501   1041   1502
   569   1075   1680
   657   1122   1902
   766   1185   2173
   892   1266   2481
   994   1336   2727
   1060   1382   2883
   1102   1411   2984
   1130   1431   3051
   1153   1448   3105
   1171   1461   3148
   1186   1471   3183
   1199   1481   3214
   416   1325   1045
   416   1324   1044
   471   1339   1234
   515   1355   1372
   567   1374   1527
   629   1396   1703
   710   1431   1924
   812   1479   2192
   932   1541   2500
   1029   1596   2741
   1092   1632   2896
   1132   1656   2993
   1160   1673   3062
   1181   1684   3113
   1198   1694   3155
   1212   1702   3190
   1225   1708   3222
   540   1754   1101
   543   1754   1115
   585   1765   1286
   622   1775   1419
   666   1788   1570
   720   1804   1743
   793   1829   1963
   886   1862   2228
   997   1910   2530
   1086   1950   2764
   1144   1976   2913
   1181   1994   3010
   1207   2005   3077
   1227   2013   3128
   1243   2019   3169
   1257   2025   3204
   1269   2028   3237
   675   2186   1171
   683   2185   1215
   713   2190   1353
   744   2197   1480
   781   2207   1626
   829   2219   1796
   893   2238   2012
   978   2264   2275
   1079   2300   2572
   1160   2331   2798
   1212   2351   2941
   1245   2363   3034
   1270   2372   3099
   1288   2375   3149
   1303   2382   3188
   1315   2384   3223
   1326   2386   3254
   788   2530   1237
   799   2530   1298
   823   2535   1418
   850   2540   1541
   884   2548   1684
   926   2557   1851
   986   2574   2066
   1065   2599   2328
   1158   2627   2619
   1231   2652   2836
   1278   2668   2971
   1309   2679   3059
   1331   2686   3122
   1348   2689   3171
   1362   2693   3210
   1373   2695   3243
   1384   2696   3275
   862   2750   1284
   875   2750   1358
   897   2755   1470
   922   2760   1592
   954   2770   1733
   995   2778   1902
   1053   2794   2117
   1129   2815   2382
   1217   2844   2667
   1283   2864   2867
   1327   2879   2998
   1355   2889   3081
   1376   2895   3142
   1392   2900   3188
   1405   2901   3227
   1416   2903   3260
   1427   2905   3290
   913   2901   1316
   929   2902   1408
   949   2906   1513
   974   2912   1636
   1005   2918   1776
   1046   2927   1949
   1104   2944   2169
   1179   2965   2437
   1263   2990   2712
   1323   3009   2900
   1363   3023   3023
   1390   3031   3101
   1410   3036   3160
   1425   3040   3203
   1438   3044   3241
   1449   3044   3274
   1459   3046   3303
   951   3012   1341
   970   3015   1448
   989   3019   1554
   1014   3023   1677
   1045   3031   1820
   1088   3041   1999
   1146   3056   2225
   1223   3079   2498
   1302   3102   2760
   1357   3118   2934
   1394   3131   3045
   1419   3137   3119
   1437   3142   3175
   1452   3146   3218
   1464   3148   3254
   1475   3149   3286
   1485   3152   3314
   983   3103   1363
   1004   3107   1487
   1024   3110   1595
   1049   3115   1721
   1082   3121   1867
   1127   3133   2054
   1187   3149   2290
   1265   3171   2566
   1338   3193   2809
   1388   3207   2968
   1421   3217   3070
   1443   3224   3137
   1460   3227   3190
   1474   3231   3233
   1486   3235   3268
   1496   3235   3297
   1505   3238   3324
   1013   3183   1386
   1038   3188   1528
   1059   3194   1639
   1085   3196   1768
   1118   3206   1921
   1165   3216   2117
   1228   3232   2362
   1308   3255   2644
   1373   3274   2864
   1418   3288   3004
   1446   3295   3094
   1467   3299   3158
   1483   3304   3208
   1495   3306   3246
   1507   3307   3281
   1517   3310   3310
   1526   3311   3335
   1053   3263   1472
   1070   3266   1573
   1092   3270   1689
   1119   3274   1823
   1155   3283   1985
   1205   3294   2195
   1272   3312   2451
   1349   3334   2724
   1407   3350   2915
   1445   3360   3039
   1471   3369   3120
   1490   3373   3178
   1505   3375   3225
   1516   3377   3262
   1527   3379   3293
   1537   3379   3323
   1545   3378   3346
   1084   3333   1522
   1101   3335   1625
   1125   3340   1745
   1153   3346   1884
   1193   3356   2061
   1247   3368   2285
   1319   3385   2556
   1390   3406   2804
   1439   3422   2970
   1472   3429   3076
   1495   3434   3148
   1512   3438   3201
   1525   3438   3242
   1538   3441   3277
   1548   3442   3308
   1557   3442   3335
   1566   3441   3359
   220   290   976
   220   290   976
   305   367   1184
   366   423   1330
   435   486   1493
   514   560   1679
   612   653   1909
   732   767   2186
   867   895   2499
   969   994   2738
   1035   1057   2888
   1076   1096   2983
   1106   1125   3052
   1128   1146   3103
   1146   1164   3146
   1162   1179   3182
   1176   1192   3213
   225   329   977
   226   329   977
   307   398   1179
   367   450   1324
   435   510   1486
   512   579   1669
   610   668   1897
   727   777   2172
   863   904   2485
   967   1002   2727
   1034   1066   2882
   1077   1106   2982
   1106   1134   3049
   1129   1155   3100
   1147   1173   3142
   1162   1187   3178
   1177   1201   3212
   233   384   978
   233   384   978
   312   444   1176
   371   491   1322
   438   546   1482
   514   611   1663
   610   694   1890
   727   799   2163
   860   921   2475
   966   1019   2722
   1034   1082   2879
   1077   1122   2978
   1107   1150   3047
   1130   1172   3099
   1148   1188   3143
   1164   1203   3178
   1178   1216   3210
   249   500   982
   249   500   982
   325   549   1179
   382   587   1322
   447   634   1483
   522   690   1663
   616   765   1888
   730   859   2158
   864   973   2471
   969   1066   2718
   1037   1126   2876
   1080   1165   2976
   1110   1191   3046
   1133   1211   3098
   1151   1228   3141
   1167   1242   3177
   1181   1255   3210
   280   693   992
   280   693   992
   351   728   1186
   406   758   1329
   468   794   1489
   540   840   1668
   631   900   1891
   744   981   2163
   874   1080   2473
   979   1163   2721
   1045   1217   2876
   1088   1253   2978
   1119   1277   3048
   1141   1296   3100
   1159   1311   3142
   1175   1324   3179
   1188   1335   3209
   336   970   1011
   336   968   1011
   400   994   1205
   450   1015   1345
   508   1042   1503
   575   1075   1681
   662   1122   1904
   771   1185   2173
   897   1266   2481
   998   1335   2727
   1064   1381   2884
   1106   1411   2983
   1135   1432   3052
   1157   1447   3105
   1175   1461   3147
   1190   1471   3183
   1204   1481   3214
   423   1322   1045
   423   1321   1044
   479   1340   1236
   523   1354   1374
   574   1372   1529
   636   1395   1706
   716   1430   1927
   818   1477   2195
   938   1541   2502
   1034   1594   2741
   1097   1631   2896
   1136   1655   2993
   1164   1671   3062
   1185   1684   3113
   1203   1694   3155
   1217   1701   3190
   1230   1708   3222
   546   1753   1101
   554   1754   1130
   593   1764   1288
   630   1774   1422
   674   1786   1573
   728   1802   1746
   800   1826   1965
   893   1861   2232
   1004   1908   2534
   1092   1948   2765
   1149   1975   2915
   1186   1992   3011
   1212   2003   3077
   1232   2012   3128
   1248   2017   3169
   1261   2022   3204
   1275   2028   3237
   681   2182   1171
   691   2183   1223
   721   2188   1355
   752   2198   1484
   789   2206   1630
   836   2218   1800
   901   2236   2017
   986   2263   2281
   1087   2299   2579
   1166   2329   2801
   1218   2348   2943
   1251   2360   3034
   1275   2368   3099
   1294   2376   3149
   1308   2379   3188
   1321   2382   3223
   1332   2383   3254
   794   2528   1237
   807   2529   1304
   831   2534   1422
   858   2539   1546
   892   2546   1689
   935   2558   1858
   995   2573   2074
   1074   2596   2338
   1166   2626   2626
   1238   2652   2838
   1284   2666   2974
   1315   2676   3062
   1337   2682   3122
   1354   2687   3171
   1368   2691   3210
   1380   2694   3244
   1390   2693   3275
   869   2748   1283
   884   2751   1365
   905   2755   1475
   931   2762   1598
   963   2767   1739
   1004   2778   1909
   1063   2794   2127
   1139   2816   2393
   1227   2841   2674
   1291   2864   2872
   1334   2880   3001
   1362   2888   3083
   1383   2893   3142
   1399   2896   3191
   1413   2900   3228
   1424   2901   3261
   1434   2904   3290
   921   2899   1316
   937   2902   1414
   958   2906   1520
   983   2910   1642
   1014   2917   1785
   1056   2928   1959
   1114   2942   2179
   1190   2964   2450
   1273   2990   2722
   1332   3009   2907
   1371   3023   3025
   1398   3029   3103
   1417   3034   3160
   1432   3039   3205
   1445   3041   3243
   1456   3044   3274
   1467   3045   3304
   960   3011   1342
   979   3013   1455
   999   3018   1562
   1024   3024   1686
   1056   3031   1830
   1099   3040   2011
   1159   3057   2240
   1236   3078   2516
   1313   3100   2771
   1366   3118   2941
   1403   3131   3050
   1427   3135   3122
   1445   3141   3177
   1460   3145   3220
   1472   3147   3255
   1483   3150   3286
   1493   3151   3314
   992   3103   1363
   1015   3106   1494
   1035   3109   1604
   1061   3115   1731
   1094   3123   1879
   1139   3133   2070
   1200   3149   2306
   1279   3171   2585
   1350   3194   2822
   1398   3206   2976
   1430   3217   3073
   1452   3223   3142
   1470   3228   3192
   1484   3231   3234
   1496   3232   3269
   1507   3235   3299
   1517   3234   3327
   1027   3184   1423
   1048   3188   1538
   1069   3190   1650
   1096   3198   1780
   1130   3205   1936
   1179   3216   2137
   1243   3233   2385
   1322   3256   2664
   1386   3274   2875
   1428   3287   3012
   1458   3294   3101
   1478   3299   3162
   1494   3302   3209
   1508   3306   3249
   1520   3307   3282
   1531   3309   3312
   1540   3310   3338
   1063   3261   1484
   1081   3265   1585
   1103   3268   1702
   1131   3274   1837
   1169   3282   2004
   1221   3294   2215
   1290   3312   2478
   1366   3334   2745
   1421   3349   2929
   1459   3361   3049
   1485   3368   3126
   1504   3372   3183
   1520   3374   3227
   1533   3377   3264
   1545   3377   3296
   1555   3377   3324
   1567   3376   3349
   1095   3331   1533
   1114   3335   1638
   1138   3338   1760
   1168   3344   1902
   1211   3355   2086
   1267   3368   2313
   1340   3388   2588
   1410   3407   2827
   1457   3419   2983
   1490   3429   3086
   1513   3433   3153
   1531   3436   3206
   1547   3438   3247
   1560   3439   3281
   1572   3440   3310
   1585   3441   3337
   1596   3440   3363
   254   294   977
   254   294   977
   333   369   1181
   390   424   1327
   456   487   1490
   531   560   1673
   626   652   1903
   742   765   2178
   875   894   2492
   977   992   2731
   1043   1056   2885
   1085   1096   2983
   1115   1125   3051
   1137   1147   3102
   1155   1164   3145
   1170   1179   3180
   1184   1192   3212
   258   332   978
   259   332   978
   334   400   1177
   391   451   1323
   456   511   1484
   530   580   1666
   624   667   1892
   739   776   2167
   872   903   2480
   976   1002   2725
   1042   1066   2879
   1085   1106   2980
   1114   1135   3047
   1137   1156   3100
   1155   1173   3141
   1171   1188   3178
   1184   1201   3210
   265   386   979
   265   386   979
   339   446   1176
   394   493   1319
   459   548   1482
   532   612   1662
   625   695   1887
   739   799   2159
   870   920   2471
   975   1019   2718
   1042   1082   2876
   1085   1122   2976
   1115   1151   3046
   1138   1172   3098
   1157   1189   3141
   1172   1203   3177
   1186   1217   3210
   279   502   984
   280   502   984
   351   550   1178
   406   589   1323
   468   636   1482
   540   692   1662
   631   765   1886
   743   859   2156
   874   973   2468
   979   1066   2716
   1046   1126   2875
   1089   1164   2975
   1119   1192   3046
   1142   1212   3098
   1160   1229   3141
   1176   1243   3177
   1189   1255   3209
   309   695   993
   309   695   993
   377   730   1188
   429   759   1330
   489   796   1490
   559   840   1669
   647   901   1891
   758   982   2163
   886   1081   2472
   989   1164   2720
   1055   1218   2877
   1098   1253   2977
   1128   1278   3047
   1151   1297   3101
   1169   1311   3142
   1184   1324   3178
   1197   1335   3209
   362   969   1012
   362   969   1012
   424   995   1207
   472   1016   1346
   528   1042   1504
   594   1076   1683
   679   1123   1906
   786   1186   2175
   909   1266   2482
   1009   1336   2727
   1074   1381   2883
   1116   1412   2983
   1145   1432   3052
   1167   1449   3106
   1185   1461   3147
   1200   1472   3182
   1213   1481   3213
   446   1322   1046
   446   1322   1046
   501   1340   1239
   543   1355   1377
   594   1373   1533
   654   1396   1709
   733   1431   1930
   834   1479   2199
   951   1541   2504
   1046   1596   2744
   1108   1632   2896
   1147   1656   2994
   1175   1671   3063
   1196   1684   3113
   1213   1693   3155
   1228   1701   3190
   1241   1708   3221
   566   1752   1102
   575   1754   1141
   612   1763   1292
   648   1773   1426
   692   1786   1577
   744   1800   1750
   816   1826   1970
   908   1862   2237
   1017   1908   2538
   1104   1949   2770
   1161   1974   2917
   1198   1991   3012
   1223   2002   3078
   1244   2011   3128
   1260   2018   3169
   1273   2022   3204
   1287   2026   3235
   697   2180   1171
   709   2183   1230
   738   2190   1360
   769   2198   1488
   806   2203   1635
   853   2215   1806
   918   2237   2023
   1001   2262   2288
   1102   2300   2584
   1179   2329   2804
   1230   2347   2945
   1264   2358   3037
   1287   2368   3101
   1306   2374   3149
   1321   2378   3189
   1334   2381   3223
   1346   2382   3255
   810   2528   1238
   823   2528   1310
   847   2532   1426
   874   2537   1551
   908   2545   1695
   951   2556   1865
   1011   2570   2082
   1090   2596   2346
   1182   2627   2634
   1252   2650   2842
   1298   2666   2977
   1328   2674   3062
   1350   2683   3124
   1369   2687   3172
   1382   2689   3211
   1395   2691   3245
   1406   2694   3275
   885   2748   1284
   901   2752   1372
   922   2756   1480
   948   2759   1604
   980   2767   1746
   1022   2778   1917
   1081   2794   2137
   1157   2815   2403
   1244   2843   2683
   1307   2864   2878
   1350   2877   3004
   1378   2887   3085
   1399   2891   3145
   1415   2896   3191
   1429   2899   3228
   1441   2901   3261
   1452   2904   3290
   937   2899   1317
   956   2902   1420
   976   2904   1527
   1002   2911   1651
   1034   2918   1793
   1076   2928   1970
   1135   2943   2193
   1212   2964   2465
   1293   2991   2733
   1351   3010   2912
   1389   3021   3029
   1416   3030   3105
   1436   3034   3163
   1451   3038   3206
   1465   3042   3243
   1477   3043   3275
   1489   3045   3304
   978   3009   1343
   999   3015   1463
   1020   3017   1570
   1046   3023   1695
   1078   3031   1841
   1123   3041   2025
   1183   3057   2254
   1261   3080   2533
   1336   3102   2784
   1389   3120   2947
   1424   3129   3054
   1449   3137   3125
   1467   3139   3179
   1483   3144   3221
   1497   3147   3258
   1509   3149   3289
   1520   3151   3316
   1012   3100   1364
   1037   3105   1504
   1059   3108   1613
   1086   3115   1742
   1119   3121   1893
   1166   3134   2086
   1228   3150   2326
   1307   3173   2605
   1376   3193   2835
   1424   3207   2984
   1456   3217   3080
   1479   3224   3146
   1497   3227   3196
   1512   3231   3236
   1526   3232   3270
   1539   3234   3301
   1551   3235   3329
   1054   3185   1442
   1074   3187   1548
   1097   3191   1662
   1125   3197   1795
   1161   3205   1954
   1211   3217   2158
   1276   3235   2409
   1355   3258   2687
   1416   3274   2889
   1459   3287   3019
   1488   3295   3105
   1510   3298   3166
   1528   3302   3213
   1543   3304   3252
   1558   3306   3284
   1571   3308   3314
   1584   3309   3340
   1092   3261   1496
   1111   3263   1598
   1136   3269   1717
   1166   3275   1854
   1205   3283   2025
   1259   3295   2242
   1329   3314   2508
   1404   3334   2767
   1459   3351   2944
   1497   3361   3057
   1523   3367   3133
   1544   3371   3189
   1563   3374   3232
   1578   3374   3268
   1593   3377   3299
   1607   3378   3327
   1622   3380   3353
   1130   3330   1547
   1151   3335   1653
   1177   3339   1777
   1210   3345   1923
   1254   3355   2111
   1313   3369   2345
   1388   3389   2621
   1456   3408   2851
   1504   3421   2999
   1537   3428   3094
   1562   3433   3160
   1583   3436   3212
   1601   3438   3253
   1618   3440   3286
   1635   3440   3314
   1652   3441   3342
   1668   3443   3366
   321   302   979
   321   302   979
   390   374   1180
   442   429   1325
   502   491   1487
   572   563   1670
   661   654   1898
   771   765   2171
   900   894   2486
   1001   993   2728
   1065   1057   2882
   1107   1098   2981
   1136   1127   3049
   1158   1149   3102
   1176   1166   3143
   1191   1181   3178
   1205   1195   3211
   327   340   981
   327   340   981
   393   406   1178
   445   456   1322
   504   515   1483
   573   583   1664
   661   670   1889
   771   778   2162
   898   903   2473
   1000   1003   2722
   1066   1067   2879
   1108   1108   2978
   1137   1137   3047
   1160   1158   3099
   1178   1176   3141
   1193   1191   3178
