Resources/LUT/Cross Process.3dl
# 17x17x17 .3dl lookup table from LUT Buddy
0 128 256 384 512 640 768 896 1023
   220   290   976
   306   369   1187
   436   489   1499
   614   656   1915
   869   899   2509
   1036   1058   2893
   1106   1126   3055
   1145   1164   3146
   1175   1192   3213
   229   383   978
   309   444   1179
   436   547   1485
   609   696   1894
   860   923   2480
   1032   1083   2879
   1105   1151   3048
   1146   1188   3143
   1176   1216   3210
   273   694   992
   345   729   1186
   463   795   1489
   627   901   1892
   871   1080   2474
   1043   1218   2879
   1115   1278   3048
   1156   1311   3144
   1185   1335   3211
   416   1325   1045
   471   1339   1234
   567   1374   1527
   710   1431   1924
   932   1541   2500
   1092   1632   2896
   1160   1673   3062
   1198   1694   3155
   1225   1708   3222
   675   2186   1171
   713   2190   1353
   781   2207   1626
   893   2238   2012
   1079   2300   2572
   1212   2351   2941
   1270   2372   3099
   1303   2382   3188
   1326   2386   3254
   862   2750   1284
   897   2755   1470
   954   2770   1733
   1053   2794   2117
   1217   2844   2667
   1327   2879   2998
   1376   2895   3142
   1405   2901   3227
   1427   2905   3290
   951   3012   1341
   989   3019   1554
   1045   3031   1820
   1146   3056   2225
   1302   3102   2760
   1394   3131   3045
   1437   3142   3175
   1464   3148   3254
   1485   3152   3314
   1013   3183   1386
   1059   3194   1639
   1118   3206   1921
   1228   3232   2362
   1373   3274   2864
   1446   3295   3094
   1483   3304   3208
   1507   3307   3281
   1526   3311   3335
   1084   3333   1522
   1125   3340   1745
   1193   3356   2061
   1319   3385   2556
   1439   3422   2970
   1495   3434   3148
   1525   3438   3242
   1548   3442   3308
   1566   3441   3359
   254   294   977
   333   369   1181
   456   487   1490
   626   652   1903
   875   894   2492
   1043   1056   2885
   1115   1125   3051
   1155   1164   3145
   1184   1192   3212
   265   386   979
   339   446   1176
   459   548   1482
   625   695   1887
   870   920   2471
   1042   1082   2876
   1115   1151   3046
   1157   1189   3141
   1186   1217   3210
   309   695   993
   377   730   1188
   489   796   1490
   647   901   1891
   886   1081   2472
   1055   1218   2877
   1128   1278   3047
   1169   1311   3142
   1197   1335   3209
   446   1322   1046
   501   1340   1239
   594   1373   1533
   733   1431   1930
   951   1541   2504
   1108   1632   2896
   1175   1671   3063
   1213   1693   3155
   1241   1708   3221
   697   2180   1171
   738   2190   1360
   806   2203   1635
   918   2237   2023
   1102   2300   2584
   1230   2347   2945
   1287   2368   3101
   1321   2378   3189
   1346   2382   3255
   885   2748   1284
   922   2756   1480
   980   2767   1746
   1081   2794   2137
   1244   2843   2683
   1350   2877   3004
   1399   2891   3145
   1429   2899   3228
   1452   2904   3290
   978   3009   1343
   1020   3017   1570
   1078   3031   1841
   1183   3057   2254
   1336   3102   2784
   1424   3129   3054
   1467   3139   3179
   1497   3147   3258
   1520   3151   3316
   1054   3185   1442
   1097   3191   1662
   1161   3205   1954
   1276   3235   2409
   1416   3274   2889
   1488   3295   3105
   1528   3302   3213
   1558   3306   3284
   1584   3309   3340
   1130   3330   1547
   1177   3339   1777
   1254   3355   2111
   1388   3389   2621
   1504   3421   2999
   1562   3433   3160
   1601   3438   3253
   1635   3440   3314
   1668   3443   3366
   470   323   987
   523   392   1185
   615   504   1488
   752   663   1896
   969   899   2481
   1125   1064   2881
   1193   1133   3049
   1232   1172   3144
   1261   1200   3211
   486   411   990
   537   468   1183
   628   566   1485
   762   709   1888
   974   929   2466
   1133   1091   2875
   1202   1160   3046
   1242   1198   3142
   1272   1226   3209
   528   711   1004
   579   746   1198
   666   811   1497
   795   915   1897
   1001   1092   2475
   1156   1228   2879
   1225   1287   3049
   1266   1321   3144
   1295   1346   3213
   641   1330   1057
   688   1348   1253
   765   1381   1544
   884   1440   1942
   1076   1551   2513
   1218   1640   2901
   1283   1680   3067
   1323   1701   3158
   1353   1716   3224
   856   2185   1183
   897   2195   1377
   960   2208   1652
   1062   2239   2043
   1229   2303   2600
   1348   2353   2953
   1406   2374   3107
   1443   2383   3194
   1473   2386   3260
   1035   2752   1296
   1075   2758   1502
   1133   2772   1769
   1231   2798   2166
   1383   2849   2707
   1483   2883   3014
   1534   2896   3154
   1571   2904   3235
   1602   2907   3297
   1141   3014   1357
   1188   3023   1597
   1251   3037   1872
   1354   3064   2295
   1498   3110   2813
   1583   3135   3069
   1633   3145   3190
   1672   3152   3266
   1708   3157   3324
   1244   3188   1481
   1293   3197   1699
   1364   3211   1999
   1482   3243   2468
   1614   3282   2922
   1688   3301   3124
   1740   3310   3227
   1787   3315   3297
   1832   3317   3352
   1355   3338   1591
   1415   3345   1830
   1504   3363   2181
   1642   3402   2697
   1754   3430   3035
   1826   3442   3185
   1888   3448   3272
   1947   3451   3335
   2013   3454   3386
   1016   443   1033
   1044   497   1219
   1094   591   1513
   1176   729   1908
   1322   945   2484
   1442   1105   2889
   1497   1172   3059
   1530   1211   3154
   1558   1238   3221
   1035   517   1038
   1064   564   1221
   1116   648   1514
   1199   776   1906
   1342   980   2478
   1463   1134   2886
   1521   1201   3057
   1557   1239   3153
   1586   1267   3221
   1072   781   1053
   1105   814   1240
   1159   875   1530
   1242   973   1923
   1385   1140   2492
   1503   1270   2893
   1562   1328   3061
   1601   1363   3157
   1632   1387   3225
   1157   1372   1107
   1191   1389   1300
   1245   1422   1584
   1328   1481   1974
   1468   1588   2538
   1579   1675   2918
   1639   1714   3081
   1679   1737   3173
   1714   1752   3240
   1313   2208   1230
   1351   2219   1425
   1403   2233   1694
   1485   2265   2082
   1617   2329   2632
   1718   2378   2974
   1775   2400   3125
   1817   2409   3211
   1855   2414   3276
   1467   2769   1342
   1509   2778   1553
   1566   2793   1817
   1650   2820   2212
   1778   2872   2745
   1870   2904   3041
   1926   2919   3175
   1974   2928   3256
   2019   2932   3318
   1585   3032   1410
   1639   3042   1656
   1703   3057   1932
   1801   3087   2359
   1928   3132   2858
   2012   3157   3101
   2076   3170   3217
   2133   3178   3293
   2191   3183   3352
   1719   3210   1553
   1779   3218   1771
   1860   3235   2077
   1976   3270   2553
   2098   3308   2975
   2185   3328   3163
   2260   3338   3263
   2334   3346   3332
   2414   3352   3388
   1882   3360   1677
   1960   3371   1921
   2065   3393   2287
   2203   3434   2796
   2321   3462   3096
   2420   3476   3235
   2517   3484   3320
   2621   3492   3383
   2729   3499   3437
   1843   703   1165
   1858   737   1327
   1887   803   1595
   1935   908   1968
   2025   1086   2521
   2100   1226   2922
   2142   1288   3091
   2172   1324   3188
   2196   1351   3255
   1864   756   1171
   1884   790   1334
   1917   853   1602
   1968   953   1972
   2057   1122   2522
   2139   1258   2923
   2183   1320   3094
   2216   1356   3190
   2243   1383   3256
   1905   962   1189
   1928   990   1357
   1966   1042   1625
   2022   1125   1996
   2113   1271   2545
   2196   1389   2934
   2246   1444   3101
   2283   1477   3196
   2318   1502   3264
   1975   1481   1242
   2004   1500   1418
   2048   1532   1681
   2109   1588   2053
   2204   1690   2598
   2289   1771   2965
   2342   1810   3124
   2386   1834   3217
   2430   1852   3283
   2101   2277   1357
   2136   2286   1541
   2185   2307   1795
   2252   2339   2168
   2352   2402   2699
   2434   2448   3027
   2493   2470   3174
   2545   2483   3260
   2594   2492   3324
   2235   2823   1465
   2283   2835   1672
   2339   2850   1923
   2418   2881   2309
   2523   2932   2821
   2604   2965   3100
   2671   2981   3231
   2729   2991   3311
   2786   2998   3372
   2371   3086   1575
   2429   3096   1783
   2497   3114   2050
   2590   3146   2470
   2698   3192   2941
   2782   3220   3168
   2852   3234   3280
   2920   3244   3356
   2985   3252   3414
   2530   3263   1699
   2595   3276   1910
   2680   3296   2214
   2788   3334   2683
   2897   3372   3067
   2981   3392   3238
   3053   3404   3334
   3124   3412   3400
   3189   3418   3455
   2715   3417   1837
   2801   3431   2079
   2899   3459   2450
   3016   3499   2933
   3112   3525   3189
   3189   3537   3315
   3260   3547   3391
   3327   3551   3451
   3390   3556   3501
   2808   1054   1396
   2817   1076   1527
   2834   1120   1757
   2864   1194   2090
   2919   1327   2609
   2972   1441   2996
   3000   1494   3164
   3020   1525   3257
   3036   1548   3321
   2821   1090   1402
   2833   1113   1535
   2855   1157   1765
   2888   1229   2099
   2944   1359   2613
   2998   1471   3000
   3029   1522   3164
   3053   1553   3259
   3074   1577   3324
   2848   1239   1417
   2862   1261   1557
   2888   1300   1789
   2922   1366   2124
   2984   1484   2639
   3037   1583   3013
   3071   1630   3174
   3099   1659   3267
   3122   1680   3331
   2891   1669   1459
   2912   1686   1611
   2939   1714   1842
   2978   1762   2182
   3043   1853   2695
   3098   1924   3043
   3134   1959   3197
   3164   1980   3286
   3190   1995   3350
   2967   2395   1555
   2990   2404   1719
   3024   2421   1948
   3067   2454   2294
   3132   2512   2795
   3189   2555   3105
   3225   2573   3245
   3257   2585   3326
   3285   2593   3387
   3049   2911   1645
   3079   2922   1835
   3115   2935   2066
   3165   2965   2433
   3235   3013   2915
   3289   3043   3174
   3325   3057   3296
   3359   3065   3374
   3389   3070   3431
   3128   3161   1757
   3161   3171   1937
   3202   3188   2189
   3262   3218   2594
   3332   3263   3031
   3380   3284   3238
   3419   3296   3342
   3453   3304   3410
   3483   3307   3465
   3209   3329   1857
   3249   3341   2056
   3300   3360   2351
   3367   3397   2809
   3431   3429   3148
   3473   3444   3299
   3509   3454   3386
   3543   3457   3447
   3574   3459   3497
   3303   3474   1985
   3348   3488   2222
   3406   3512   2600
   3478   3550   3042
   3529   3569   3259
   3569   3577   3366
   3603   3580   3436
   3637   3582   3488
   3670   3583   3532
   3293   1238   1535
   3298   1256   1651
   3311   1292   1860
   3335   1354   2172
   3375   1468   2664
   3417   1570   3045
   3437   1617   3209
   3452   1644   3302
   3462   1664   3365
   3297   1267   1538
   3306   1285   1658
   3317   1320   1868
   3342   1381   2179
   3386   1494   2670
   3426   1593   3047
   3449   1639   3210
   3464   1666   3300
   3476   1687   3367
   3306   1392   1548
   3315   1411   1675
   3331   1444   1889
   3357   1500   2204
   3402   1604   2696
   3444   1694   3060
   3467   1736   3218
   3483   1760   3306
   3497   1779   3371
   3328   1782   1582
   3339   1796   1723
   3357   1821   1937
   3385   1865   2262
   3434   1948   2754
   3473   2014   3089
   3497   2044   3238
   3515   2063   3324
   3531   2076   3385
   3374   2470   1664
   3389   2479   1822
   3408   2494   2036
   3438   2523   2370
   3488   2580   2854
   3527   2620   3149
   3551   2637   3282
   3571   2645   3362
   3586   2649   3420
   3422   2964   1748
   3440   2974   1927
   3462   2986   2149
   3498   3016   2509
   3550   3060   2971
   3586   3087   3215
   3611   3100   3333
   3632   3105   3404
   3649   3109   3460
   3463   3205   1856
   3485   3213   2023
   3511   3230   2270
   3554   3260   2674
   3606   3300   3084
   3641   3319   3275
   3664   3327   3373
   3687   3333   3440
   3708   3336   3490
   3507   3366   1945
   3532   3376   2142
   3567   3394   2444
   3620   3431   2898
   3665   3459   3198
   3697   3472   3336
   3722   3480   3417
   3745   3482   3473
   3769   3484   3520
   3558   3503   2077
   3592   3517   2324
   3640   3545   2723
   3695   3576   3122
   3732   3592   3306
   3761   3600   3401
   3789   3599   3465
   3816   3600   3515
   3842   3599   3555
   3525   1328   1605
   3530   1344   1714
   3541   1376   1914
   3560   1433   2212
   3598   1539   2691
   3633   1635   3069
   3654   1681   3234
   3665   1706   3324
   3675   1725   3389
   3526   1353   1607
   3532   1370   1720
   3544   1403   1922
   3564   1459   2221
   3604   1564   2700
   3642   1658   3072
   3660   1701   3235
   3675   1727   3324
   3685   1746   3388
   3531   1473   1616
   3537   1489   1738
   3553   1521   1943
   3575   1573   2248
   3615   1671   2728
   3653   1756   3085
   3672   1795   3242
   3686   1819   3329
   3699   1837   3393
   3548   1849   1647
   3558   1863   1785
   3572   1887   1992
   3595   1929   2307
   3638   2008   2787
   3676   2070   3116
   3695   2099   3262
   3710   2117   3347
   3723   2129   3407
   3584   2521   1725
   3596   2530   1881
   3613   2545   2090
   3641   2575   2421
   3685   2629   2891
   3718   2666   3176
   3739   2682   3307
   3754   2689   3385
   3768   2694   3441
   3624   3001   1844
   3638   3009   1985
   3658   3023   2205
   3690   3050   2563
   3736   3094   3010
   3767   3119   3243
   3786   3131   3355
   3803   3138   3425
   3819   3141   3479
   3657   3233   1928
   3671   3243   2084
   3696   3259   2335
   3734   3290   2742
   3780   3326   3127
   3807   3345   3303
   3828   3352   3397
   3844   3359   3459
   3861   3361   3508
   3687   3392   2020
   3705   3401   2210
   3739   3420   2525
   3787   3458   2974
   3824   3483   3240
   3849   3493   3365
   3870   3498   3440
   3886   3501   3493
   3906   3501   3537
   3725   3528   2158
   3753   3541   2425
   3801   3571   2851
   3846   3598   3192
   3876   3610   3345
   3898   3613   3430
   3920   3613   3488
   3939   3613   3535
   3961   3607   3571
   3688   1391   1656
   3691   1406   1760
   3702   1436   1952
   3721   1490   2241
   3754   1590   2708
   3789   1683   3085
   3807   1728   3250
   3819   1752   3341
   3827   1770   3403
   3686   1415   1657
   3694   1432   1767
   3703   1462   1961
   3722   1514   2252
   3758   1613   2718
   3792   1704   3089
   3811   1747   3250
   3821   1772   3342
   3831   1790   3405
   3689   1532   1665
   3697   1548   1785
   3708   1578   1982
   3728   1628   2280
   3766   1721   2750
   3799   1802   3103
   3817   1841   3259
   3830   1864   3346
   3839   1880   3409
   3702   1904   1696
   3710   1918   1832
   3724   1941   2033
   3744   1981   2342
   3785   2057   2814
   3817   2117   3136
   3836   2146   3280
   3849   2163   3362
   3859   2174   3423
   3735   2567   1778
   3745   2577   1928
   3759   2592   2133
   3784   2621   2458
   3825   2673   2921
   3855   2708   3196
   3873   2724   3324
   3885   2732   3401
   3897   2735   3456
   3770   3034   1907
   3779   3039   2031
   3794   3051   2250
   3826   3082   2609
   3866   3125   3044
   3894   3148   3264
   3911   3158   3372
   3925   3164   3440
   3939   3167   3494
   3790   3260   1992
   3804   3266   2135
   3827   3282   2390
   3863   3317   2803
   3902   3351   3162
   3926   3367   3325
   3943   3373   3414
   3959   3379   3474
   3973   3380   3524
   3814   3414   2097
   3830   3423   2274
   3861   3445   2610
   3906   3481   3041
   3939   3502   3276
   3959   3511   3389
   3977   3515   3459
   3995   3517   3510
   4010   3515   3550
   3845   3548   2258
   3874   3563   2540
   3918   3595   2981
   3955   3616   3257
   3978   3623   3382
   4000   3624   3458
   4021   3623   3510
   4040   3619   3553
   4055   3608   3588
