Resources/LUT/Crush.3dl
# 17x17x17 .3dl lookup table from LUT Buddy
   0   64   128   192   256   320   384   448   512   576   640   704   768   832   896   960   1023
   60   60   60
   46   46   47
   34   34   35
   23   23   23
   12   12   12
   2   2   2
   0   0   0
   0   0   0
   0   0   0
   0   0   0
   0   0   0
   0   0   0
   0   0   0
   0   0   0
   0   0   0
   0   0   0
   0   0   0
   133   133   136
   118   118   121
   104   105   106
   92   92   93
   80   80   81
   69   69   70
   58   58   59
   48   48   49
   38   38   39
   28   28   29
   19   19   19
   10   10   10
   1   1   1
   0   0   0
   0   0   0
   0   0   0
   0   0   0
   219   219   227
   199   200   206
   183   183   188
   167   167   171
   152   152   156
   138   138   141
   125   125   128
   113   113   116
   102   102   104
   91   91   92
   81   81   82
   71   71   72
   61   61   62
   52   52   52
   42   42   43
   33   33   34
   24   24   24
   328   329   342
   301   302   315
   279   280   291
   259   260   269
   239   240   248
   221   222   229
   205   205   211
   189   189   195
   175   175   180
   161   161   165
   148   148   152
   136   136   139
   124   124   127
   113   113   115
   103   103   104
   92   93   94
   83   83   84
   454   456   472
   425   426   442
   399   400   415
   375   376   390
   352   353   367
   328   329   343
   306   307   319
   285   286   297
   266   266   276
   248   248   257
   231   231   239
   215   215   222
   200   200   207
   186   186   192
   173   173   178
   160   160   164
   148   148   152
   603   605   629
   565   567   589
   532   534   554
   503   504   523
   477   478   495
   453   454   470
   428   429   445
   404   405   420
   381   382   397
   359   360   374
   337   338   352
   316   317   330
   296   297   309
   277   278   289
   260   260   270
   243   244   253
   228   228   236
   794   796   826
   745   747   775
   703   704   732
   665   666   693
   629   631   656
   597   598   622
   567   568   591
   537   538   559
   509   510   530
   483   484   502
   459   460   477
   436   437   453
   414   415   430
   392   393   408
   371   372   386
   350   351   365
   330   331   344
   1024   1026   1059
   964   966   999
   913   915   947
   866   868   899
   823   824   855
   782   784   814
   743   746   774
   708   709   737
   671   673   699
   637   638   664
   605   606   630
   574   576   599
   546   547   569
   519   521   541
   495   496   514
   471   472   489
   449   450   466
   1286   1289   1322
   1219   1221   1255
   1159   1162   1196
   1103   1106   1139
   1052   1054   1088
   1004   1006   1039
   958   960   993
   915   916   949
   874   876   907
   831   834   864
   790   792   822
   752   754   783
   716   718   746
   681   683   710
   649   650   676
   618   619   644
   588   590   613
   1581   1583   1614
   1504   1507   1540
   1437   1439   1473
   1374   1376   1410
   1316   1317   1352
   1260   1262   1297
   1207   1209   1244
   1157   1159   1193
   1109   1111   1144
   1063   1065   1099
   1014   1016   1049
   969   971   1004
   925   927   959
   883   885   916
   842   844   875
   804   806   836
   766   768   797
   1867   1868   1891
   1797   1798   1824
   1732   1733   1760
   1670   1671   1700
   1608   1609   1640
   1548   1550   1583
   1488   1490   1525
   1430   1433   1466
   1376   1378   1413
   1323   1325   1360
   1274   1275   1310
   1219   1221   1256
   1168   1171   1205
   1121   1123   1157
   1072   1075   1109
   1027   1029   1063
   983   984   1017
   2126   2127   2141
   2062   2063   2080
   2003   2004   2023
   1945   1946   1967
   1889   1890   1912
   1833   1834   1858
   1778   1780   1805
   1722   1725   1752
   1668   1670   1699
   1612   1614   1645
   1557   1559   1591
   1503   1505   1539
   1444   1446   1481
   1390   1392   1426
   1334   1337   1371
   1283   1285   1319
   1232   1234   1269
   2353   2353   2365
   2296   2296   2309
   2243   2245   2258
   2192   2193   2206
   2141   2142   2157
   2091   2092   2109
   2041   2042   2060
   1991   1992   2012
   1941   1942   1962
   1890   1892   1914
   1839   1840   1864
   1789   1790   1815
   1738   1740   1767
   1682   1684   1712
   1627   1628   1660
   1569   1571   1604
   1514   1516   1550
   2558   2558   2565
   2507   2508   2515
   2459   2460   2468
   2413   2414   2423
   2368   2369   2377
   2321   2323   2333
   2277   2278   2289
   2231   2232   2246
   2185   2186   2200
   2141   2142   2157
   2094   2095   2112
   2048   2050   2067
   2002   2003   2021
   1955   1957   1977
   1903   1904   1926
   1852   1853   1877
   1800   1801   1826
   2739   2739   2743
   2693   2693   2697
   2649   2649   2655
   2609   2609   2615
   2568   2569   2575
   2528   2529   2536
   2487   2488   2496
   2447   2447   2455
   2406   2406   2416
   2364   2365   2376
   2322   2323   2333
   2282   2282   2294
   2239   2239   2253
   2196   2197   2212
   2154   2154   2170
   2106   2109   2123
   2060   2061   2078
   2897   2897   2900
   2857   2857   2860
   2819   2819   2822
   2782   2782   2786
   2744   2745   2749
   2710   2711   2714
   2672   2672   2677
   2637   2637   2643
   2600   2600   2606
   2562   2563   2569
   2527   2527   2535
   2488   2488   2497
   2451   2452   2460
   2414   2415   2424
   2375   2375   2385
   2335   2335   2348
   2291   2291   2304
   3048   3048   3050
   3009   3009   3010
   2973   2973   2975
   2938   2938   2941
   2904   2904   2907
   2872   2872   2874
   2838   2838   2841
   2805   2805   2808
   2771   2771   2776
   2740   2740   2744
   2707   2707   2712
   2674   2674   2678
   2639   2639   2645
   2605   2605   2611
   2571   2571   2578
   2534   2536   2541
   2500   2500   2509
   103   103   105
   89   90   91
   77   77   78
   65   65   66
   54   54   54
   43   43   44
   33   33   33
   23   23   23
   13   13   13
   3   3   3
   0   0   0
   0   0   0
   0   0   0
   0   0   0
   0   0   0
   0   0   0
   0   0   0
   146   146   150
   181   182   187
   164   165   169
   149   149   153
   135   135   138
   122   122   125
   110   110   112
   98   99   100
   87   88   89
   77   77   78
   67   67   68
   57   57   58
   48   48   48
   38   38   39
   29   29   30
   20   20   21
   12   12   12
   236   237   245
   284   284   296
   262   263   273
   241   242   251
   223   223   231
   206   206   213
   190   190   196
   175   175   180
   161   161   166
   148   148   152
   136   136   139
   124   124   127
   113   113   115
   102   102   104
   92   92   93
   82   82   83
   72   72   73
   351   352   366
   410   410   426
   384   385   399
   360   361   375
   335   336   350
   312   313   326
   290   291   303
   270   271   281
   252   252   262
   234   235   243
   218   219   226
   203   203   210
   189   189   194
   175   175   180
   162   162   167
   150   150   154
   138   138   141
   480   481   498
   550   552   573
   518   519   539
   490   491   509
   464   465   482
   439   440   455
   414   415   430
   391   392   406
   368   369   383
   346   347   360
   324   325   338
   304   304   317
   284   285   296
   266   267   277
   249   250   259
   233   234   242
   218   218   225
   638   639   665
   731   733   761
   689   691   718
   652   653   679
   617   618   643
   585   587   610
   553   555   576
   524   526   546
   497   498   517
   472   473   490
   448   449   465
   425   426   442
   403   404   419
   382   383   397
   361   362   376
   340   341   355
   320   321   334
   837   839   869
   952   954   986
   901   903   934
   854   855   887
   811   812   843
   771   773   802
   732   735   763
   695   696   724
   659   660   687
   625   626   652
   593   595   618
   564   565   588
   536   537   558
   510   511   531
   485   487   504
   463   463   480
   441   441   457
   1074   1076   1111
   1208   1210   1245
   1148   1150   1185
   1095   1097   1130
   1043   1045   1079
   995   998   1031
   950   952   984
   906   909   941
   863   865   896
   820   822   852
   781   782   812
   742   744   773
   706   708   736
   672   674   700
   640   641   667
   609   611   635
   580   582   605
   1346   1348   1382
   1498   1501   1534
   1430   1433   1467
   1369   1371   1405
   1310   1312   1347
   1254   1257   1291
   1201   1203   1238
   1152   1154   1189
   1103   1105   1139
   1053   1055   1089
   1007   1009   1042
   960   962   995
   917   919   951
   875   877   909
   835   837   867
   797   798   829
   760   762   791
   1643   1646   1675
   1795   1797   1822
   1730   1732   1758
   1667   1669   1698
   1605   1607   1638
   1545   1547   1580
   1485   1487   1521
   1429   1430   1465
   1374   1376   1411
   1320   1322   1358
   1266   1269   1303
   1214   1216   1250
   1162   1164   1199
   1115   1117   1150
   1066   1068   1102
   1021   1023   1056
   977   978   1012
   1924   1925   1947
   2063   2064   2080
   2004   2005   2024
   1946   1947   1968
   1889   1891   1913
   1834   1836   1860
   1779   1781   1805
   1723   1725   1753
   1669   1670   1700
   1613   1615   1646
   1559   1561   1593
   1499   1502   1535
   1442   1443   1478
   1386   1388   1423
   1332   1334   1368
   1280   1282   1316
   1229   1231   1266
   2177   2177   2191
   2302   2302   2314
   2248   2249   2262
   2196   2197   2211
   2145   2147   2161
   2095   2096   2112
   2045   2045   2064
   1995   1996   2015
   1944   1945   1966
   1894   1895   1917
   1844   1845   1869
   1793   1794   1819
   1738   1740   1767
   1682   1684   1712
   1627   1628   1659
   1569   1571   1604
   1514   1516   1550
   2400   2402   2412
   2512   2514   2520
   2465   2466   2474
   2420   2420   2429
   2372   2373   2383
   2327   2327   2339
   2283   2283   2295
   2237   2238   2251
   2192   2193   2206
   2146   2148   2162
   2101   2102   2119
   2055   2056   2073
   2008   2009   2028
   1958   1959   1979
   1906   1908   1929
   1856   1856   1879
   1803   1805   1828
   2602   2602   2607
   2700   2700   2706
   2658   2659   2664
   2616   2616   2622
   2575   2575   2582
   2535   2535   2541
   2495   2495   2503
   2453   2454   2463
   2413   2415   2423
   2373   2373   2383
   2331   2332   2342
   2289   2289   2302
   2247   2248   2260
   2204   2206   2219
   2159   2161   2175
   2112   2114   2129
   2066   2067   2084
   2777   2777   2780
   2865   2865   2868
   2826   2827   2829
   2790   2790   2793
   2752   2752   2756
   2717   2717   2721
   2681   2681   2686
   2645   2645   2651
   2609   2609   2615
   2573   2573   2579
   2535   2536   2542
   2497   2498   2505
   2461   2461   2470
   2423   2424   2433
   2386   2386   2396
   2342   2342   2353
   2301   2301   2312
   2933   2933   2935
   3018   3018   3020
   2982   2982   2983
   2946   2946   2948
   2913   2913   2915
   2879   2879   2882
   2847   2847   2850
   2814   2815   2817
   2782   2782   2785
   2749   2749   2753
   2716   2716   2720
   2683   2683   2688
   2649   2649   2655
   2614   2614   2620
   2582   2583   2588
   2546   2546   2553
   2509   2509   2516
   3081   3081   3082
   3157   3157   3159
   3125   3125   3125
   3092   3092   3094
   3060   3060   3062
   3030   3030   3031
   3000   3000   3001
   2968   2968   2970
   2938   2938   2940
   2908   2908   2910
   2876   2876   2879
   2847   2847   2850
   2816   2816   2819
   2786   2786   2790
   2756   2756   2760
   2725   2725   2728
   2693   2695   2698
   148   148   151
   132   132   135
   119   119   121
   106   106   108
   93   93   95
   82   82   83
   71   71   72
   61   61   61
   51   51   51
   41   41   41
   31   31   32
   22   22   22
   12   12   12
   4   4   4
   0   0   0
   0   0   0
   0   0   0
   198   199   205
   240   241   249
   221   222   229
   203   204   210
   187   187   192
   171   172   176
   157   157   161
   144   144   147
   131   131   134
   119   119   122
   108   108   110
   97   97   99
   87   87   88
   77   77   78
   67   67   68
   58   58   59
   49   49   49
   253   253   263
   302   303   316
   353   354   368
   328   329   342
   304   305   318
   283   283   295
   263   263   273
   244   245   254
   227   228   235
   211   211   218
   196   196   202
   182   182   187
   168   168   173
   155   156   159
   143   144   147
   132   132   135
   121   121   123
   372   373   387
   432   432   448
   488   489   507
   462   463   480
   436   436   452
   411   412   426
   386   387   402
   363   364   378
   341   342   355
   319   320   333
   299   299   312
   279   280   291
   261   262   272
   244   245   253
   228   229   237
   213   213   220
   199   199   205
   504   505   524
   578   580   602
   655   656   683
   618   620   645
   586   587   611
   554   555   576
   523   525   545
   496   497   516
   470   471   489
   447   447   463
   424   425   440
   401   402   417
   379   380   395
   358   359   373
   337   338   352
   317   318   331
   298   299   311
   670   671   698
   767   768   797
   864   866   897
   819   821   851
   777   778   808
   738   740   768
   699   700   728
   662   664   690
   628   629   654
   596   597   621
   565   567   589
   537   538   560
   511   512   532
   486   487   505
   463   464   480
   441   441   457
   419   420   435
   878   880   911
   996   998   1031
   1112   1114   1148
   1058   1060   1093
   1008   1010   1043
   961   963   995
   916   918   950
   871   873   904
   828   830   861
   787   789   819
   748   750   779
   712   713   741
   677   679   705
   644   646   672
   613   614   639
   584   585   608
   556   557   579
   1122   1124   1158
   1260   1261   1297
   1392   1394   1429
   1330   1333   1367
   1274   1276   1310
   1219   1221   1256
   1168   1170   1204
   1119   1121   1155
   1067   1069   1103
   1019   1021   1054
   972   974   1007
   928   929   962
   885   887   918
   844   846   877
   806   807   837
   768   769   799
   732   734   762
   1399   1401   1436
   1556   1557   1589
   1696   1698   1726
   1633   1635   1665
   1571   1573   1605
   1509   1512   1545
   1452   1454   1488
   1395   1397   1432
   1341   1344   1378
   1286   1288   1322
   1231   1233   1267
   1180   1182   1216
   1130   1132   1166
   1082   1084   1118
   1036   1038   1072
   991   993   1026
   948   950   983
   1699   1701   1729
   1848   1849   1872
   1976   1978   1998
   1919   1920   1941
   1861   1863   1886
   1806   1807   1832
   1750   1753   1778
   1694   1696   1724
   1639   1641   1671
   1583   1586   1617
   1524   1525   1559
   1465   1467   1501
   1408   1410   1445
   1353   1355   1390
   1301   1302   1337
   1249   1252   1286
   1199   1201   1235
   1975   1977   1997
   2110   2111   2127
   2227   2228   2240
   2175   2176   2190
   2124   2125   2141
   2073   2074   2091
   2022   2023   2042
   1972   1972   1992
   1921   1922   1943
   1870   1872   1894
   1820   1820   1845
   1764   1765   1792
   1708   1710   1738
   1651   1654   1683
   1595   1597   1628
   1539   1541   1573
   1483   1485   1519
   2223   2223   2237
   2345   2346   2357
   2449   2449   2457
   2401   2402   2412
   2356   2357   2368
   2311   2311   2323
   2265   2266   2278
   2219   2221   2234
   2173   2174   2188
   2127   2128   2144
   2081   2082   2099
   2035   2035   2054
   1984   1986   2005
   1933   1934   1955
   1882   1883   1905
   1830   1832   1855
   1777   1779   1804
   2443   2444   2452
   2551   2552   2557
   2645   2645   2651
   2602   2603   2609
   2562   2563   2568
   2522   2522   2529
   2480   2481   2488
   2438   2440   2449
   2398   2398   2408
   2358   2358   2368
   2315   2316   2327
   2273   2274   2285
   2231   2232   2245
   2184   2186   2200
   2138   2139   2155
   2091   2092   2109
   2044   2046   2063
   2638   2638   2643
   2734   2734   2737
   2817   2817   2820
   2779   2779   2782
   2743   2743   2747
   2707   2707   2711
   2670   2671   2676
   2634   2634   2640
   2597   2598   2604
   2561   2561   2568
   2525   2525   2531
   2486   2486   2494
   2448   2449   2457
   2410   2410   2420
   2367   2367   2378
   2325   2325   2337
   2282   2282   2295
   2809   2809   2812
   2897   2897   2899
   2975   2975   2976
   2939   2939   2941
   2905   2905   2907
   2872   2872   2875
   2838   2839   2842
   2806   2806   2810
   2772   2772   2776
   2740   2740   2744
   2708   2708   2712
   2674   2674   2678
   2639   2640   2645
   2606   2606   2611
   2572   2572   2579
   2534   2534   2541
   2495   2496   2504
   2965   2965   2966
   3047   3047   3050
   3118   3119   3119
   3086   3086   3088
   3054   3054   3056
   3023   3023   3026
   2993   2993   2996
   2962   2962   2964
   2933   2933   2934
   2901   2902   2903
   2870   2870   2873
   2840   2840   2843
   2810   2810   2813
   2779   2779   2783
   2749   2749   2753
   2717   2717   2720
   2684   2684   2688
   3110   3110   3110
   3185   3185   3185
   3252   3252   3252
   3221   3221   3223
   3192   3192   3192
   3164   3164   3165
   3135   3135   3135
   3107   3107   3108
   3079   3079   3080
   3051   3051   3052
   3022   3022   3024
   2993   2993   2995
   2965   2965   2968
   2936   2936   2939
   2906   2906   2908
   2879   2879   2882
   2849   2849   2852
   197   197   203
   179   179   184
   163   164   168
   149   149   153
   135   135   138
   122   122   125
   110   110   112
   99   99   100
   88   88   89
   77   77   78
   67   67   68
   57   57   58
   48   48   49
   39   39   39
   29   29   30
   20   20   21
   11   11   11
   257   258   268
   308   309   322
   285   286   297
   265   265   275
   245   245   254
   226   227   234
   209   210   216
   194   194   200
   179   179   184
   165   165   170
   152   152   156
   140   140   143
   128   128   131
   117   117   119
   106   106   108
   96   96   97
