Resources/LUT/Crush.3dl
# 17x17x17 .3dl lookup table from LUT Buddy
0 128 256 384 512 640 768 896 1023
   60   60   60
   34   34   35
   12   12   12
   0   0   0
   0   0   0
   0   0   0
   0   0   0
   0   0   0
   0   0   0
   219   219   227
   183   183   188
   152   152   156
   125   125   128
   102   102   104
   81   81   82
   61   61   62
   42   42   43
   24   24   24
   454   456   472
   399   400   415
   352   353   367
   306   307   319
   266   266   276
   231   231   239
   200   200   207
   173   173   178
   148   148   152
   794   796   826
   703   704   732
   629   631   656
   567   568   591
   509   510   530
   459   460   477
   414   415   430
   371   372   386
   330   331   344
   1286   1289   1322
   1159   1162   1196
   1052   1054   1088
   958   960   993
   874   876   907
   790   792   822
   716   718   746
   649   650   676
   588   590   613
   1867   1868   1891
   1732   1733   1760
   1608   1609   1640
   1488   1490   1525
   1376   1378   1413
   1274   1275   1310
   1168   1171   1205
   1072   1075   1109
   983   984   1017
   2353   2353   2365
   2243   2245   2258
   2141   2142   2157
   2041   2042   2060
   1941   1942   1962
   1839   1840   1864
   1738   1740   1767
   1627   1628   1660
   1514   1516   1550
   2739   2739   2743
   2649   2649   2655
   2568   2569   2575
   2487   2488   2496
   2406   2406   2416
   2322   2323   2333
   2239   2239   2253
   2154   2154   2170
   2060   2061   2078
   3048   3048   3050
   2973   2973   2975
   2904   2904   2907
   2838   2838   2841
   2771   2771   2776
   2707   2707   2712
   2639   2639   2645
   2571   2571   2578
   2500   2500   2509
   148   148   151
   119   119   121
   93   93   95
   71   71   72
   51   51   51
   31   31   32
   12   12   12
   0   0   0
   0   0   0
   253   253   263
   353   354   368
   304   305   318
   263   263   273
   227   228   235
   196   196   202
   168   168   173
   143   144   147
   121   121   123
   504   505   524
   655   656   683
   586   587   611
   523   525   545
   470   471   489
   424   425   440
   379   380   395
   337   338   352
   298   299   311
   878   880   911
   1112   1114   1148
   1008   1010   1043
   916   918   950
   828   830   861
   748   750   779
   677   679   705
   613   614   639
   556   557   579
   1399   1401   1436
   1696   1698   1726
   1571   1573   1605
   1452   1454   1488
   1341   1344   1378
   1231   1233   1267
   1130   1132   1166
   1036   1038   1072
   948   950   983
   1975   1977   1997
   2227   2228   2240
   2124   2125   2141
   2022   2023   2042
   1921   1922   1943
   1820   1820   1845
   1708   1710   1738
   1595   1597   1628
   1483   1485   1519
   2443   2444   2452
   2645   2645   2651
   2562   2563   2568
   2480   2481   2488
   2398   2398   2408
   2315   2316   2327
   2231   2232   2245
   2138   2139   2155
   2044   2046   2063
   2809   2809   2812
   2975   2975   2976
   2905   2905   2907
   2838   2839   2842
   2772   2772   2776
   2708   2708   2712
   2639   2640   2645
   2572   2572   2579
   2495   2496   2504
   3110   3110   3110
   3252   3252   3252
   3192   3192   3192
   3135   3135   3135
   3079   3079   3080
   3022   3022   3024
   2965   2965   2968
   2906   2906   2908
   2849   2849   2852
   253   254   263
   213   214   221
   182   182   187
   153   153   157
   127   127   130
   104   104   106
   83   83   85
   64   64   65
   46   46   46
   399   400   415
   520   521   541
   466   467   484
   416   417   432
   369   370   384
   325   326   340
   285   286   298
   250   251   260
   219   219   226
   553   554   576
   718   719   747
   895   897   929
   804   806   836
   724   726   754
   653   655   681
   590   591   615
   534   536   556
   485   486   504
   956   958   991
   1203   1205   1240
   1448   1451   1484
   1334   1337   1372
   1221   1223   1258
   1117   1119   1153
   1021   1023   1057
   933   934   967
   851   853   884
   1504   1506   1539
   1798   1799   1824
   2036   2037   2054
   1931   1932   1953
   1826   1828   1851
   1711   1714   1741
   1597   1599   1630
   1483   1485   1519
   1374   1375   1410
   2067   2069   2085
   2310   2310   2322
   2502   2503   2510
   2419   2419   2428
   2332   2333   2344
   2246   2247   2261
   2152   2152   2168
   2057   2058   2075
   1959   1959   1980
   2518   2518   2525
   2710   2711   2714
   2864   2864   2865
   2795   2795   2799
   2729   2729   2733
   2660   2661   2666
   2591   2591   2597
   2515   2515   2522
   2435   2437   2445
   2867   2867   2870
   3030   3030   3032
   3163   3163   3163
   3104   3104   3104
   3046   3046   3047
   2987   2987   2989
   2930   2930   2930
   2870   2870   2872
   2807   2808   2811
   3162   3162   3162
   3299   3299   3299
   3410   3410   3410
   3360   3360   3360
   3313   3313   3313
   3264   3264   3265
   3214   3214   3214
   3163   3163   3164
   3111   3113   3113
   391   392   406
   338   338   352
   293   294   306
   256   256   266
   221   221   228
   190   190   196
   163   163   167
   138   139   142
   116   116   118
   566   567   590
   734   736   764
   658   660   686
   593   594   618
   532   534   554
   480   481   498
   434   435   450
   390   391   405
   348   349   363
   779   781   811
   995   997   1030
   1215   1218   1251
   1113   1116   1149
   1011   1013   1047
   920   922   954
   836   838   869
   760   762   791
   690   692   719
   1034   1036   1070
   1292   1294   1329
   1548   1549   1582
   1791   1792   1817
   1672   1674   1703
   1552   1554   1587
   1436   1438   1473
   1327   1330   1363
   1224   1227   1262
   1604   1605   1637
   1889   1891   1912
   2121   2122   2138
   2318   2318   2330
   2230   2230   2243
   2132   2133   2147
   2033   2034   2052
   1933   1934   1955
   1830   1830   1855
   2151   2151   2167
   2385   2385   2396
   2570   2570   2576
   2727   2727   2732
   2656   2656   2661
   2585   2585   2591
   2506   2506   2514
   2426   2426   2435
   2342   2342   2353
   2584   2584   2590
   2769   2770   2773
   2919   2919   2921
   3050   3050   3051
   2991   2991   2992
   2930   2930   2932
   2870   2871   2873
   2806   2806   2809
   2741   2741   2745
   2924   2924   2925
   3081   3081   3082
   3208   3208   3208
   3322   3322   3322
   3270   3270   3271
   3220   3220   3221
   3169   3169   3169
   3116   3116   3117
   3060   3060   3062
   3208   3208   3208
   3342   3342   3342
   3449   3449   3449
   3544   3544   3544
   3502   3502   3502
   3458   3458   3458
   3416   3416   3416
   3372   3372   3372
   3330   3330   3330
   547   548   570
   483   484   502
   433   434   449
   387   388   403
   345   346   360
   302   303   315
   265   265   275
   231   232   240
   202   202   208
   787   788   818
   1004   1006   1040
   907   909   941
   823   824   855
   747   749   777
   674   675   702
   609   610   634
   551   552   574
   499   501   520
   1060   1063   1096
   1322   1324   1360
   1582   1584   1616
   1461   1464   1498
   1351   1353   1388
   1240   1243   1277
   1138   1140   1175
   1043   1045   1079
   955   957   990
   1368   1370   1405
   1664   1666   1696
   1913   1914   1936
   2128   2130   2145
   2032   2032   2051
   1926   1927   1948
   1819   1821   1844
   1710   1712   1740
   1599   1602   1633
   1698   1700   1729
   1975   1976   1997
   2199   2200   2214
   2389   2390   2401
   2557   2558   2564
   2475   2476   2484
   2390   2391   2402
   2306   2306   2318
   2218   2219   2232
   2227   2228   2242
   2454   2455   2464
   2631   2632   2637
   2782   2782   2786
   2916   2917   2919
   2855   2855   2858
   2788   2788   2791
   2722   2722   2726
   2651   2652   2657
   2645   2645   2651
   2825   2825   2827
   2969   2969   2971
   3098   3098   3100
   3213   3213   3213
   3161   3161   3161
   3107   3107   3109
   3050   3050   3052
   2992   2992   2993
   2976   2976   2977
   3127   3128   3128
   3253   3253   3253
   3361   3361   3361
   3458   3458   3458
   3413   3413   3413
   3369   3369   3369
   3324   3324   3324
   3276   3276   3276
   3252   3252   3252
   3382   3382   3382
   3486   3486   3486
   3580   3580   3580
   3665   3665   3665
   3626   3626   3626
   3587   3587   3587
   3548   3548   3548
   3508   3508   3508
   754   756   785
   666   668   694
   596   598   621
   537   539   560
   486   487   506
   442   443   459
   398   398   413
   355   356   370
   314   315   328
   1059   1062   1096
   1322   1324   1359
   1207   1209   1243
   1105   1106   1140
   1010   1013   1046
   926   928   961
   841   843   874
   764   766   795
   694   696   723
   1388   1390   1424
   1685   1687   1716
   1932   1933   1954
   1824   1825   1849
   1715   1716   1744
   1605   1607   1638
   1488   1490   1524
   1376   1378   1412
   1272   1274   1308
   1733   1734   1761
   2007   2009   2027
   2226   2227   2240
   2417   2417   2427
   2331   2332   2343
   2245   2245   2259
   2150   2151   2167
   2055   2056   2074
   1957   1958   1978
   2036   2037   2054
   2282   2283   2296
   2477   2478   2486
   2643   2643   2648
   2786   2787   2790
   2722   2722   2727
   2650   2650   2655
   2574   2575   2581
   2498   2499   2507
   2299   2299   2310
   2518   2518   2526
   2690   2690   2694
   2835   2836   2838
   2966   2966   2968
   3086   3086   3086
   3027   3027   3028
   2966   2966   2968
   2904   2904   2907
   2702   2703   2708
   2876   2876   2879
   3019   3019   3021
   3143   3143   3143
   3256   3256   3256
   3357   3357   3357
   3311   3311   3311
   3260   3260   3260
   3208   3208   3208
   3024   3024   3026
   3172   3172   3174
   3294   3294   3295
   3399   3399   3399
   3492   3492   3492
   3579   3579   3579
   3540   3540   3540
   3499   3499   3499
   3456   3456   3456
   3294   3294   3295
   3420   3420   3420
   3522   3522   3522
   3612   3612   3612
   3697   3697   3697
   3773   3773   3773
   3737   3737   3737
   3702   3702   3702
   3667   3667   3667
   1011   1014   1048
   903   905   937
   813   815   845
   734   736   764
   665   667   694
   604   606   630
   550   551   573
   497   498   517
   452   453   469
   1379   1381   1416
   1675   1677   1705
   1549   1551   1583
   1430   1433   1467
   1322   1324   1358
   1220   1222   1257
   1126   1128   1162
   1032   1034   1067
   944   946   979
   1744   1745   1772
   2016   2018   2036
   2237   2237   2250
   2140   2141   2156
   2044   2046   2063
   1947   1947   1968
   1849   1849   1873
   1741   1743   1769
   1631   1632   1663
   2059   2060   2078
   2301   2302   2314
   2495   2496   2504
   2659   2660   2665
   2586   2586   2592
   2512   2513   2519
   2435   2436   2445
   2351   2351   2362
   2265   2266   2278
   2329   2329   2340
   2544   2544   2550
   2712   2713   2717
   2857   2857   2859
   2985   2985   2988
   2927   2927   2928
   2868   2868   2871
   2802   2802   2805
   2736   2737   2740
   2557   2559   2565
   2748   2748   2752
   2898   2898   2900
   3030   3030   3032
   3150   3150   3151
   3259   3259   3259
   3209   3209   3210
   3154   3154   3155
   3098   3099   3100
   2756   2756   2759
   2925   2925   2928
   3065   3065   3066
   3187   3187   3187
   3296   3296   3296
   3393   3393   3393
   3483   3483   3483
   3437   3437   3437
   3392   3392   3392
   3070   3070   3070
   3216   3216   3216
   3334   3334   3334
   3435   3435   3435
   3528   3528   3528
   3612   3612   3612
   3691   3691   3691
   3654   3654   3654
   3614   3614   3614
   3333   3333   3333
   3454   3454   3454
   3555   3555   3555
   3645   3645   3645
   3726   3726   3726
   3801   3801   3801
   3871   3871   3871
   3838   3838   3838
   3806   3806   3806
   1316   1318   1353
   1186   1188   1223
   1078   1080   1114
   982   985   1018
   897   899   930
   818   820   850
   746   748   776
   682   684   710
   619   620   645
   1728   1730   1756
   2003   2004   2021
   1889   1890   1912
   1778   1780   1805
   1668   1670   1699
   1557   1559   1592
   1449   1451   1485
   1347   1349   1383
   1242   1245   1279
   2063   2063   2081
   2305   2306   2317
   2499   2499   2506
   2413   2414   2423
   2329   2329   2340
   2244   2244   2257
   2155   2156   2171
   2067   2068   2085
   1970   1970   1990
   2343   2344   2354
   2555   2556   2563
   2724   2724   2728
   2865   2867   2868
   2803   2803   2806
   2737   2737   2741
   2672   2672   2677
   2604   2604   2610
   2529   2529   2536
   2578   2578   2585
   2764   2764   2768
   2915   2915   2916
   3045   3045   3048
   3164   3164   3164
   3110   3110   3111
   3056   3056   3057
   3000   3000   3003
   2940   2940   2942
   2779   2779   2782
   2947   2947   2949
   3083   3083   3085
   3205   3205   3205
   3313   3313   3313
   3409   3409   3409
   3365   3365   3365
   3319   3319   3320
   3270   3270   3271
   2954   2954   2957
   3109   3109   3110
   3235   3235   3236
   3345   3345   3345
   3442   3442   3442
   3530   3530   3530
   3613   3613   3613
   3576   3576   3576
   3534   3534   3534
   3115   3115   3115
   3255   3255   3257
   3371   3371   3371
   3469   3469   3469
   3560   3560   3560
   3643   3643   3643
   3720   3720   3720
   3793   3793   3793
   3756   3756   3756
   3371   3371   3371
   3489   3489   3489
   3588   3588   3588
   3675   3675   3675
   3755   3755   3755
   3829   3829   3829
   3897   3897   3897
   3962   3962   3962
   3931   3931   3931
   1656   1659   1688
   1512   1514   1548
   1387   1388   1422
   1275   1278   1313
   1174   1176   1210
   1079   1081   1115
   992   994   1027
   911   913   945
   837   839   870
   2043   2045   2061
   2289   2289   2300
   2188   2188   2202
   2088   2089   2106
   1990   1991   2009
   1890   1891   1914
   1790   1791   1816
   1688   1690   1718
   1586   1588   1619
   2342   2342   2352
   2555   2556   2563
   2722   2722   2726
   2649   2650   2654
   2575   2575   2581
   2500   2501   2508
   2422   2424   2433
   2345   2345   2356
   2266   2266   2279
   2586   2587   2593
   2771   2771   2775
   2922   2922   2922
   3052   3052   3054
   2993   2993   2994
   2933   2933   2936
   2874   2874   2877
   2814   2814   2817
   2754   2754   2757
   2792   2792   2795
   2958   2958   2961
   3096   3096   3097
   3216   3216   3216
   3323   3323   3323
   3274   3274   3274
   3225   3225   3225
   3175   3175   3175
   3124   3124   3124
   2971   2971   2973
   3125   3125   3126
   3250   3250   3250
   3358   3358   3358
   3455   3455   3455
   3542   3542   3542
   3502   3502   3502
   3460   3460   3460
   3420   3420   3420
   3132   3133   3133
   3273   3273   3273
   3386   3386   3386
   3484   3484   3484
   3574   3574   3574
   3657   3657   3657
   3733   3733   3733
   3697   3697   3697
   3662   3662   3662
   3277   3277   3279
   3404   3404   3404
   3507   3507   3507
   3600   3600   3600
   3683   3683   3683
   3761   3761   3761
   3831   3831   3831
   3899   3899   3899
   3867   3867   3867
   3405   3405   3405
   3522   3522   3522
   3619   3619   3619
   3706   3706   3706
   3784   3784   3784
   3855   3855   3855
   3921   3921   3921
   3986   3986   3986
   4050   4050   4050
