Resources/LUT/Crush.3dl
# 17x17x17 .3dl lookup table from LUT Buddy
0 256 512 768 1023
   60   60   60
   12   12   12
   0   0   0
   0   0   0
   0   0   0
   454   456   472
   352   353   367
   266   266   276
   200   200   207
   148   148   152
   1286   1289   1322
   1052   1054   1088
   874   876   907
   716   718   746
   588   590   613
   2353   2353   2365
   2141   2142   2157
   1941   1942   1962
   1738   1740   1767
   1514   1516   1550
   3048   3048   3050
   2904   2904   2907
   2771   2771   2776
   2639   2639   2645
   2500   2500   2509
   253   254   263
   182   182   187
   127   127   130
   83   83   85
   46   46   46
   553   554   576
   895   897   929
   724   726   754
   590   591   615
   485   486   504
   1504   1506   1539
   2036   2037   2054
   1826   1828   1851
   1597   1599   1630
   1374   1375   1410
   2518   2518   2525
   2864   2864   2865
   2729   2729   2733
   2591   2591   2597
   2435   2437   2445
   3162   3162   3162
   3410   3410   3410
   3313   3313   3313
   3214   3214   3214
   3111   3113   3113
   547   548   570
   433   434   449
   345   346   360
   265   265   275
   202   202   208
   1060   1063   1096
   1582   1584   1616
   1351   1353   1388
   1138   1140   1175
   955   957   990
   1698   1700   1729
   2199   2200   2214
   2557   2558   2564
   2390   2391   2402
   2218   2219   2232
   2645   2645   2651
   2969   2969   2971
   3213   3213   3213
   3107   3107   3109
   2992   2992   2993
   3252   3252   3252
   3486   3486   3486
   3665   3665   3665
   3587   3587   3587
   3508   3508   3508
   1011   1014   1048
   813   815   845
   665   667   694
   550   551   573
   452   453   469
   1744   1745   1772
   2237   2237   2250
   2044   2046   2063
   1849   1849   1873
   1631   1632   1663
   2329   2329   2340
   2712   2713   2717
   2985   2985   2988
   2868   2868   2871
   2736   2737   2740
   2756   2756   2759
   3065   3065   3066
   3296   3296   3296
   3483   3483   3483
   3392   3392   3392
   3333   3333   3333
   3555   3555   3555
   3726   3726   3726
   3871   3871   3871
   3806   3806   3806
   1656   1659   1688
   1387   1388   1422
   1174   1176   1210
   992   994   1027
   837   839   870
   2342   2342   2352
   2722   2722   2726
   2575   2575   2581
   2422   2424   2433
   2266   2266   2279
   2792   2792   2795
   3096   3096   3097
   3323   3323   3323
   3225   3225   3225
   3124   3124   3124
   3132   3133   3133
   3386   3386   3386
   3574   3574   3574
   3733   3733   3733
   3662   3662   3662
   3405   3405   3405
   3619   3619   3619
   3784   3784   3784
   3921   3921   3921
   4050   4050   4050
