Resources/LUT/Curahee.3dl
# 17x17x17 .3dl lookup table from LUT Buddy
0 256 512 768 1023
   0   0   0
   24   21   365
   169   158   928
   385   372   1530
   581   569   2099
   224   729   106
   356   890   602
   505   1019   1171
   691   1184   1783
   871   1355   2322
   634   1614   397
   797   1837   941
   947   1968   1526
   1126   2103   2139
   1311   2248   2600
   1162   2591   762
   1353   2748   1400
   1613   2832   2025
   1818   2904   2545
   2004   2998   2920
   1964   3329   1430
   2125   3397   2035
   2255   3430   2547
   2379   3461   2937
   2527   3530   3221
   494   40   35
   593   108   439
   761   278   1006
   967   484   1607
   1155   669   2158
   806   812   199
   969   986   699
   1147   1131   1269
   1355   1302   1880
   1546   1469   2392
   1256   1706   489
   1477   1949   1059
   1679   2090   1658
   1877   2220   2252
   2048   2347   2677
   1854   2659   867
   2069   2820   1556
   2235   2901   2161
   2379   2966   2639
   2523   3048   2983
   2430   3353   1586
   2588   3425   2176
   2713   3465   2664
   2812   3492   3017
   2928   3562   3275
   1125   210   167
   1242   300   591
   1421   455   1135
   1632   646   1730
   1799   814   2248
   1430   948   340
   1627   1134   843
   1833   1293   1414
   2032   1467   2016
   2175   1618   2478
   1906   1849   624
   2128   2093   1218
   2306   2235   1828
   2455   2349   2375
   2576   2456   2759
   2406   2750   1080
   2590   2905   1743
   2733   2987   2318
   2840   3042   2747
   2942   3106   3055
   2854   3392   1785
   2981   3470   2346
   3084   3519   2797
   3160   3541   3103
   3273   3606   3332
   1854   429   352
   1995   526   777
   2182   681   1314
   2359   863   1897
   2452   1004   2362
   2157   1134   518
   2337   1332   1026
   2506   1508   1604
   2648   1680   2180
   2728   1804   2580
   2529   2032   799
   2704   2262   1420
   2846   2401   2029
   2948   2502   2514
   3020   2582   2849
   2894   2859   1334
   3032   3006   1956
   3136   3083   2484
   3207   3125   2860
   3281   3175   3129
   3198   3446   2003
   3315   3532   2530
   3434   3590   2936
   3514   3600   3191
   3634   3657   3387
   2592   678   560
   2696   781   990
   2836   944   1532
   2953   1124   2099
   2994   1238   2488
   2793   1365   723
   2922   1575   1245
   3046   1763   1829
   3136   1915   2349
   3171   1998   2688
   3042   2235   1024
   3161   2441   1656
   3260   2575   2229
   3322   2656   2654
   3364   2712   2938
   3271   2982   1626
   3375   3107   2166
   3486   3180   2650
   3550   3209   2969
   3623   3242   3195
   3522   3516   2251
   3661   3609   2720
   3796   3673   3071
   3864   3662   3277
   3946   3690   3447
