Resources/LUT/Curahee.3dl
# 17x17x17 .3dl lookup table from LUT Buddy
   0   64   128   192   256   320   384   448   512   576   640   704   768   832   896   960   1023
   0   0   0
   3   0   25
   4   3   171
   13   9   262
   24   21   365
   48   41   487
   76   70   633
   119   107   774
   169   158   928
   221   207   1073
   275   261   1228
   327   311   1374
   385   372   1530
   441   428   1687
   488   475   1824
   536   526   1967
   581   569   2099
   31   205   11
   40   209   13
   58   249   196
   81   268   301
   104   305   427
   144   336   561
   180   371   706
   224   407   847
   271   454   1001
   318   494   1145
   372   547   1303
   420   590   1450
   472   642   1604
   522   688   1758
   568   732   1893
   614   777   2034
   658   821   2167
   73   362   29
   86   368   32
   120   433   226
   151   454   341
   179   491   477
   219   521   610
   252   554   754
   294   587   894
   339   631   1048
   384   667   1192
   437   719   1353
   482   757   1499
   535   808   1654
   583   852   1809
   627   895   1945
   672   940   2081
   718   984   2213
   141   541   60
   157   547   64
   203   625   273
   236   648   398
   264   687   535
   302   714   669
   333   746   811
   374   776   950
   418   819   1105
   460   851   1249
   512   903   1411
   555   937   1557
   607   988   1713
   654   1030   1868
   698   1072   2003
   742   1116   2136
   788   1160   2264
   224   729   106
   240   736   111
   295   826   338
   328   851   465
   356   890   602
   393   918   735
   423   949   877
   462   976   1015
   505   1019   1171
   546   1049   1315
   598   1101   1479
   639   1132   1626
   691   1184   1783
   738   1224   1938
   780   1265   2071
   823   1310   2198
   871   1355   2322
   316   929   170
   331   935   175
   393   1038   411
   427   1065   539
   455   1105   676
   492   1133   808
   521   1164   950
   559   1189   1088
   602   1235   1246
   642   1262   1392
   693   1315   1556
   734   1345   1704
   785   1397   1860
   831   1435   2016
   873   1475   2145
   917   1521   2266
   965   1567   2385
   414   1140   240
   430   1147   245
   498   1264   490
   533   1292   620
   561   1334   757
   597   1361   890
   627   1395   1032
   665   1420   1171
   707   1465   1330
   746   1491   1476
   798   1545   1642
   837   1572   1790
   888   1624   1946
   935   1663   2102
   976   1701   2224
   1019   1747   2337
   1069   1796   2454
   520   1366   315
   536   1376   338
   609   1505   577
   646   1538   708
   675   1579   845
   712   1607   979
   742   1641   1123
   779   1665   1262
   823   1712   1424
   861   1736   1570
   913   1790   1738
   952   1815   1887
   1003   1867   2041
   1048   1900   2188
   1089   1936   2305
   1131   1979   2409
   1185   2026   2525
   634   1614   397
   652   1623   460
   730   1763   671
   768   1796   803
   797   1837   941
   834   1867   1075
   865   1901   1222
   901   1921   1362
   947   1968   1526
   985   1989   1674
   1038   2040   1842
   1075   2059   1991
   1126   2103   2139
   1171   2133   2280
   1212   2164   2390
   1254   2203   2486
   1311   2248   2600
   755   1873   482
   776   1885   572
   857   2027   770
   896   2058   904
   926   2097   1044
   965   2121   1180
   997   2151   1329
   1033   2169   1471
   1080   2212   1637
   1117   2227   1785
   1171   2272   1956
   1207   2287   2098
   1257   2326   2237
   1303   2352   2371
   1341   2376   2474
   1382   2412   2564
   1439   2452   2674
   884   2135   572
   908   2145   686
   992   2273   877
   1033   2303   1013
   1063   2335   1155
   1102   2355   1293
   1134   2380   1443
   1171   2396   1588
   1218   2433   1755
   1254   2444   1903
   1308   2484   2068
   1345   2496   2204
   1393   2529   2336
   1462   2559   2465
   1547   2584   2568
   1614   2618   2653
   1691   2660   2765
   1018   2371   663
   1043   2382   803
   1131   2494   990
   1174   2521   1128
   1204   2549   1273
   1243   2566   1412
   1277   2589   1566
   1313   2602   1711
   1362   2635   1882
   1413   2647   2027
   1506   2686   2188
   1580   2699   2319
   1643   2730   2445
   1703   2752   2567
   1749   2772   2659
   1793   2798   2736
   1859   2837   2844
   1162   2591   762
   1190   2601   926
   1278   2701   1113
   1323   2724   1253
   1353   2748   1400
   1405   2764   1544
   1464   2788   1705
   1548   2802   1858
   1613   2832   2025
   1669   2841   2162
   1724   2870   2308
   1771   2879   2430
   1818   2904   2545
   1867   2922   2661
   1905   2938   2746
   1942   2963   2818
   2004   2998   2920
   1328   2804   872
   1410   2819   1073
   1511   2902   1261
   1586   2925   1409
   1615   2942   1555
   1674   2955   1705
   1704   2974   1861
   1757   2984   2006
   1802   3009   2159
   1847   3015   2289
   1891   3039   2424
   1933   3046   2539
   1971   3065   2646
   2013   3080   2753
   2048   3092   2833
   2081   3113   2897
   2142   3142   2995
   1597   3003   1008
   1661   3016   1233
   1726   3083   1418
   1792   3103   1571
   1808   3117   1718
   1862   3128   1865
   1883   3140   2012
   1928   3146   2148
   1963   3166   2291
   2005   3170   2413
   2043   3190   2539
   2081   3195   2648
   2114   3208   2746
   2154   3222   2845
   2185   3231   2919
   2216   3248   2978
   2277   3276   3073
   1796   3179   1249
   1852   3188   1402
   1902   3241   1584
   1963   3254   1738
   1973   3265   1878
   2024   3275   2020
   2041   3285   2157
   2084   3290   2285
   2112   3304   2419
   2150   3307   2533
   2186   3323   2652
   2220   3326   2753
   2250   3335   2843
   2289   3348   2935
   2318   3356   3005
   2345   3369   3058
   2405   3399   3150
   1964   3329   1430
   2022   3341   1581
   2060   3379   1755
   2119   3389   1902
   2125   3397   2035
   2174   3403   2170
   2190   3413   2300
   2231   3417   2420
   2255   3430   2547
   2290   3432   2653
   2321   3448   2761
   2353   3450   2856
   2379   3461   2937
   2415   3473   3023
   2442   3480   3087
   2467   3495   3134
   2527   3530   3221
   42   1   0
   57   3   2
   55   5   171
   80   14   265
   87   26   368
   127   49   494
   154   77   638
   212   118   781
   257   168   934
   322   228   1086
   377   286   1243
   435   338   1391
   491   393   1544
   548   448   1700
   596   494   1833
   647   544   1980
   695   588   2108
   101   212   15
   130   220   20
   141   259   201
   189   285   312
   204   317   437
   259   353   574
   284   386   716
   341   424   858
   381   469   1012
   437   511   1156
   489   564   1315
   541   607   1462
   594   659   1617
   648   706   1770
   695   750   1906
   744   796   2049
   793   839   2177
   165   373   36
   205   385   44
   226   445   235
   280   473   358
   293   506   489
   350   540   627
   372   571   767
   428   606   909
   466   649   1062
   520   687   1207
   570   738   1367
   622   777   1514
   674   828   1669
   727   873   1825
   774   915   1959
   821   961   2099
   874   1005   2226
   252   553   70
   294   566   80
   323   638   288
   378   668   419
   392   702   551
   449   735   688
   469   765   827
   524   797   968
   561   839   1121
   613   874   1268
   663   925   1429
   714   960   1577
   768   1012   1732
   821   1055   1890
   868   1097   2022
   915   1141   2157
   967   1186   2279
   348   742   120
   391   756   134
   426   841   355
   484   873   488
   497   908   620
   555   940   756
   574   969   896
   630   1000   1037
   668   1043   1191
   720   1075   1338
   771   1127   1501
   821   1161   1650
   874   1212   1805
   925   1252   1962
   971   1294   2093
   1019   1339   2221
   1073   1385   2342
   451   943   186
   495   957   200
   538   1055   430
   600   1089   565
   614   1125   697
   673   1159   834
   693   1189   973
   747   1218   1114
   784   1261   1270
   837   1292   1417
   887   1345   1582
   936   1376   1731
   989   1428   1887
   1041   1468   2044
   1087   1509   2170
   1133   1554   2292
   1188   1600   2407
   565   1156   258
   612   1172   273
   660   1282   512
   724   1320   649
   736   1356   780
   798   1392   919
   816   1422   1057
   872   1451   1200
   909   1495   1357
   961   1524   1506
   1012   1579   1672
   1061   1607   1822
   1114   1660   1977
   1165   1697   2131
   1211   1737   2251
   1258   1784   2362
   1316   1832   2478
   686   1386   335
   736   1404   384
   789   1528   601
   856   1568   740
   868   1606   872
   931   1640   1011
   949   1670   1151
   1007   1700   1296
   1044   1745   1455
   1097   1772   1605
   1148   1828   1772
   1196   1853   1922
   1249   1904   2075
   1302   1939   2221
   1347   1974   2334
   1393   2016   2439
   1456   2061   2550
   814   1634   418
   870   1654   501
   926   1788   698
   997   1831   838
   1007   1867   971
   1073   1901   1111
   1091   1931   1253
   1151   1959   1400
   1189   2003   1562
   1242   2025   1712
   1294   2075   1880
   1342   2095   2029
   1395   2139   2174
   1449   2170   2313
   1494   2200   2421
   1539   2239   2517
   1603   2282   2627
   952   1896   505
   1012   1918   613
   1070   2051   800
   1147   2094   943
   1155   2125   1078
   1223   2154   1220
   1242   2181   1366
   1303   2204   1513
   1343   2245   1679
   1398   2263   1828
   1450   2307   1997
   1499   2323   2138
   1550   2360   2274
   1601   2388   2408
   1642   2412   2506
   1684   2446   2597
   1745   2486   2705
   1097   2156   596
   1163   2178   730
   1223   2297   911
   1303   2332   1055
   1312   2361   1192
   1383   2385   1338
   1401   2411   1485
   1464   2427   1634
   1503   2463   1800
   1557   2477   1951
   1607   2516   2111
   1653   2529   2246
   1699   2564   2375
   1748   2588   2501
   1784   2608   2592
   1824   2640   2678
   1885   2678   2781
   1249   2391   690
   1321   2412   849
   1382   2517   1028
   1466   2550   1176
   1474   2574   1315
   1546   2595   1462
   1564   2617   1612
   1625   2633   1763
   1662   2665   1930
   1712   2677   2074
   1757   2710   2224
   1799   2720   2352
   1841   2749   2470
   1888   2770   2589
   1923   2788   2679
   1958   2814   2757
   2018   2850   2858
   1412   2609   791
   1490   2631   977
   1549   2724   1156
   1630   2751   1306
   1638   2772   1447
   1707   2790   1598
   1723   2809   1749
   1780   2821   1900
   1814   2849   2060
   1861   2857   2195
   1903   2887   2337
   1942   2895   2457
   1979   2918   2567
   2023   2937   2682
   2055   2951   2765
   2088   2974   2835
   2149   3008   2934
   1587   2821   904
   1663   2838   1118
   1716   2916   1297
   1792   2940   1450
   1799   2956   1592
   1862   2970   1745
   1877   2987   1896
   1932   2997   2040
   1963   3020   2190
   2007   3027   2315
   2045   3052   2450
   2081   3056   2562
   2117   3075   2667
   2158   3091   2774
   2188   3102   2850
   2219   3122   2915
   2278   3152   3010
   1757   3011   1087
   1830   3027   1270
   1877   3093   1451
   1950   3113   1608
   1954   3125   1751
   2014   3137   1901
   2028   3149   2043
   2078   3157   2179
   2109   3176   2321
   2149   3180   2439
   2185   3200   2564
   2220   3203   2670
   2250   3217   2767
   2290   3231   2865
   2317   3240   2935
   2346   3255   2994
   2405   3282   3088
   1922   3184   1283
   1992   3197   1438
   2029   3246   1617
   2100   3262   1773
   2104   3273   1911
   2161   3282   2051
   2174   3292   2188
   2222   3298   2317
   2248   3313   2448
   2287   3316   2560
   2318   3330   2676
   2351   3332   2775
   2378   3342   2862
   2414   3354   2955
   2441   3362   3021
   2467   3376   3074
   2525   3406   3161
   2074   3332   1461
   2145   3344   1616
   2174   3379   1785
   2242   3393   1936
   2245   3401   2065
   2301   3409   2202
   2311   3418   2330
   2356   3422   2449
   2381   3438   2574
   2416   3440   2678
   2443   3455   2784
   2474   3456   2876
   2499   3465   2955
   2534   3479   3040
   2558   3486   3102
   2581   3501   3148
   2637   3536   3233
   211   10   8
   260   19   16
   232   18   180
   291   34   283
   277   43   385
   344   73   520
   359   107   661
   427   162   809
   461   211   961
   521   263   1108
   568   318   1265
   622   369   1412
   674   423   1564
   728   476   1721
   774   521   1853
   822   573   2003
   870   615   2127
   289   232   29
   351   250   41
   341   286   219
   409   319   339
   403   346   461
   470   385   601
   479   414   738
   541   455   881
   571   497   1033
   627   539   1178
   672   591   1336
   723   634   1483
   774   685   1636
   825   732   1792
   871   774   1924
   916   821   2069
   965   862   2192
   356   398   53
   418   417   68
   418   471   257
   487   504   389
   484   533   514
   551   571   654
   559   598   790
   620   635   933
   650   677   1085
   705   715   1230
   751   767   1390
   800   804   1536
   851   856   1692
   901   900   1849
   947   941   1978
   992   987   2120
   1042   1029   2241
   433   575   91
   496   595   109
   505   663   314
   575   698   450
   574   728   576
   641   764   715
   649   791   851
   710   826   993
   739   867   1145
   793   901   1292
   840   953   1452
   888   988   1601
   940   1040   1755
   990   1082   1912
   1035   1123   2042
   1081   1169   2179
   1132   1212   2296
   521   764   145
   583   784   166
   601   864   381
   674   901   518
   673   933   645
   740   968   784
   749   995   920
   809   1028   1062
   839   1070   1215
   894   1103   1362
   941   1156   1525
   989   1187   1673
   1041   1240   1829
   1091   1280   1985
   1137   1321   2112
   1182   1367   2243
   1235   1410   2357
   616   963   210
   681   984   230
   706   1078   455
   781   1117   594
   780   1149   721
   850   1187   861
   858   1213   997
   920   1246   1140
   951   1289   1295
   1006   1320   1443
   1054   1375   1608
   1102   1404   1756
   1155   1457   1911
   1205   1496   2068
   1249   1536   2189
   1296   1582   2312
   1352   1628   2424
   723   1177   281
   787   1198   301
   820   1305   537
   899   1348   677
   897   1381   805
   969   1420   946
   979   1448   1083
   1042   1479   1227
   1073   1524   1384
   1129   1552   1533
   1178   1608   1699
   1226   1635   1848
   1280   1689   2002
   1331   1726   2156
   1376   1766   2270
   1421   1812   2384
   1480   1859   2494
   838   1407   357
   908   1431   424
   945   1550   626
   1027   1596   769
   1026   1630   897
   1102   1669   1039
   1111   1698   1178
   1175   1727   1323
   1208   1775   1483
   1264   1801   1633
   1314   1857   1800
   1363   1881   1949
   1416   1932   2100
   1466   1965   2244
   1512   2000   2353
   1558   2042   2459
   1618   2085   2567
   964   1655   439
   1038   1681   535
   1080   1811   723
   1167   1858   867
   1165   1891   996
   1243   1930   1141
   1253   1959   1282
   1319   1984   1429
   1353   2029   1591
   1411   2052   1743
   1461   2102   1909
   1510   2120   2057
   1561   2164   2198
   1614   2194   2337
   1656   2223   2439
   1698   2261   2537
   1759   2301   2642
   1100   1916   526
   1179   1944   646
   1224   2074   827
   1316   2117   973
   1313   2146   1105
   1394   2179   1252
   1404   2205   1395
   1473   2228   1545
   1509   2269   1709
   1566   2285   1859
   1617   2330   2026
   1662   2344   2165
   1711   2382   2298
   1759   2407   2429
   1796   2432   2525
   1837   2468   2619
   1896   2505   2721
   1246   2174   617
   1331   2200   764
   1377   2315   938
   1473   2355   1088
   1470   2378   1221
   1553   2407   1371
   1564   2430   1516
   1631   2449   1668
   1666   2484   1834
   1720   2499   1983
   1766   2538   2140
   1808   2551   2272
   1853   2584   2398
   1898   2606   2522
   1932   2625   2611
   1969   2658   2697
   2028   2695   2798
   1400   2408   712
   1490   2433   884
   1538   2534   1058
   1634   2568   1210
   1631   2590   1346
   1709   2614   1497
   1720   2635   1645
   1783   2651   1798
   1816   2683   1963
   1866   2695   2104
   1909   2729   2252
   1948   2738   2377
   1988   2767   2495
   2031   2787   2611
   2062   2803   2697
   2098   2830   2777
   2155   2865   2875
   1562   2623   813
   1656   2647   1012
   1698   2737   1187
   1790   2768   1342
   1787   2787   1481
   1861   2806   1634
   1871   2824   1784
   1931   2837   1935
   1959   2865   2092
   2006   2872   2223
   2045   2902   2363
   2083   2909   2482
   2119   2933   2590
   2159   2950   2702
   2189   2964   2782
   2222   2988   2854
   2280   3020   2950
   1731   2833   927
   1819   2852   1155
   1856   2927   1330
   1942   2953   1488
   1939   2967   1627
   2008   2984   1783
   2018   3001   1932
   2074   3010   2073
   2100   3034   2220
   2144   3040   2345
   2181   3066   2476
   2216   3069   2587
   2250   3088   2690
   2288   3102   2794
   2316   3112   2868
   2345   3133   2934
   2403   3161   3026
   1894   3022   1138
   1979   3042   1311
   2011   3102   1487
   2090   3123   1648
   2086   3135   1787
   2153   3146   1937
   2161   3159   2076
   2215   3167   2212
   2240   3186   2350
   2281   3190   2467
   2313   3210   2589
   2346   3212   2693
   2376   3228   2788
   2412   3240   2885
   2438   3248   2952
   2464   3263   3014
   2522   3290   3103
   2050   3193   1320
   2128   3206   1478
   2156   3253   1653
   2234   3272   1812
   2230   3280   1946
   2291   3290   2088
   2299   3300   2220
   2348   3305   2347
   2372   3322   2478
   2410   3322   2587
   2439   3338   2701
   2469   3340   2797
   2496   3351   2883
   2530   3362   2973
   2554   3368   3035
   2580   3384   3091
   2637   3414   3178
   2198   3338   1502
   2274   3352   1657
   2295   3386   1821
   2366   3401   1973
   2364   3408   2101
   2420   3416   2235
   2429   3425   2360
   2474   3430   2481
   2497   3446   2603
   2531   3446   2704
   2557   3462   2808
   2588   3463   2898
   2610   3474   2976
   2643   3487   3061
   2663   3492   3117
   2688   3509   3166
   2741   3543   3247
   346   22   19
   422   37   32
   377   33   193
   453   55   302
   436   70   409
   513   113   550
   516   147   686
   585   198   832
   609   242   982
   671   294   1129
   715   348   1285
   768   398   1433
   819   452   1585
   870   504   1740
   917   549   1873
   962   598   2021
   1012   641   2142
   436   255   45
   512   281   63
   490   313   238
   568   350   367
   553   373   485
   627   415   626
   628   441   759
   694   483   903
   718   524   1054
   776   566   1199
   820   618   1358
   869   659   1503
   921   711   1658
   969   756   1812
   1016   798   1942
   1059   845   2090
