Resources/LUT/Curahee.3dl
# 17x17x17 .3dl lookup table from LUT Buddy
0 128 256 384 512 640 768 896 1023
   0   0   0
   4   3   171
   24   21   365
   76   70   633
   169   158   928
   275   261   1228
   385   372   1530
   488   475   1824
   581   569   2099
   73   362   29
   120   433   226
   179   491   477
   252   554   754
   339   631   1048
   437   719   1353
   535   808   1654
   627   895   1945
   718   984   2213
   224   729   106
   295   826   338
   356   890   602
   423   949   877
   505   1019   1171
   598   1101   1479
   691   1184   1783
   780   1265   2071
   871   1355   2322
   414   1140   240
   498   1264   490
   561   1334   757
   627   1395   1032
   707   1465   1330
   798   1545   1642
   888   1624   1946
   976   1701   2224
   1069   1796   2454
   634   1614   397
   730   1763   671
   797   1837   941
   865   1901   1222
   947   1968   1526
   1038   2040   1842
   1126   2103   2139
   1212   2164   2390
   1311   2248   2600
   884   2135   572
   992   2273   877
   1063   2335   1155
   1134   2380   1443
   1218   2433   1755
   1308   2484   2068
   1393   2529   2336
   1547   2584   2568
   1691   2660   2765
   1162   2591   762
   1278   2701   1113
   1353   2748   1400
   1464   2788   1705
   1613   2832   2025
   1724   2870   2308
   1818   2904   2545
   1905   2938   2746
   2004   2998   2920
   1597   3003   1008
   1726   3083   1418
   1808   3117   1718
   1883   3140   2012
   1963   3166   2291
   2043   3190   2539
   2114   3208   2746
   2185   3231   2919
   2277   3276   3073
   1964   3329   1430
   2060   3379   1755
   2125   3397   2035
   2190   3413   2300
   2255   3430   2547
   2321   3448   2761
   2379   3461   2937
   2442   3480   3087
   2527   3530   3221
   211   10   8
   232   18   180
   277   43   385
   359   107   661
   461   211   961
   568   318   1265
   674   423   1564
   774   521   1853
   870   615   2127
   356   398   53
   418   471   257
   484   533   514
   559   598   790
   650   677   1085
   751   767   1390
   851   856   1692
   947   941   1978
   1042   1029   2241
   521   764   145
   601   864   381
   673   933   645
   749   995   920
   839   1070   1215
   941   1156   1525
   1041   1240   1829
   1137   1321   2112
   1235   1410   2357
   723   1177   281
   820   1305   537
   897   1381   805
   979   1448   1083
   1073   1524   1384
   1178   1608   1699
   1280   1689   2002
   1376   1766   2270
   1480   1859   2494
   964   1655   439
   1080   1811   723
   1165   1891   996
   1253   1959   1282
   1353   2029   1591
   1461   2102   1909
   1561   2164   2198
   1656   2223   2439
   1759   2301   2642
   1246   2174   617
   1377   2315   938
   1470   2378   1221
   1564   2430   1516
   1666   2484   1834
   1766   2538   2140
   1853   2584   2398
   1932   2625   2611
   2028   2695   2798
   1562   2623   813
   1698   2737   1187
   1787   2787   1481
   1871   2824   1784
   1959   2865   2092
   2045   2902   2363
   2119   2933   2590
   2189   2964   2782
   2280   3020   2950
   1894   3022   1138
   2011   3102   1487
   2086   3135   1787
   2161   3159   2076
   2240   3186   2350
   2313   3210   2589
   2376   3228   2788
   2438   3248   2952
   2522   3290   3103
   2198   3338   1502
   2295   3386   1821
   2364   3408   2101
   2429   3425   2360
   2497   3446   2603
   2557   3462   2808
   2610   3474   2976
   2663   3492   3117
   2741   3543   3247
   494   40   35
   537   64   214
   593   108   439
   668   183   712
   761   278   1006
   865   383   1309
   967   484   1607
   1064   579   1893
   1155   669   2158
   646   449   97
   713   524   312
   781   588   566
   858   654   839
   950   735   1132
   1053   824   1438
   1154   914   1738
   1246   996   2019
   1340   1082   2275
   806   812   199
   893   915   436
   969   986   699
   1051   1052   973
   1147   1131   1269
   1254   1218   1580
   1355   1302   1880
   1448   1381   2156
   1546   1469   2392
   1008   1226   332
   1116   1358   594
   1200   1438   862
   1290   1508   1141
   1392   1589   1443
   1503   1676   1760
   1605   1757   2058
   1696   1828   2312
   1795   1916   2529
   1256   1706   489
   1383   1865   782
   1477   1949   1059
   1571   2016   1346
   1679   2090   1658
   1787   2160   1976
   1877   2220   2252
   1958   2274   2481
   2048   2347   2677
   1545   2219   668
   1688   2360   1004
   1783   2424   1290
   1874   2476   1589
   1970   2532   1907
   2061   2586   2203
   2138   2627   2448
   2207   2666   2651
   2294   2730   2832
   1854   2659   867
   1984   2771   1259
   2069   2820   1556
   2148   2859   1862
   2235   2901   2161
   2314   2939   2422
   2379   2966   2639
   2440   2994   2820
   2523   3048   2983
   2155   3047   1230
   2266   3126   1568
   2340   3157   1865
   2413   3184   2150
   2486   3211   2415
   2552   3233   2645
   2607   3250   2832
   2662   3266   2988
   2738   3307   3134
   2430   3353   1586
   2523   3401   1904
   2588   3425   2176
   2651   3445   2432
   2713   3465   2664
   2767   3482   2860
   2812   3492   3017
   2858   3509   3148
   2928   3562   3275
   805   112   87
   849   146   275
   909   199   510
   983   269   775
   1077   361   1064
   1182   461   1366
   1284   559   1662
   1375   648   1942
   1465   736   2200
   945   516   165
   1017   592   380
   1090   656   632
   1172   725   901
   1270   806   1193
   1379   897   1499
   1478   984   1795
   1567   1063   2069
   1657   1147   2315
   1104   873   265
   1201   979   504
   1284   1053   765
   1374   1123   1038
   1478   1205   1336
   1591   1296   1646
   1690   1379   1943
   1777   1453   2207
   1868   1538   2433
   1314   1287   395
   1431   1425   662
   1525   1509   931
   1622   1584   1212
   1730   1667   1516
   1842   1758   1833
   1933   1834   2121
   2009   1899   2362
   2092   1980   2569
   1569   1771   552
   1706   1933   854
   1806   2017   1132
   1901   2085   1423
   2003   2159   1737
   2098   2229   2051
   2176   2283   2313
   2242   2331   2528
   2321   2399   2717
   1860   2273   731
   1994   2412   1081
   2084   2477   1370
   2169   2529   1671
   2258   2587   1988
   2343   2641   2274
   2407   2677   2505
   2465   2710   2696
   2542   2772   2871
   2136   2700   937
   2257   2811   1344
   2337   2860   1644
   2413   2900   1947
   2494   2943   2237
   2566   2979   2487
   2619   3002   2692
   2671   3025   2862
   2744   3077   3019
   2406   3078   1324
   2509   3153   1660
   2579   3185   1953
   2645   3212   2230
   2713   3239   2486
   2773   3261   2706
   2817   3272   2879
   2862   3287   3027
   2927   3327   3165
   2648   3370   1682
   2736   3420   1991
   2794   3445   2258
   2851   3467   2508
   2908   3490   2730
   2955   3507   2913
   2992   3516   3061
   3031   3529   3181
   3098   3583   3303
   1125   210   167
   1177   247   358
   1242   300   591
   1322   369   849
   1421   455   1135
   1530   552   1436
   1632   646   1730
   1715   730   1999
   1799   814   2248
   1264   595   243
   1345   671   460
   1426   738   709
   1515   807   975
   1618   889   1265
   1734   983   1572
   1831   1068   1864
   1908   1142   2129
   1988   1221   2359
   1430   948   340
   1536   1057   582
   1627   1134   843
   1724   1207   1116
   1833   1293   1414
   1944   1387   1725
   2032   1467   2016
   2100   1536   2264
   2175   1618   2478
   1646   1362   468
   1774   1506   742
   1872   1592   1011
   1969   1671   1294
   2070   1759   1600
   2169   1851   1916
   2244   1920   2192
   2303   1976   2415
   2374   2051   2612
   1906   1849   624
   2038   2011   937
   2128   2093   1218
   2217   2163   1513
   2306   2235   1828
   2392   2302   2132
   2455   2349   2375
   2511   2392   2579
   2576   2456   2759
   2165   2335   805
   2287   2471   1170
   2368   2535   1463
   2448   2591   1767
   2531   2648   2078
   2604   2698   2348
   2657   2731   2563
   2704   2760   2743
   2768   2815   2908
   2406   2750   1080
   2518   2857   1441
   2590   2905   1743
   2661   2945   2039
   2733   2987   2318
   2796   3023   2556
   2840   3042   2747
   2880   3061   2904
   2942   3106   3055
   2643   3111   1428
   2735   3184   1761
   2800   3216   2046
   2860   3243   2315
   2920   3268   2560
   2971   3290   2767
   3006   3298   2929
   3042   3311   3066
   3099   3350   3197
   2854   3392   1785
   2928   3444   2085
   2981   3470   2346
   3033   3494   2586
   3084   3519   2797
   3128   3537   2970
   3160   3541   3103
   3201   3553   3216
   3273   3606   3332
   1475   316   256
   1533   355   449
   1605   408   680
   1695   478   936
   1799   561   1218
   1911   656   1519
   2005   747   1808
   2075   825   2069
   2139   904   2304
   1615   685   330
   1704   762   547
   1791   830   795
   1886   902   1059
   1991   986   1351
   2098   1081   1656
   2181   1165   1944
   2240   1233   2195
   2298   1307   2410
   1787   1035   425
   1900   1147   671
   1993   1227   930
   2088   1306   1205
   2185   1394   1503
   2282   1490   1814
   2353   1568   2096
   2404   1631   2324
   2461   1708   2527
   2003   1452   551
   2122   1597   830
   2210   1688   1102
   2297   1772   1388
   2387   1862   1696
   2474   1950   2008
   2535   2012   2266
   2580   2060   2473
   2637   2126   2658
   2229   1938   706
   2347   2096   1031
   2428   2177   1314
   2507   2244   1612
   2590   2317   1926
   2665   2382   2215
   2715   2424   2444
   2755   2457   2631
   2811   2519   2805
   2451   2403   889
   2562   2537   1271
   2636   2601   1566
   2708   2656   1871
   2779   2710   2166
   2844   2760   2425
   2885   2787   2626
   2921   2811   2792
   2973   2861   2949
   2662   2802   1205
   2758   2906   1549
   2824   2954   1849
   2887   2994   2134
   2948   3036   2400
   3001   3068   2627
   3035   3082   2803
   3067   3099   2949
   3116   3140   3092
   2861   3147   1541
   2943   3217   1867
   2998   3249   2144
   3049   3276   2401
   3103   3302   2638
   3146   3321   2832
   3175   3327   2981
   3206   3337   3105
   3267   3378   3228
   3037   3418   1893
   3102   3471   2185
   3150   3499   2437
   3202   3525   2666
   3256   3553   2866
   3301   3569   3027
   3335   3571   3147
   3373   3579   3250
   3453   3630   3357
   1854   429   352
   1918   471   546
   1995   526   777
   2084   596   1031
   2182   681   1314
   2282   776   1614
   2359   863   1897
   2405   933   2144
   2452   1004   2362
   1995   785   423
   2085   864   643
   2166   933   890
   2252   1009   1155
   2344   1096   1447
   2436   1193   1753
   2502   1273   2034
   2541   1335   2262
   2589   1406   2467
   2157   1134   518
   2257   1250   766
   2337   1332   1026
   2419   1414   1302
   2506   1508   1604
   2591   1606   1914
   2648   1680   2180
   2683   1734   2390
   2728   1804   2580
   2340   1553   643
   2444   1704   929
   2520   1796   1202
   2597   1880   1491
   2677   1969   1801
   2752   2053   2103
   2799   2107   2342
   2831   2145   2534
   2876   2204   2708
   2529   2032   799
   2633   2185   1134
   2704   2262   1420
   2775   2330   1721
   2846   2401   2029
   2910   2465   2302
   2948   2502   2514
   2977   2529   2687
   3020   2582   2849
   2717   2478   996
   2814   2608   1381
   2876   2669   1678
   2939   2723   1977
   3001   2778   2259
   3055   2823   2501
   3084   2845   2689
   3110   2864   2842
   3152   2910   2990
   2894   2859   1334
   2975   2959   1664
   3032   3006   1956
   3084   3044   2230
   3136   3083   2484
   3181   3113   2700
   3207   3125   2860
   3232   3136   2993
   3281   3175   3129
   3055   3186   1661
   3124   3254   1975
   3173   3284   2242
   3221   3311   2491
   3274   3338   2715
   3318   3356   2894
   3345   3360   3030
   3375   3367   3143
   3439   3408   3260
   3198   3446   2003
   3261   3501   2287
   3315   3532   2530
   3373   3562   2749
   3434   3590   2936
   3484   3604   3081
   3514   3600   3191
   3551   3607   3283
   3634   3657   3387
   2244   550   453
   2303   594   648
   2369   651   881
   2445   722   1135
   2530   808   1419
   2615   905   1719
   2675   988   1997
   2705   1050   2224
   2740   1115   2424
   2361   894   523
   2435   975   744
   2505   1047   992
   2580   1124   1258
   2660   1216   1552
   2740   1315   1858
   2791   1392   2125
   2818   1447   2334
   2849   1509   2521
   2494   1245   617
   2577   1363   869
   2648   1449   1132
   2721   1535   1411
   2795   1632   1714
   2866   1732   2019
   2909   1798   2264
   2933   1842   2457
   2966   1901   2632
   2643   1664   742
   2733   1818   1036
   2800   1910   1312
   2867   1993   1604
   2934   2076   1913
   2998   2157   2199
   3031   2203   2418
   3051   2232   2593
   3087   2285   2760
   2803   2132   900
   2890   2277   1247
   2949   2351   1534
   3009   2419   1835
   3069   2488   2131
   3122   2549   2387
   3149   2580   2584
   3168   2601   2742
   3201   2646   2893
   2956   2557   1186
   3035   2679   1498
   3088   2738   1794
   3140   2791   2081
   3191   2844   2350
   3236   2889   2580
   3258   2905   2751
   3276   2918   2891
   3315   2961   3031
   3097   2920   1477
   3164   3014   1782
   3211   3056   2062
   3259   3094   2326
   3311   3133   2568
   3353   3159   2768
   3375   3168   2916
   3397   3175   3036
   3449   3209   3163
   3224   3226   1790
   3285   3289   2082
   3336   3320   2340
   3392   3347   2580
   3450   3376   2789
   3497   3396   2957
   3521   3396   3078
   3548   3401   3179
   3615   3442   3291
   3357   3477   2116
   3428   3537   2392
   3487   3569   2624
   3552   3601   2831
   3618   3630   3004
   3668   3642   3137
   3692   3633   3234
   3727   3633   3316
   3812   3679   3417
   2592   678   560
   2640   724   755
   2696   781   990
   2763   854   1246
   2836   944   1532
   2907   1043   1831
   2953   1124   2099
   2972   1178   2305
   2994   1238   2488
   2684   1012   628
   2748   1095   852
   2806   1169   1101
   2871   1251   1371
   2940   1346   1666
   3005   1448   1969
   3044   1520   2217
   3058   1566   2408
   3080   1624   2581
   2793   1365   723
   2865   1487   980
   2922   1575   1245
   2983   1664   1525
   3046   1763   1829
   3105   1858   2123
   3136   1915   2349
   3148   1947   2523
   3171   1998   2688
   2914   1788   849
   2988   1938   1150
   3044   2022   1428
   3099   2102   1721
   3156   2184   2023
   3205   2259   2292
   3230   2298   2495
   3241   2319   2653
   3266   2365   2810
   3042   2235   1024
   3112   2370   1366
   3161   2441   1656
   3210   2508   1949
   3260   2575   2229
   3303   2631   2472
   3322   2656   2654
   3333   2670   2795
   3364   2712   2938
   3163   2640   1339
   3225   2754   1623
   3269   2808   1909
   3315   2859   2183
   3366   2911   2440
   3410   2952   2656
   3429   2965   2813
   3442   2972   2938
   3482   3008   3070
   3271   2982   1626
   3327   3067   1899
   3375   3107   2166
   3428   3144   2419
   3486   3180   2650
   3532   3205   2836
   3550   3209   2969
   3568   3212   3079
   3623   3242   3195
   3385   3269   1933
   3449   3327   2192
   3505   3357   2439
   3567   3389   2667
   3632   3421   2863
   3680   3439   3017
   3699   3435   3125
   3721   3436   3216
   3791   3473   3317
   3522   3516   2251
   3595   3576   2499
   3661   3609   2720
   3729   3640   2912
   3796   3673   3071
   3842   3680   3192
   3864   3662   3277
   3892   3651   3349
   3946   3690   3447
