Resources/LUT/Epic.3dl
# 17x17x17 .3dl lookup table from LUT Buddy
0 256 512 768 1023
   0   0   0
   540   368   1440
   1336   1180   3068
   1763   1763   3688
   2272   2272   4045
   46   1474   72
   351   1589   1290
   1266   1740   3036
   1761   2208   3674
   2262   2554   4038
   199   2971   298
   359   3003   937
   1259   3092   3062
   1844   3157   3694
   2308   3182   4043
   365   3565   486
   484   3574   995
   1106   3638   2750
   1969   3793   3695
   2428   3723   4054
   490   4033   506
   634   4035   1100
   1204   4051   2703
   1922   4064   3533
   2560   4076   4056
   1097   212   142
   1346   549   1366
   1751   1242   3073
   2087   1807   3684
   2486   2299   4040
   794   1576   194
   886   1249   1106
   1567   1626   2839
   1974   2098   3568
   2403   2478   3980
   590   2981   376
   768   2754   1072
   1582   2935   2898
   2096   3030   3585
   2482   3095   3983
   662   3564   527
   816   3445   1062
   1473   3529   2693
   2275   3674   3609
   2635   3615   4011
   788   4023   564
   989   3961   1232
   1647   3998   2755
   2308   4029   3499
   2832   4054   4032
   2658   943   687
   2703   1014   1217
   2947   1547   3135
   2908   1997   3702
   3026   2409   4046
   2698   1650   761
   2451   1601   1177
   2699   1871   2881
   2773   2222   3564
   2943   2555   3971
   2266   3062   734
   2143   2842   1221
   2470   2823   2716
   2682   2890   3442
   2881   3002   3856
   1926   3586   705
   1992   3450   1236
   2336   3404   2627
   2840   3530   3494
   3025   3507   3901
   1861   4022   774
   2039   3908   1559
   2454   3869   2818
   2887   3933   3465
   3213   4000   3987
   3410   1167   1044
   3422   1220   1421
   3553   1679   2997
   3613   2321   3751
   3550   2601   4054
   3430   1631   1075
   3317   1565   1351
   3412   1953   2802
   3512   2500   3624
   3485   2732   4000
   3397   2998   1171
   3314   2829   1528
   3237   2729   2646
   3368   2984   3457
   3399   3080   3857
   3267   3670   1172
   3249   3528   1730
   3225   3419   2805
   3316   3432   3414
   3376   3434   3787
   3051   4032   1227
   3088   3926   2094
   3180   3812   2986
   3329   3819   3457
   3503   3886   3913
   3862   1386   1380
   3869   1467   1693
   3929   1873   2837
   4015   2422   3611
   4052   2860   4065
   3862   1747   1393
   3768   1727   1616
   3807   2089   2720
   3915   2568   3505
   4013   2961   4027
   3874   2829   1464
   3766   2737   1776
   3640   2727   2651
   3764   2994   3400
   3899   3229   3909
   3867   3631   1645
   3762   3502   2131
   3667   3416   2926
   3651   3394   3379
   3805   3496   3821
   3622   4040   1825
   3604   3957   2595
   3639   3868   3220
   3719   3813   3545
   3834   3784   3884
