Resources/LUT/Epic.3dl
# 17x17x17 .3dl lookup table from LUT Buddy
   0   64   128   192   256   320   384   448   512   576   640   704   768   832   896   960   1023
   0   0   0
   0   0   2
   88   57   369
   259   170   884
   540   368   1440
   866   608   1968
   1101   824   2402
   1243   1013   2769
   1336   1180   3068
   1418   1334   3294
   1514   1478   3456
   1620   1618   3581
   1763   1763   3688
   1905   1905   3792
   2039   2040   3895
   2160   2161   3991
   2272   2272   4045
   6   219   9
   6   219   9
   59   238   351
   228   289   855
   504   446   1412
   829   665   1943
   1074   876   2379
   1224   1065   2749
   1325   1235   3051
   1411   1392   3285
   1508   1537   3445
   1616   1678   3576
   1756   1821   3684
   1897   1958   3785
   2031   2087   3887
   2156   2205   3987
   2266   2309   4042
   15   544   24
   15   544   24
   56   606   269
   177   569   844
   456   615   1394
   782   781   1923
   1039   971   2364
   1200   1156   2737
   1311   1326   3041
   1403   1483   3278
   1504   1627   3441
   1614   1767   3572
   1752   1903   3676
   1895   2033   3781
   2029   2153   3885
   2150   2263   3983
   2262   2364   4040
   28   983   44
   28   983   44
   56   1026   206
   160   1099   704
   371   974   1389
   709   1007   1914
   984   1150   2356
   1165   1321   2728
   1292   1485   3035
   1394   1640   3273
   1501   1779   3439
   1614   1911   3568
   1754   2032   3674
   1893   2144   3778
   2028   2252   3880
   2150   2354   3978
   2262   2445   4039
   46   1474   72
   46   1472   71
   68   1504   192
   149   1573   580
   351   1589   1290
   626   1411   1923
   900   1448   2353
   1114   1589   2726
   1266   1740   3036
   1385   1879   3271
   1502   2001   3439
   1620   2110   3568
   1761   2208   3674
   1899   2299   3776
   2032   2387   3879
   2153   2474   3977
   2262   2554   4038
   71   1963   110
   71   1962   110
   90   1981   210
   157   2023   526
   317   2067   1106
   606   1983   1882
   867   1899   2382
   1059   1942   2734
   1239   2067   3042
   1381   2182   3279
   1508   2273   3441
   1632   2357   3571
   1770   2421   3675
   1909   2490   3778
   2039   2559   3879
   2161   2628   3977
   2269   2692   4038
   106   2370   163
   106   2370   163
   124   2382   255
   184   2407   524
   320   2450   1017
   539   2403   1723
   852   2360   2360
   1082   2381   2772
   1227   2429   3059
   1385   2513   3287
   1521   2579   3449
   1650   2634   3576
   1788   2667   3678
   1925   2708   3781
   2053   2754   3883
   2172   2801   3980
   2278   2848   4039
   151   2703   232
   151   2703   232
   169   2709   320
   226   2726   556
   338   2754   970
   509   2746   1575
   773   2697   2235
   1065   2729   2744
   1276   2821   3094
   1409   2854   3308
   1545   2889   3461
   1678   2915   3584
   1813   2920   3685
   1946   2936   3787
   2071   2959   3886
   2188   2987   3985
   2290   3016   4040
   199   2971   298
   199   2970   300
   217   2975   383
   267   2983   588
   359   3003   937
   503   3010   1467
   724   2966   2108
   991   2973   2637
   1259   3092   3062
   1457   3171   3333
   1583   3177   3475
   1714   3173   3594
   1844   3157   3694
   1975   3152   3796
   2095   3156   3895
   2207   3167   3990
   2308   3182   4043
   243   3175   352
   244   3175   358
   262   3178   437
   307   3183   620
   386   3196   930
   512   3209   1404
   699   3172   2003
   939   3177   2532
   1189   3255   2964
   1440   3360   3301
   1629   3415   3495
   1756   3389   3606
   1884   3360   3706
   2007   3341   3805
   2124   3332   3905
   2233   3329   3998
   2331   3331   4046
   287   3330   402
   288   3329   411
   305   3331   486
   345   3335   656
   417   3342   940
   529   3355   1373
   694   3325   1932
   907   3328   2441
   1145   3382   2883
   1385   3466   3221
   1614   3552   3464
   1804   3561   3621
   1927   3522   3721
   2047   3494   3819
   2159   3473   3915
   2266   3460   4005
   2360   3453   4048
   326   3446   446
   329   3446   459
   345   3446   533
   383   3449   696
   449   3455   962
   552   3467   1365
   699   3449   1885
   892   3463   2374
   1116   3511   2812
   1344   3581   3153
   1566   3644   3401
   1792   3675   3585
   1982   3683   3731
   2097   3647   3829
   2203   3617   3923
   2302   3595   4009
   2393   3578   4050
   365   3565   486
   368   3565   503
   386   3565   580
   422   3567   739
   484   3574   995
   578   3585   1369
   707   3585   1838
   892   3597   2317
   1106   3638   2750
   1326   3689   3091
   1540   3736   3341
   1751   3763   3516
   1969   3793   3695
   2148   3804   3845
   2250   3768   3938
   2344   3743   4017
   2428   3723   4054
   405   3698   521
   410   3695   546
   428   3694   625
   463   3697   776
   517   3704   1003
   601   3714   1346
   729   3720   1806
   906   3733   2280
   1110   3764   2704
   1319   3804   3044
   1526   3836   3290
   1727   3862   3463
   1932   3886   3636
   2131   3915   3807
   2302   3932   3955
   2391   3899   4025
   2471   3871   4056
   429   3837   502
   436   3826   536
   455   3826   620
   491   3828   770
   547   3834   1004
   632   3844   1348
   761   3851   1806
   932   3867   2266
   1126   3893   2678
   1326   3920   3009
   1525   3941   3254
   1716   3962   3423
   1911   3984   3584
   2100   4004   3756
   2282   4018   3919
   2440   4029   4034
   2519   4012   4060
   456   3955   490
   465   3953   531
   487   3954   625
   526   3956   787
   585   3960   1032
   674   3970   1384
   805   3976   1836
   970   3989   2278
   1157   4003   2676
   1349   4015   2998
   1538   4025   3231
   1721   4033   3398
   1907   4040   3550
   2088   4048   3720
   2265   4054   3880
   2428   4060   4015
   2567   4066   4065
   490   4033   506
   503   4033   558
   528   4031   666
   570   4033   841
   634   4035   1100
   728   4038   1464
   861   4040   1905
   1025   4045   2329
   1204   4051   2703
   1389   4055   3009
   1567   4059   3226
   1744   4062   3388
   1922   4064   3533
   2097   4066   3694
   2263   4070   3853
   2422   4072   3995
   2560   4076   4056
   4   0   0
   4   0   0
   99   57   359
   270   169   870
   546   364   1424
   872   604   1955
   1111   822   2392
   1253   1010   2760
   1348   1178   3060
   1429   1332   3290
   1526   1476   3448
   1633   1617   3577
   1774   1762   3685
   1917   1904   3789
   2050   2037   3891
   2171   2160   3989
   2283   2270   4044
   14   221   12
   15   221   12
   68   206   302
   237   273   796
   505   431   1355
   827   650   1895
   1081   864   2341
   1231   1053   2720
   1335   1225   3028
   1418   1380   3267
   1515   1526   3432
   1621   1666   3562
   1762   1808   3672
   1903   1945   3774
   2036   2074   3876
   2161   2194   3976
   2271   2301   4038
   22   546   26
   22   546   26
   69   552   255
   187   524   775
   460   590   1331
   785   763   1874
   1049   957   2324
   1211   1143   2705
   1324   1313   3014
   1413   1470   3260
   1513   1614   3426
   1622   1753   3558
   1761   1889   3665
   1902   2019   3768
   2035   2140   3872
   2159   2253   3970
   2269   2353   4036
   35   985   46
   35   984   46
   69   959   206
   179   1031   671
   377   921   1320
   716   978   1859
   997   1128   2311
   1178   1303   2695
   1307   1468   3007
   1407   1623   3253
   1513   1762   3423
   1626   1895   3554
   1764   2016   3660
   1906   2130   3764
   2038   2240   3867
   2159   2341   3966
   2271   2432   4032
   53   1474   73
   53   1474   73
   81   1430   196
   172   1502   575
   366   1521   1239
   630   1357   1860
   915   1410   2305
   1131   1559   2691
   1283   1714   3005
   1402   1858   3252
   1518   1982   3422
   1634   2092   3552
   1773   2189   3659
   1913   2282   3761
   2045   2373   3865
   2165   2461   3962
   2276   2542   4032
   78   1963   111
   79   1963   111
   104   1914   217
   181   1958   530
   341   2005   1088
   619   1925   1830
   878   1842   2328
   1076   1902   2693
   1259   2034   3010
   1400   2153   3253
   1527   2249   3424
   1649   2333   3554
   1789   2403   3659
   1926   2471   3761
   2056   2541   3865
   2175   2611   3962
   2284   2677   4030
   114   2369   165
   115   2369   165
   138   2321   262
   209   2348   533
   347   2394   1014
   563   2350   1692
   869   2308   2314
   1096   2325   2727
   1246   2388   3023
   1406   2482   3262
   1543   2550   3429
   1671   2608   3557
   1809   2645   3660
   1945   2687   3762
   2072   2735   3865
   2189   2784   3962
   2295   2832   4031
   161   2705   234
   161   2691   233
   185   2659   329
   251   2674   569
   368   2703   976
   539   2699   1561
   799   2649   2203
   1088   2685   2705
   1297   2776   3059
   1430   2814   3279
   1570   2858   3439
   1702   2887   3564
   1838   2895   3666
   1969   2914   3767
   2093   2938   3868
   2207   2967   3965
   2311   2999   4032
   210   2970   300
   210   2951   303
   235   2930   395
   293   2941   603
   389   2960   948
   536   2972   1466
   754   2927   2087
   1020   2937   2607
   1287   3053   3030
   1483   3133   3306
   1610   3145   3456
   1743   3143   3574
   1874   3132   3673
   2001   3127   3773
   2119   3133   3873
   2230   3147   3968
   2332   3161   4032
   257   3175   354
   258   3157   361
   281   3141   448
   333   3148   634
   417   3160   942
   547   3177   1408
   734   3141   1991
   974   3145   2508
   1224   3224   2938
   1475   3329   3275
   1661   3387   3472
   1787   3361   3582
   1915   3333   3684
   2038   3318   3782
   2152   3312   3880
   2260   3310   3975
   2357   3312   4036
   301   3330   404
   303   3309   415
   325   3302   497
   372   3305   670
   449   3313   953
   566   3327   1379
   733   3299   1925
   946   3304   2421
   1183   3356   2858
   1425   3438   3198
   1656   3522   3445
   1841   3531   3594
   1964   3492   3694
   2081   3468   3794
   2189   3450   3890
   2292   3442   3983
   2386   3435   4038
   341   3444   447
   344   3424   463
   366   3419   545
   411   3422   710
   483   3427   976
   591   3438   1374
   741   3422   1881
   937   3434   2359
   1162   3482   2792
   1392   3549   3134
   1613   3618   3381
   1837   3650   3565
   2017   3653   3709
   2126   3621   3805
   2232   3593   3903
   2329   3573   3993
   2418   3559   4042
   382   3563   487
   385   3535   508
   408   3533   592
   452   3535   755
   521   3541   1010
   620   3553   1381
   754   3553   1843
   940   3568   2315
   1155   3610   2743
   1374   3663   3081
   1589   3711   3329
   1802   3739   3506
   2014   3767   3681
   2181   3777   3823
   2281   3743   3918
   2373   3719   4004
   2458   3700   4048
   423   3697   523
   428   3661   552
   452   3662   638
   494   3665   795
   553   3673   1022
   641   3686   1365
   774   3693   1822
   955   3707   2288
   1160   3740   2704
   1369   3781   3039
   1579   3812   3286
   1781   3836   3457
   1982   3863   3626
   2176   3890   3794
   2336   3902   3936
   2421   3872   4014
   2502   3845   4052
   449   3828   507
   456   3797   548
   480   3797   634
   520   3802   789
   582   3807   1026
   673   3818   1373
   808   3827   1827
   982   3843   2277
   1179   3869   2684
   1381   3896   3010
   1581   3918   3251
   1772   3937   3417
   1966   3960   3574
   2150   3982   3746
   2327   4003   3904
   2476   4014   4024
   2552   3990   4056
   476   3951   496
   486   3929   542
   513   3929   641
   557   3931   809
   623   3938   1057
   718   3943   1415
   856   3953   1864
   1026   3968   2297
   1215   3985   2686
   1410   4001   3001
   1600   4011   3231
   1785   4020   3394
   1967   4029   3542
   2144   4037   3708
   2315   4047   3867
   2473   4053   4007
   2603   4057   4060
   511   4029   511
   525   4023   566
   556   4021   681
   604   4023   863
   675   4024   1129
   777   4028   1500
   918   4030   1938
   1086   4038   2354
   1269   4044   2719
   1455   4049   3014
   1637   4052   3230
   1815   4056   3384
   1990   4060   3528
   2155   4063   3684
   2321   4066   3844
   2475   4070   3984
   2607   4072   4053
   283   47   31
   284   47   31
   371   95   364
   480   205   887
   702   392   1434
   994   625   1959
   1210   838   2394
   1342   1024   2760
   1430   1189   3058
   1508   1342   3288
   1602   1487   3448
   1706   1626   3577
   1846   1770   3684
   1984   1911   3787
   2109   2044   3889
   2227   2167   3987
   2332   2276   4042
   285   248   39
   287   248   39
   241   208   230
   399   278   656
   616   426   1217
   906   639   1781
   1157   856   2255
   1296   1042   2657
   1394   1211   2981
   1470   1363   3233
   1563   1508   3408
   1666   1647   3540
   1804   1788   3649
   1943   1928   3753
   2073   2058   3858
   2194   2179   3959
   2302   2289   4030
   196   579   48
   198   579   48
   217   435   271
   319   429   621
   563   549   1171
   858   734   1736
   1121   936   2219
   1272   1121   2628
   1378   1291   2958
   1459   1444   3215
   1554   1587   3396
   1658   1723   3528
   1797   1861   3639
   1937   1993   3743
   2064   2114   3845
   2184   2229   3946
   2295   2335   4024
   154   1005   64
   156   1005   64
   196   818   265
   308   881   642
   463   810   1165
   787   922   1727
   1068   1091   2211
   1240   1273   2622
   1361   1439   2952
   1456   1593   3211
   1556   1732   3394
   1665   1865   3525
   1802   1988   3636
   1940   2104   3739
   2070   2216   3843
   2187   2319   3942
   2297   2414   4022
   144   1489   88
   146   1489   88
   189   1297   259
   291   1353   605
   458   1377   1159
   683   1244   1729
   984   1346   2209
   1192   1512   2619
   1338   1675   2952
   1450   1821   3211
   1561   1949   3393
   1675   2061   3524
   1814   2160   3634
   1949   2256   3737
   2076   2350   3840
   2194   2439   3940
   2302   2523   4020
   156   1970   125
   158   1970   125
   197   1797   275
   288   1826   579
   437   1890   1085
   685   1821   1743
   928   1745   2232
   1135   1843   2626
   1314   1988   2958
   1449   2114   3216
   1572   2215   3396
   1691   2302   3525
   1829   2372   3634
   1964   2445   3737
   2089   2517   3840
   2205   2588   3938
   2310   2659   4020
   184   2374   178
   186   2374   178
   222   2235   315
   302   2246   584
   436   2298   1032
   639   2266   1656
   929   2225   2245
   1147   2256   2660
   1300   2334   2972
   1457   2438   3226
   1590   2514   3402
   1717   2573   3531
   1852   2614   3637
   1985   2660   3739
   2106   2710   3841
   2221   2761   3940
   2327   2812   4020
   226   2705   246
   228   2690   247
   261   2588   376
   334   2594   618
   449   2627   1004
   616   2634   1557
   863   2588   2160
   1145   2625   2653
   1347   2720   3009
   1481   2770   3244
   1620   2822   3414
   1751   2852   3537
   1884   2864   3642
   2010   2884   3742
   2129   2912   3843
   2240   2944   3941
   2344   2979   4021
   271   2971   310
   273   2950   316
   305   2875   438
   367   2879   645
   464   2900   975
   611   2924   1475
   821   2881   2062
   1080   2892   2569
   1345   3010   2990
   1536   3092   3270
   1663   3112   3429
   1792   3111   3545
   1921   3100   3649
   2044   3102   3748
   2158   3111   3850
   2266   3124   3945
   2367   3143   4022
   313   3175   364
   316   3153   375
   345   3097   484
   401   3098   671
   487   3113   968
   618   3136   1421
   802   3104   1980
   1036   3115   2481
   1284   3194   2907
   1535   3302   3246
   1716   3356   3447
   1841   3330   3557
   1966   3306   3657
   2083   3292   3757
   2192   3288   3856
   2296   3288   3951
   2393   3294   4024
   353   3329   412
   358   3307   428
   384   3266   528
   436   3269   701
   515   3276   978
   634   3293   1391
   801   3272   1921
   1011   3281   2403
   1248   3336   2833
   1488   3417   3173
   1720   3498   3423
   1899   3498   3570
   2016   3467   3670
   2127   3446   3768
   2232   3431   3867
   2333   3423   3961
   2424   3419   4029
   391   3446   455
   397   3423   476
   423   3392   572
   472   3393   739
   548   3398   1001
   658   3409   1390
   808   3400   1878
   1005   3409   2349
   1229   3455   2774
   1459   3524   3112
   1683   3589   3364
   1904   3622   3543
   2073   3623   3684
   2176   3590   3782
   2276   3566   3877
   2373   3549   3971
   2459   3537   4033
   430   3563   494
   437   3534   520
   463   3503   616
   512   3505   780
   585   3511   1034
   685   3524   1392
   822   3526   1848
   1011   3541   2311
   1225   3582   2731
   1444   3641   3066
   1662   3682   3313
   1874   3711   3488
   2078   3741   3663
   2233   3744   3798
   2329   3715   3893
   2417   3693   3984
   2501   3673   4037
   471   3697   529
   480   3657   564
   505   3628   659
   550   3633   811
   614   3640   1041
   708   3654   1382
   847   3663   1836
   1029   3679   2289
   1234   3713   2699
   1446   3756   3031
   1655   3783   3274
   1857   3807   3445
   2053   3834   3609
   2237   3861   3773
   2385   3870   3910
   2470   3840   3998
   2547   3816   4043
   498   3822   515
   508   3788   559
   533   3765   651
   579   3769   809
   645   3776   1048
   743   3787   1397
   884   3797   1848
   1061   3813   2288
   1259   3841   2685
   1464   3868   3007
   1664   3888   3243
   1858   3910   3412
   2043   3932   3563
   2217   3955   3729
   2387   3978   3886
   2527   3988   4011
   2601   3963   4048
   528   3946   505
   539   3914   556
   568   3899   660
   617   3902   831
   689   3908   1085
   792   3915   1447
   935   3925   1890
   1110   3940   2316
   1301   3959   2695
   1498   3975   3003
   1688   3991   3226
   1874   4005   3388
   2051   4015   3534
   2217   4025   3693
   2380   4035   3852
   2534   4045   3994
   2658   4049   4054
   566   4027   523
   580   4013   580
   614   4008   699
   669   4009   888
   746   4011   1160
   856   4014   1536
   1003   4019   1970
   1175   4025   2375
   1362   4031   2732
   1548   4038   3017
   1733   4043   3228
   1910   4048   3380
   2075   4052   3518
   2238   4056   3673
   2392   4060   3829
   2541   4064   3970
   2670   4068   4048
   654   109   73
   657   110   73
   719   162   300
   829   282   848
   965   446   1435
   1207   667   1973
   1374   868   2403
   1482   1047   2765
   1555   1209   3062
   1627   1360   3291
   1715   1502   3451
   1816   1642   3578
   1948   1785   3683
   2074   1925   3786
   2191   2056   3888
   2299   2175   3985
   2398   2287   4040
   675   257   83
   676   257   83
   535   296   249
   659   341   638
   864   479   1245
   1108   682   1802
   1316   888   2270
   1434   1068   2666
   1515   1232   2987
   1587   1382   3237
   1674   1526   3412
   1774   1663   3541
   1909   1805   3649
   2038   1942   3753
   2156   2071   3858
   2270   2191   3958
