Resources/LUT/Epic.3dl
# 17x17x17 .3dl lookup table from LUT Buddy
0 128 256 384 512 640 768 896 1023
   0   0   0
   88   57   369
   540   368   1440
   1101   824   2402
   1336   1180   3068
   1514   1478   3456
   1763   1763   3688
   2039   2040   3895
   2272   2272   4045
   15   544   24
   56   606   269
   456   615   1394
   1039   971   2364
   1311   1326   3041
   1504   1627   3441
   1752   1903   3676
   2029   2153   3885
   2262   2364   4040
   46   1474   72
   68   1504   192
   351   1589   1290
   900   1448   2353
   1266   1740   3036
   1502   2001   3439
   1761   2208   3674
   2032   2387   3879
   2262   2554   4038
   106   2370   163
   124   2382   255
   320   2450   1017
   852   2360   2360
   1227   2429   3059
   1521   2579   3449
   1788   2667   3678
   2053   2754   3883
   2278   2848   4039
   199   2971   298
   217   2975   383
   359   3003   937
   724   2966   2108
   1259   3092   3062
   1583   3177   3475
   1844   3157   3694
   2095   3156   3895
   2308   3182   4043
   287   3330   402
   305   3331   486
   417   3342   940
   694   3325   1932
   1145   3382   2883
   1614   3552   3464
   1927   3522   3721
   2159   3473   3915
   2360   3453   4048
   365   3565   486
   386   3565   580
   484   3574   995
   707   3585   1838
   1106   3638   2750
   1540   3736   3341
   1969   3793   3695
   2250   3768   3938
   2428   3723   4054
   429   3837   502
   455   3826   620
   547   3834   1004
   761   3851   1806
   1126   3893   2678
   1525   3941   3254
   1911   3984   3584
   2282   4018   3919
   2519   4012   4060
   490   4033   506
   528   4031   666
   634   4035   1100
   861   4040   1905
   1204   4051   2703
   1567   4059   3226
   1922   4064   3533
   2263   4070   3853
   2560   4076   4056
   283   47   31
   371   95   364
   702   392   1434
   1210   838   2394
   1430   1189   3058
   1602   1487   3448
   1846   1770   3684
   2109   2044   3889
   2332   2276   4042
   196   579   48
   217   435   271
   563   549   1171
   1121   936   2219
   1378   1291   2958
   1554   1587   3396
   1797   1861   3639
   2064   2114   3845
   2295   2335   4024
   144   1489   88
   189   1297   259
   458   1377   1159
   984   1346   2209
   1338   1675   2952
   1561   1949   3393
   1814   2160   3634
   2076   2350   3840
   2302   2523   4020
   184   2374   178
   222   2235   315
   436   2298   1032
   929   2225   2245
   1300   2334   2972
   1590   2514   3402
   1852   2614   3637
   2106   2710   3841
   2327   2812   4020
   271   2971   310
   305   2875   438
   464   2900   975
   821   2881   2062
   1345   3010   2990
   1663   3112   3429
   1921   3100   3649
   2158   3111   3850
   2367   3143   4022
   353   3329   412
   384   3266   528
   515   3276   978
   801   3272   1921
   1248   3336   2833
   1720   3498   3423
   2016   3467   3670
   2232   3431   3867
   2424   3419   4029
   430   3563   494
   463   3503   616
   585   3511   1034
   822   3526   1848
   1225   3582   2731
   1662   3682   3313
   2078   3741   3663
   2329   3715   3893
   2501   3673   4037
   498   3822   515
   533   3765   651
   645   3776   1048
   884   3797   1848
   1259   3841   2685
   1664   3888   3243
   2043   3932   3563
   2387   3978   3886
   2601   3963   4048
   566   4027   523
   614   4008   699
   746   4011   1160
   1003   4019   1970
   1362   4031   2732
   1733   4043   3228
   2075   4052   3518
   2392   4060   3829
   2670   4068   4048
   1097   212   142
   1140   270   322
   1346   549   1366
   1623   919   2410
   1751   1242   3073
   1882   1528   3454
   2087   1807   3684
   2301   2074   3888
   2486   2299   4040
   1130   593   173
   956   603   316
   1069   674   1047
   1497   1006   2176
   1657   1319   2927
   1797   1599   3377
   2015   1869   3619
   2239   2120   3826
   2438   2340   4015
   794   1576   194
   713   1385   346
   886   1249   1106
   1313   1326   2032
   1567   1626   2839
   1740   1882   3322
   1974   2098   3568
   2202   2296   3780
   2403   2478   3980
   609   2406   267
   611   2264   415
   801   2084   1129
   1213   2097   2110
   1539   2258   2865
   1785   2441   3336
   2022   2544   3571
   2239   2652   3781
   2433   2765   3979
   590   2981   376
   612   2883   512
   768   2754   1072
   1100   2790   2021
   1582   2935   2898
   1875   3039   3364
   2096   3030   3585
   2299   3054   3790
   2482   3095   3983
   616   3332   457
   647   3267   587
   777   3189   1048
   1055   3224   1896
   1486   3292   2769
   1949   3430   3365
   2196   3407   3607
   2379   3383   3807
   2549   3380   3996
   662   3564   527
   701   3496   671
   816   3445   1062
   1071   3476   1847
   1473   3529   2693
   1906   3613   3273
   2275   3674   3609
   2481   3650   3836
   2635   3615   4011
   716   3817   543
   758   3747   696
   874   3703   1090
   1137   3734   1878
   1523   3779   2682
   1923   3823   3223
   2259   3867   3530
   2563   3917   3842
   2740   3899   4026
   788   4023   564
   843   3984   761
   989   3961   1232
   1275   3979   2027
   1647   3998   2755
   2006   4014   3224
   2308   4029   3499
   2588   4044   3797
   2832   4054   4032
   1994   591   407
   2010   627   518
   2096   777   1157
   2292   1102   2335
   2312   1355   3076
   2350   1616   3469
   2463   1881   3688
   2599   2130   3892
   2730   2344   4042
   2031   841   439
   1872   833   507
   1847   933   1011
   2109   1184   2120
   2210   1436   2951
   2270   1690   3399
   2398   1944   3628
   2548   2178   3834
   2690   2384   4017
   1975   1600   502
   1830   1499   574
   1698   1504   1092
   1920   1502   1986
   2073   1695   2829
   2148   1910   3305
   2314   2119   3543
   2476   2313   3759
   2634   2491   3962
   1570   2474   479
   1468   2336   575
   1408   2141   1120
   1748   2125   2016
   1970   2234   2771
   2119   2362   3252
   2289   2474   3495
   2454   2594   3712
   2610   2716   3917
   1287   3007   507
   1260   2911   627
   1315   2767   1116
   1592   2738   1946
   1999   2890   2808
   2207   2944   3279
   2364   2957   3510
   2516   2995   3723
   2662   3046   3922
   1166   3343   548
   1172   3275   678
   1263   3182   1108
   1493   3159   1821
   1892   3251   2687
   2280   3353   3293
   2459   3340   3535
   2598   3328   3743
   2732   3334   3937
   1134   3571   595
   1162   3498   750
   1260   3431   1108
   1488   3415   1809
   1876   3473   2647
   2244   3536   3226
   2544   3598   3549
   2698   3578   3774
   2818   3557   3960
   1146   3821   597
   1195   3749   771
   1302   3667   1163
   1554   3656   1893
   1927   3699   2681
   2262   3752   3201
   2540   3798   3495
   2789   3851   3795
   2923   3829   3994
   1205   4022   640
   1277   3979   871
   1402   3908   1333
   1705   3909   2109
   2041   3937   2783
   2339   3966   3218
   2593   3993   3480
   2822   4014   3759
   3025   4032   4012
   2658   943   687
   2662   957   763
   2703   1014   1217
   2822   1185   2207
   2947   1547   3135
   2893   1761   3502
   2908   1997   3702
   2958   2216   3901
   3026   2409   4046
   2682   1118   709
   2582   1114   756
   2545   1157   1137
   2675   1277   2038
   2838   1623   3007
   2820   1836   3435
   2852   2059   3644
   2915   2265   3845
   2991   2450   4021
   2698   1650   761
   2612   1621   818
   2451   1601   1177
   2515   1597   1943
   2699   1871   2881
   2714   2044   3337
   2773   2222   3564
   2854   2393   3772
   2943   2555   3971
   2554   2525   828
   2450   2419   889
   2338   2283   1263
   2408   2200   1974
   2535   2280   2764
   2594   2378   3222
   2684   2493   3472
   2785   2614   3689
   2888   2733   3896
   2266   3062   734
   2187   2969   821
   2143   2842   1221
   2282   2759   1937
   2470   2823   2716
   2589   2858   3197
   2682   2890   3442
   2781   2940   3646
   2881   3002   3856
   2055   3365   710
   2017   3297   829
   2049   3218   1206
   2164   3153   1854
   2367   3176   2630
   2651   3276   3226
   2763   3278   3468
   2853   3276   3671
   2946   3291   3873
   1926   3586   705
   1930   3518   853
   1992   3450   1236
   2105   3393   1865
   2336   3404   2627
   2615   3468   3183
   2840   3530   3494
   2941   3518   3709
   3025   3507   3901
   1865   3831   707
   1900   3760   903
   1987   3678   1329
   2113   3601   1990
   2366   3621   2692
   2624   3674   3180
   2838   3725   3461
   3026   3784   3743
   3115   3767   3940
   1861   4022   774
   1928   3979   1044
   2039   3908   1559
   2190   3832   2202
   2454   3869   2818
   2688   3902   3219
   2887   3933   3465
   3060   3967   3723
   3213   4000   3987
   3115   1106   891
   3115   1115   952
   3137   1154   1318
   3212   1278   2178
   3359   1654   3117
   3366   1963   3533
   3314   2148   3723
   3301   2330   3917
   3313   2496   4049
   3129   1241   905
   3068   1235   943
   3038   1261   1259
   3117   1367   2059
   3274   1720   3002
   3307   2030   3471
   3269   2205   3668
   3267   2377   3863
   3286   2538   4027
   3159   1670   944
   3099   1645   988
   2973   1589   1262
   3003   1630   1965
   3160   1942   2885
   3215   2213   3382
   3199   2353   3593
   3215   2497   3791
   3246   2638   3983
   3086   2401   986
   3026   2340   1041
   2959   2248   1340
   2919   2142   1939
   3029   2314   2762
   3105   2509   3273
   3118   2601   3501
   3150   2701   3713
   3197   2806   3911
   3048   3129   1061
   2973   3037   1131
   2923   2919   1453
   2945   2818   2057
   2932   2776   2684
   3001   2853   3174
   3041   2896   3421
   3090   2953   3625
   3149   3017   3838
   2872   3421   963
   2817   3355   1070
   2810   3278   1426
   2861   3211   2045
   2872   3164   2671
   2992   3215   3171
   3051   3225   3414
   3101   3234   3607
   3156   3252   3810
   2709   3625   906
   2687   3554   1059
   2711   3485   1453
   2758   3423   2078
   2807   3378   2670
   2954   3413   3149
   3108   3474   3449
   3166   3470   3646
   3218   3465   3842
   2592   3852   902
   2604   3779   1118
   2650   3701   1570
   2706   3623   2196
   2788   3572   2732
   2956   3610   3169
   3105   3664   3434
   3235   3720   3695
   3288   3703   3888
   2527   4027   979
   2567   3985   1285
   2631   3914   1826
   2721   3842   2395
   2831   3797   2863
   3002   3835   3231
   3139   3874   3455
   3260   3910   3695
   3370   3947   3950
   3410   1167   1044
   3409   1175   1099
   3422   1220   1421
   3464   1362   2162
   3553   1679   2997
   3620   2079   3497
   3613   2321   3751
   3571   2464   3938
   3550   2601   4054
   3416   1282   1052
   3384   1273   1087
   3364   1299   1367
   3408   1437   2076
   3491   1745   2910
   3569   2133   3436
   3576   2370   3696
   3536   2507   3885
   3524   2639   4035
   3430   1631   1075
   3396   1610   1116
   3317   1565   1351
   3329   1655   1990
   3412   1953   2802
   3490   2293   3353
   3512   2500   3624
   3488   2615   3815
   3485   2732   4000
   3414   2284   1110
   3378   2239   1162
   3324   2168   1422
   3260   2086   1945
   3312   2297   2695
   3404   2561   3260
   3438   2719   3536
   3431   2800   3737
   3441   2888   3929
   3397   2998   1171
   3355   2926   1239
   3314   2829   1528
   3279   2738   2068
   3237   2729   2646
   3319   2882   3176
   3368   2984   3457
   3378   3029   3656
   3399   3080   3857
   3416   3482   1253
   3364   3410   1355
   3343   3328   1690
   3304   3250   2240
   3268   3201   2768
   3264   3183   3144
   3312   3220   3403
   3335   3241   3592
   3366   3265   3796
   3267   3670   1172
   3249   3603   1331
   3249   3528   1730
   3224   3459   2296
   3225   3419   2805
   3246   3401   3160
   3316   3432   3414
   3347   3433   3597
   3376   3434   3787
   3148   3878   1147
   3147   3808   1381
   3145   3729   1855
   3155   3654   2402
   3183   3604   2866
   3221   3579   3182
   3308   3615   3417
   3394   3670   3655
   3427   3658   3840
   3051   4032   1227
   3064   3993   1576
   3088   3926   2094
   3129   3863   2597
   3180   3812   2986
   3238   3781   3245
   3329   3819   3457
   3415   3861   3681
   3503   3886   3913
   3637   1249   1199
   3635   1258   1250
   3649   1315   1542
   3684   1465   2181
   3734   1758   2895
   3789   2101   3392
   3849   2409   3712
   3860   2618   3967
   3818   2725   4058
   3642   1351   1205
   3606   1342   1235
   3589   1378   1490
   3627   1527   2113
   3681   1821   2826
   3740   2154   3338
   3801   2444   3657
   3822   2654   3914
   3789   2759   4045
   3648   1652   1220
   3611   1637   1257
   3540   1609   1466
   3547   1723   2035
   3603   2007   2744
   3670   2301   3270
   3735   2559   3585
   3767   2749   3844
   3744   2840   4013
   3650   2227   1251
   3612   2191   1298
   3546   2136   1529
   3478   2128   2005
   3510   2315   2665
   3583   2553   3195
   3657   2758   3508
   3702   2909   3768
   3691   2979   3951
   3656   2887   1302
   3609   2830   1368
   3550   2751   1631
   3486   2712   2122
   3440   2716   2639
   3497   2861   3132
   3572   3007   3442
   3627   3107   3691
   3629   3151   3882
   3665   3375   1380
   3621   3322   1476
   3559   3252   1796
   3498   3194   2283
   3458   3161   2761
   3444   3156   3118
   3509   3234   3400
   3566   3293   3628
   3582   3315   3824
   3655   3715   1455
   3618   3652   1619
   3562   3569   2015
   3510   3494   2488
   3482   3447   2913
   3475   3422   3206
   3481   3412   3396
   3529   3440   3596
   3556   3449   3786
   3478   3905   1416
   3457   3836   1670
   3438   3760   2120
   3430   3689   2595
   3435   3643   2988
   3454   3618   3251
   3482   3605   3426
   3543   3631   3626
   3571   3619   3798
   3365   4036   1498
   3361   4001   1878
   3365   3940   2349
   3384   3884   2783
   3411   3836   3105
   3447   3805   3317
   3487   3784   3471
   3572   3814   3674
   3650   3832   3883
   3862   1386   1380
   3858   1395   1427
   3869   1467   1693
   3893   1623   2225
   3929   1873   2837
   3973   2159   3307
   4015   2422   3611
   4040   2674   3911
   4052   2860   4065
   3860   1478   1382
   3831   1466   1409
   3813   1513   1639
   3840   1678   2170
   3878   1929   2784
   3926   2207   3264
   3977   2458   3562
   4020   2697   3857
   4038   2889   4054
   3862   1747   1393
   3830   1731   1425
   3768   1727   1616
   3765   1853   2106
   3807   2089   2720
   3861   2342   3206
   3915   2568   3505
   3973   2779   3789
   4013   2961   4027
   3866   2236   1418
   3829   2210   1461
   3766   2186   1675
   3695   2200   2089
   3718   2361   2657
   3779   2571   3147
   3841   2757   3448
   3904   2928   3719
   3962   3081   3977
   3874   2829   1464
   3828   2784   1527
   3766   2737   1776
   3698   2716   2197
   3640   2727   2651
   3691   2857   3104
   3764   2994   3400
   3832   3114   3647
   3899   3229   3909
   3869   3295   1539
   3825   3255   1631
   3765   3203   1926
   3700   3162   2346
   3651   3142   2773
   3627   3143   3102
   3689   3218   3372
   3768   3297   3600
   3844   3371   3854
   3867   3631   1645
   3822   3570   1790
   3762   3502   2131
   3704   3448   2546
   3667   3416   2926
   3653   3399   3197
   3651   3394   3379
   3726   3441   3584
   3805   3496   3821
   3793   3930   1732
   3765   3868   1975
   3726   3796   2369
   3699   3733   2779
   3689   3684   3100
   3685   3648   3309
   3691   3621   3456
   3709   3605   3605
   3788   3644   3820
   3622   4040   1825
   3606   4008   2171
   3604   3957   2595
   3615   3905   2961
   3639   3868   3220
   3674   3836   3390
   3719   3813   3545
   3771   3796   3709
   3834   3784   3884
