Resources/LUT/Face Light.3dl
# 17x17x17 .3dl lookup table from LUT Buddy
0 128 256 384 512 640 768 896 1023
   5   22   3
   22   23   387
   50   47   879
   84   79   1415
   116   110   1920
   145   139   2346
   175   168   2708
   201   194   3032
   217   209   3315
   67   448   51
   57   435   290
   66   419   766
   89   413   1291
   116   416   1798
   141   418   2234
   168   424   2606
   194   431   2932
   211   430   3227
   132   921   106
   124   902   251
   111   886   698
   121   874   1217
   144   867   1721
   165   862   2161
   188   860   2532
   210   859   2856
   225   852   3151
   243   1484   209
   235   1457   302
   215   1440   710
   213   1425   1214
   224   1413   1716
   240   1403   2157
   259   1393   2521
   279   1386   2848
   292   1372   3137
   355   2040   312
   348   2013   384
   329   1993   756
   318   1980   1245
   325   1968   1740
   333   1954   2178
   346   1944   2545
   364   1933   2867
   376   1917   3154
   475   2531   424
   466   2502   485
   447   2480   834
   432   2465   1307
   430   2454   1793
   436   2438   2222
   444   2427   2583
   454   2416   2904
   462   2396   3186
   611   2997   551
   601   2964   614
   583   2940   952
   567   2924   1413
   559   2912   1886
   559   2894   2302
   565   2877   2656
   571   2864   2968
   572   2844   3247
   685   3364   618
   681   3335   697
   667   3311   1039
   655   3298   1493
   646   3286   1956
   643   3274   2360
   650   3260   2708
   658   3248   3016
   659   3225   3290
   743   3669   667
   735   3639   768
   721   3614   1119
   709   3600   1568
   698   3587   2017
   691   3573   2402
   693   3559   2736
   699   3543   3034
   699   3521   3297
   366   2   2
   329   32   344
   310   45   824
   309   73   1350
   317   104   1857
   326   132   2289
   339   161   2655
   351   187   2980
   356   204   3268
   281   424   40
   294   442   282
   264   389   733
   263   377   1236
   274   380   1743
   287   384   2186
   302   390   2560
   318   398   2887
   329   400   3185
   257   871   97
   252   851   225
   241   838   660
   246   824   1171
   261   819   1670
   276   813   2113
   292   812   2486
   309   813   2815
   321   808   3110
   319   1424   195
   313   1397   278
   300   1378   674
   296   1364   1172
   307   1354   1670
   322   1342   2111
   340   1333   2480
   359   1325   2803
   372   1315   3093
   408   1982   300
   404   1954   365
   393   1931   731
   383   1919   1213
   391   1908   1705
   401   1894   2144
   417   1881   2510
   437   1869   2829
   452   1855   3117
   511   2473   409
   506   2445   468
   496   2416   814
   485   2406   1282
   485   2394   1764
   494   2378   2192
   506   2366   2552
   521   2352   2869
   535   2336   3151
   640   2938   535
   634   2904   600
   625   2875   941
   615   2857   1397
   611   2847   1866
   615   2829   2280
   626   2815   2632
   639   2799   2939
   647   2778   3214
   721   3313   611
   721   3285   698
   718   3258   1048
   714   3245   1501
   712   3233   1960
   715   3218   2357
   729   3205   2699
   746   3189   3000
   757   3167   3272
   776   3618   657
   776   3586   775
   776   3559   1141
   775   3544   1592
   774   3528   2032
   778   3517   2410
   791   3501   2738
   809   3484   3030
   823   3457   3290
   863   4   4
   754   42   305
   707   68   771
   713   81   1316
   712   108   1819
   712   132   2246
   716   158   2608
   722   183   2929
   721   200   3223
   854   477   55
   799   430   260
   675   373   712
   645   346   1194
   650   349   1693
   657   353   2139
   667   360   2513
   679   369   2842
   684   372   3138
   676   912   68
   634   842   200
   686   900   709
   627   806   1162
   616   775   1622
   625   772   2068
   638   771   2443
   651   772   2772
   660   768   3068
   640   1372   182
   635   1345   255
   630   1321   641
   629   1314   1133
   640   1301   1626
   652   1288   2064
   665   1280   2433
   681   1275   2756
   693   1266   3046
   696   1931   287
   695   1901   346
   692   1875   706
   691   1862   1180
   700   1853   1670
   712   1839   2107
   730   1826   2470
   750   1813   2788
   766   1797   3071
   769   2422   393
   770   2392   450
   769   2364   795
   770   2349   1257
   776   2339   1735
   789   2325   2163
   804   2312   2520
   825   2298   2832
   844   2279   3110
   876   2887   520
   878   2852   586
   879   2822   929
   884   2801   1381
   889   2793   1845
   898   2777   2257
   916   2760   2601
   936   2744   2907
   953   2721   3180
   950   3272   603
   960   3242   697
   970   3213   1054
   983   3195   1506
   993   3182   1958
   1005   3169   2350
   1026   3154   2687
   1052   3136   2984
   1073   3114   3249
   996   3579   650
   1010   3545   783
   1024   3515   1163
   1044   3499   1613
   1059   3483   2046
   1076   3468   2418
   1101   3454   2741
   1131   3436   3027
   1160   3412   3285
   1468   4   4
   1387   43   319
   1155   93   740
   1148   116   1261
   1162   132   1788
   1164   153   2230
   1165   176   2596
   1166   198   2916
   1160   213   3201
   1451   463   85
   1410   434   257
   1109   340   670
   1079   340   1163
   1099   341   1687
   1098   343   2125
   1100   349   2491
   1106   357   2815
   1109   361   3107
   1318   1020   67
   1348   1024   218
   1224   909   715
   1105   818   1178
   1036   750   1592
   1043   745   2035
   1054   745   2410
   1066   746   2738
   1077   744   3034
   1172   1510   132
   1143   1447   235
   1038   1292   623
   1191   1456   1270
   1097   1321   1663
   1058   1252   2028
   1070   1246   2399
   1086   1240   2723
   1099   1233   3015
   1089   1911   281
   1082   1865   339
   1080   1836   691
   1086   1818   1157
   1102   1819   1649
   1113   1799   2079
   1131   1785   2439
   1152   1775   2755
   1168   1762   3040
   1134   2385   389
   1140   2356   445
   1143   2327   786
   1151   2307   1243
   1165   2302   1715
   1181   2291   2142
   1200   2276   2498
   1225   2263   2808
   1246   2247   3085
   1227   2851   516
   1233   2817   584
   1239   2787   927
   1253   2764   1378
   1268   2752   1835
   1285   2742   2244
   1307   2724   2587
   1332   2708   2889
   1354   2684   3159
   1290   3246   606
   1308   3214   709
   1326   3185   1070
   1351   3166   1523
   1372   3151   1968
   1394   3138   2355
   1420   3124   2687
   1453   3107   2979
   1480   3083   3240
   1328   3554   654
   1352   3518   806
   1378   3492   1197
   1411   3471   1648
   1440   3457   2074
   1469   3441   2439
   1503   3427   2757
   1543   3410   3039
   1579   3385   3291
   2066   10   10
   2015   38   321
   1659   135   746
   1615   153   1245
   1615   182   1749
   1630   196   2208
   1639   214   2587
   1642   237   2915
   1637   250   3204
   2028   459   127
   1971   424   249
   1791   375   749
   1543   344   1154
   1547   356   1653
   1567   361   2118
   1577   365   2502
   1583   374   2827
   1582   378   3114
   1956   1052   154
   1949   1028   235
   1904   980   773
   1507   760   1108
   1497   763   1590
   1520   758   2056
   1521   753   2421
   1526   750   2739
   1531   746   3028
   1823   1633   46
   1835   1616   218
   1899   1650   796
   1720   1467   1283
   1631   1378   1733
   1499   1243   2018
   1511   1235   2387
   1526   1229   2709
   1540   1223   3000
   1697   2115   228
   1680   2062   317
   1593   1926   725
   1573   1869   1203
   1740   2028   1864
   1643   1887   2181
   1566   1771   2427
   1585   1761   2742
   1603   1749   3026
   1595   2441   392
   1572   2370   456
   1558   2314   796
   1570   2291   1247
   1590   2284   1713
   1645   2317   2181
   1631   2261   2492
   1656   2247   2795
   1678   2232   3070
   1622   2835   529
   1633   2802   599
   1643   2770   942
   1660   2747   1389
   1681   2730   1840
   1704   2721   2246
   1729   2705   2587
   1756   2689   2882
   1782   2665   3144
   1678   3234   622
   1702   3200   733
   1722   3171   1098
   1751   3151   1549
   1781   3131   1988
   1809   3119   2368
   1840   3106   2697
   1877   3087   2983
   1909   3063   3239
   1702   3540   669
   1735   3505   840
   1768   3477   1238
   1807   3457   1692
   1845   3436   2109
   1884   3421   2466
   1926   3408   2778
   1971   3390   3056
   2011   3362   3299
   2567   35   35
   2543   30   319
   2251   161   787
   2069   200   1227
   2070   215   1731
   2068   240   2172
   2083   257   2558
   2096   271   2897
   2096   285   3194
   2524   457   158
   2468   424   247
   2379   388   775
   2023   357   1157
   2003   364   1639
   2004   377   2085
   2020   387   2474
   2040   394   2814
   2046   398   3113
   2465   1047   197
   2460   1024   249
   2389   960   752
   2186   846   1242
   1944   754   1579
   1951   760   2023
   1979   764   2415
   1996   763   2750
   2002   759   3039
   2447   1734   271
   2460   1715   308
   2456   1689   828
   2395   1611   1413
   1995   1290   1633
   1953   1262   2023
   1983   1255   2412
   1985   1240   2720
   1989   1227   2998
   2307   2243   24
   2312   2211   249
   2323   2191   794
   2379   2218   1443
   2221   2034   1874
   2169   1961   2259
   1995   1760   2419
   2011   1750   2730
   2030   1740   3013
   2207   2641   330
   2199   2591   426
   2140   2488   848
   2039   2343   1286
   2133   2402   1835
   2286   2533   2407
   2198   2399   2642
   2074   2234   2781
   2097   2221   3052
   2110   2936   516
   2091   2857   610
   2049   2761   959
   2063   2733   1400
   2085   2715   1845
   2148   2743   2281
   2229   2788   2680
   2181   2686   2889
   2191   2651   3131
   2079   3240   630
   2092   3188   757
   2116   3159   1127
   2145   3138   1574
   2178   3117   2006
   2208   3099   2376
   2242   3088   2701
   2278   3070   2983
   2311   3047   3235
   2078   3527   684
   2114   3492   876
   2150   3464   1283
   2190   3443   1732
   2233   3421   2146
   2273   3402   2494
   2317   3390   2796
   2365   3372   3068
   2405   3345   3308
   3009   62   62
   2992   40   319
   2789   185   825
   2517   242   1240
   2478   264   1713
   2477   277   2161
   2480   300   2534
   2490   319   2868
   2500   326   3171
   2958   462   187
   2911   432   253
   2862   402   786
   2567   386   1228
   2408   388   1628
   2412   393   2074
   2415   406   2451
   2431   422   2787
   2444   426   3091
   2916   1052   248
   2909   1027   274
   2826   956   746
   2735   897   1308
   2376   768   1591
   2355   762   2014
   2363   767   2388
   2385   776   2726
   2406   776   3027
   2909   1748   331
   2907   1719   338
   2903   1689   835
   2837   1608   1407
   2604   1417   1796
   2344   1248   2012
   2355   1249   2381
   2386   1255   2716
   2407   1248   3012
   2830   2327   310
   2856   2321   366
   2914   2343   914
   2927   2327   1540
   2814   2195   2033
   2479   1871   2168
   2395   1787   2431
   2434   1784   2761
   2440   1763   3031
   2758   2785   156
   2769   2754   359
   2773   2722   899
   2795   2710   1508
   2817   2698   2093
   2694   2539   2415
   2666   2486   2726
   2484   2268   2814
   2469   2220   3044
   2651   3115   439
   2651   3065   578
   2618   2981   1026
   2564   2875   1498
   2473   2733   1876
   2665   2891   2442
   2799   2986   2894
   2736   2876   3093
   2570   2662   3141
   2519   3344   589
   2511   3265   765
   2488   3176   1163
   2499   3131   1604
   2529   3110   2030
   2559   3088   2393
   2692   3184   2813
   2774   3217   3146
   2744   3123   3323
   2449   3560   682
   2458   3487   920
   2493   3458   1337
   2534   3436   1783
   2575   3414   2188
   2618   3392   2527
   2664   3374   2822
   2721   3370   3095
   2783   3366   3353
   3375   55   55
   3363   31   286
   3237   176   822
   2989   278   1291
   2845   317   1707
   2846   331   2150
   2846   345   2525
   2851   365   2852
   2855   382   3149
   3317   437   182
   3284   414   232
   3250   388   760
   3056   406   1282
   2812   419   1649
   2780   429   2067
   2784   435   2446
   2790   448   2775
   2800   464   3070
   3288   1025   266
   3280   1004   272
   3198   936   719
   3160   902   1309
   2888   827   1696
   2718   783   2010
   2727   783   2386
   2738   787   2709
   2752   797   3005
   3281   1724   348
   3281   1696   344
   3273   1665   814
   3198   1579   1370
   3114   1500   1894
   2746   1280   2049
   2713   1255   2378
   2725   1252   2695
   2747   1260   2986
   3279   2385   436
   3285   2358   434
   3286   2329   903
   3293   2308   1518
   3234   2226   2052
   3028   2023   2332
   2741   1781   2426
   2756   1778   2734
   2788   1784   3022
   3175   2826   310
   3205   2815   438
   3265   2838   1001
   3337   2873   1662
   3354   2858   2247
   3209   2689   2560
   2924   2399   2638
   2810   2272   2802
   2845   2270   3082
   3120   3241   274
   3142   3212   504
   3163   3185   1057
   3190   3169   1659
   3224   3159   2221
   3228   3120   2649
   3143   2989   2899
   3127   2943   3153
   2974   2745   3223
   2968   3485   493
   2979   3430   730
   2975   3367   1222
   2964   3300   1722
   2936   3212   2132
   2916   3135   2458
   3135   3311   2954
   3217   3339   3282
   3195   3259   3471
   2838   3665   640
   2830   3571   954
   2828   3495   1405
   2844   3437   1845
   2883   3412   2238
   2923   3390   2570
   3030   3434   2915
   3183   3530   3289
   3246   3523   3543
   3699   40   40
   3684   13   244
   3602   136   782
   3394   267   1296
   3212   340   1714
   3165   368   2124
   3169   381   2500
   3172   397   2828
   3175   409   3123
   3632   405   167
   3603   384   197
   3577   358   712
   3450   380   1271
   3227   429   1691
   3104   453   2051
   3108   463   2427
   3113   473   2752
   3118   481   3048
   3604   991   265
   3596   974   263
   3514   901   673
   3492   873   1263
   3317   839   1741
   3093   803   2038
   3048   799   2370
   3057   801   2692
   3067   803   2981
   3598   1689   352
   3596   1661   349
   3582   1626   775
   3506   1539   1317
   3472   1496   1882
   3218   1359   2163
   3030   1265   2365
   3041   1262   2682
   3055   1257   2961
   3597   2356   442
   3596   2330   438
   3595   2296   875
   3603   2276   1480
   3531   2182   1997
   3458   2094   2406
   3123   1835   2482
   3065   1782   2723
   3082   1771   2994
   3570   2881   479
   3594   2869   505
   3629   2868   1030
   3642   2846   1636
   3659   2827   2213
   3593   2732   2598
   3406   2537   2783
   3098   2264   2783
   3118   2249   3044
   3449   3243   218
   3476   3223   509
   3516   3219   1095
   3597   3253   1751
   3670   3284   2356
   3676   3247   2774
   3547   3081   2988
   3332   2844   3055
   3212   2705   3165
   3347   3571   317
   3371   3534   645
   3399   3505   1221
   3442   3493   1814
   3486   3484   2332
   3529   3471   2747
   3533   3416   3061
   3486   3314   3265
   3472   3258   3465
   3209   3771   546
   3218   3701   955
   3233   3641   1486
   3249   3586   1980
   3259   3529   2370
   3273   3472   2678
   3374   3508   3023
   3508   3567   3365
   3541   3525   3579
