Resources/LUT/Face Light.3dl
# 17x17x17 .3dl lookup table from LUT Buddy
0 256 512 768 1023
   5   22   3
   50   47   879
   116   110   1920
   175   168   2708
   217   209   3315
   132   921   106
   111   886   698
   144   867   1721
   188   860   2532
   225   852   3151
   355   2040   312
   329   1993   756
   325   1968   1740
   346   1944   2545
   376   1917   3154
   611   2997   551
   583   2940   952
   559   2912   1886
   565   2877   2656
   572   2844   3247
   743   3669   667
   721   3614   1119
   698   3587   2017
   693   3559   2736
   699   3521   3297
   863   4   4
   707   68   771
   712   108   1819
   716   158   2608
   721   200   3223
   676   912   68
   686   900   709
   616   775   1622
   638   771   2443
   660   768   3068
   696   1931   287
   692   1875   706
   700   1853   1670
   730   1826   2470
   766   1797   3071
   876   2887   520
   879   2822   929
   889   2793   1845
   916   2760   2601
   953   2721   3180
   996   3579   650
   1024   3515   1163
   1059   3483   2046
   1101   3454   2741
   1160   3412   3285
   2066   10   10
   1659   135   746
   1615   182   1749
   1639   214   2587
   1637   250   3204
   1956   1052   154
   1904   980   773
   1497   763   1590
   1521   753   2421
   1531   746   3028
   1697   2115   228
   1593   1926   725
   1740   2028   1864
   1566   1771   2427
   1603   1749   3026
   1622   2835   529
   1643   2770   942
   1681   2730   1840
   1729   2705   2587
   1782   2665   3144
   1702   3540   669
   1768   3477   1238
   1845   3436   2109
   1926   3408   2778
   2011   3362   3299
   3009   62   62
   2789   185   825
   2478   264   1713
   2480   300   2534
   2500   326   3171
   2916   1052   248
   2826   956   746
   2376   768   1591
   2363   767   2388
   2406   776   3027
   2830   2327   310
   2914   2343   914
   2814   2195   2033
   2395   1787   2431
   2440   1763   3031
   2651   3115   439
   2618   2981   1026
   2473   2733   1876
   2799   2986   2894
   2570   2662   3141
   2449   3560   682
   2493   3458   1337
   2575   3414   2188
   2664   3374   2822
   2783   3366   3353
   3699   40   40
   3602   136   782
   3212   340   1714
   3169   381   2500
   3175   409   3123
   3604   991   265
   3514   901   673
   3317   839   1741
   3048   799   2370
   3067   803   2981
   3597   2356   442
   3595   2296   875
   3531   2182   1997
   3123   1835   2482
   3082   1771   2994
   3449   3243   218
   3516   3219   1095
   3670   3284   2356
   3547   3081   2988
   3212   2705   3165
   3209   3771   546
   3233   3641   1486
   3259   3529   2370
   3374   3508   3023
   3541   3525   3579
