Resources/LUT/Face Light.3dl
# 17x17x17 .3dl lookup table from LUT Buddy
   0   64   128   192   256   320   384   448   512   576   640   704   768   832   896   960   1023
   5   22   3
   6   17   162
   22   23   387
   36   34   621
   50   47   879
   66   62   1149
   84   79   1415
   101   96   1676
   116   110   1920
   131   125   2144
   145   139   2346
   160   153   2534
   175   168   2708
   189   182   2875
   201   194   3032
   210   202   3179
   217   209   3315
   36   245   26
   33   246   106
   33   235   345
   41   217   562
   51   213   814
   64   211   1080
   80   215   1347
   96   219   1607
   111   224   1855
   126   228   2083
   140   233   2289
   154   240   2477
   169   247   2655
   184   255   2823
   196   262   2981
   206   266   3129
   213   268   3270
   67   448   51
   65   440   84
   57   435   290
   58   427   519
   66   419   766
   76   414   1026
   89   413   1291
   103   415   1551
   116   416   1798
   129   417   2028
   141   418   2234
   155   421   2427
   168   424   2606
   182   428   2776
   194   431   2932
   204   431   3083
   211   430   3227
   97   672   76
   96   663   90
   87   656   262
   82   649   483
   83   641   727
   90   634   986
   102   631   1248
   115   630   1506
   127   629   1753
   139   628   1984
   150   627   2189
   162   628   2383
   174   629   2563
   187   631   2731
   199   632   2890
   208   631   3042
   215   628   3182
   132   921   106
   130   909   111
   124   902   251
   114   895   461
   111   886   698
   113   878   953
   121   874   1217
   133   871   1475
   144   867   1721
   155   865   1951
   165   862   2161
   176   860   2352
   188   860   2532
   200   859   2699
   210   859   2856
   219   856   3009
   225   852   3151
   182   1195   152
   179   1182   152
   174   1172   267
   164   1165   463
   156   1157   694
   155   1146   945
   159   1140   1205
   166   1137   1463
   176   1132   1709
   185   1126   1940
   195   1123   2148
   205   1119   2340
   216   1117   2520
   227   1115   2685
   237   1112   2844
   245   1108   2991
   251   1103   3137
   243   1484   209
   239   1469   207
   235   1457   302
   225   1447   486
   215   1440   710
   210   1431   957
   213   1425   1214
   219   1419   1469
   224   1413   1716
   231   1408   1947
   240   1403   2157
   249   1397   2346
   259   1393   2521
   269   1389   2691
   279   1386   2848
   286   1380   2994
   292   1372   3137
   300   1770   262
   297   1754   260
   293   1742   342
   284   1732   515
   274   1722   730
   266   1714   973
   266   1707   1226
   271   1701   1482
   276   1696   1727
   280   1690   1958
   286   1685   2166
   294   1678   2358
   303   1672   2533
   314   1670   2703
   323   1664   2857
   330   1655   3006
   336   1648   3147
   355   2040   312
   352   2025   310
   348   2013   384
   340   2003   547
   329   1993   756
   321   1986   994
   318   1980   1245
   321   1974   1497
   325   1968   1740
   329   1962   1971
   333   1954   2178
   338   1949   2370
   346   1944   2545
   355   1939   2714
   364   1933   2867
   371   1925   3016
   376   1917   3154
   412   2288   365
   408   2274   363
   404   2261   430
   396   2250   586
   386   2240   789
   377   2234   1022
   372   2227   1270
   372   2224   1520
   375   2217   1762
   379   2211   1990
   382   2203   2195
   387   2199   2384
   392   2194   2561
   399   2187   2727
   406   2183   2884
   412   2174   3031
   417   2165   3169
   475   2531   424
   470   2515   421
   466   2502   485
   457   2489   635
   447   2480   834
   438   2472   1063
   432   2465   1307
   430   2460   1553
   430   2454   1793
   433   2447   2018
   436   2438   2222
   439   2431   2408
   444   2427   2583
   449   2420   2748
   454   2416   2904
   458   2407   3049
   462   2396   3186
   545   2772   490
   540   2756   487
   535   2740   550
   526   2726   696
   516   2716   891
   506   2705   1116
   499   2700   1358
   496   2693   1600
   494   2688   1837
   494   2678   2058
   496   2669   2260
   499   2663   2445
   503   2656   2617
   507   2651   2781
   510   2643   2936
   512   2636   3077
   513   2625   3215
   611   2997   551
   606   2979   549
   601   2964   614
   593   2952   759
   583   2940   952
   573   2928   1174
   567   2924   1413
   562   2918   1653
   559   2912   1886
   557   2903   2103
   559   2894   2302
   561   2885   2489
   565   2877   2656
   568   2874   2817
   571   2864   2968
   573   2856   3110
   572   2844   3247
   657   3194   594
   653   3178   594
   650   3164   664
   644   3151   809
   635   3142   1002
   627   3133   1224
   620   3126   1460
   616   3121   1697
   612   3114   1929
   610   3108   2142
   610   3101   2339
   613   3093   2521
   617   3087   2689
   621   3076   2848
   624   3070   2999
   625   3060   3142
   624   3047   3277
   685   3364   618
   683   3349   621
   681   3335   697
   675   3320   846
   667   3311   1039
   660   3304   1260
   655   3298   1493
   650   3294   1730
   646   3286   1956
   643   3281   2166
   643   3274   2360
   645   3268   2540
   650   3260   2708
   654   3258   2865
   658   3248   3016
   660   3238   3156
   659   3225   3290
   712   3520   640
   709   3504   647
   706   3492   729
   700   3476   880
   692   3466   1074
   686   3460   1296
   681   3454   1527
   675   3449   1758
   671   3442   1983
   668   3435   2188
   666   3429   2376
   667   3421   2551
   671   3416   2718
   676   3411   2875
   679   3402   3022
   681   3392   3158
   680   3378   3292
   743   3669   667
   739   3652   677
   735   3639   768
   728   3625   923
   721   3614   1119
   714   3608   1340
   709   3600   1568
   703   3594   1797
   698   3587   2017
   694   3581   2214
   691   3573   2402
   691   3567   2573
   693   3559   2736
   697   3551   2887
   699   3543   3034
   700   3531   3169
   699   3521   3297
   143   5   4
   137   11   136
   124   19   370
   117   31   592
   117   44   847
   122   59   1114
   131   76   1383
   142   93   1643
   152   108   1889
   162   122   2112
   173   136   2316
   184   151   2505
   197   165   2681
   209   179   2848
   219   191   3005
   227   200   3154
   232   207   3294
   110   234   23
   110   236   91
   103   225   336
   96   203   545
   97   197   788
   102   196   1052
   113   199   1318
   124   204   1578
   136   209   1826
   147   214   2055
   159   220   2261
   171   227   2453
   184   235   2630
   197   243   2797
   209   250   2956
   218   255   3107
   224   258   3248
   100   429   48
   98   422   72
   93   433   283
   90   417   510
   93   401   743
   99   396   1000
   109   396   1264
   121   397   1524
   132   398   1771
   143   399   2004
   154   401   2209
   166   404   2404
   178   407   2582
   191   411   2751
   202   414   2909
   212   416   3063
   219   415   3203
   113   651   73
   111   642   82
   105   635   247
   98   628   466
   97   620   706
   103   614   963
   114   611   1223
   126   610   1480
   137   608   1726
   148   607   1959
   158   608   2168
   169   608   2360
   181   609   2541
   193   610   2709
   204   612   2870
   213   611   3022
   220   608   3164
   139   895   102
   136   885   105
   131   876   238
   122   870   445
   118   861   680
   119   853   932
   126   848   1194
   138   845   1450
   149   843   1697
   160   839   1927
   170   837   2137
   180   836   2329
   191   835   2508
   203   835   2677
   214   835   2835
   223   833   2986
   229   829   3132
   182   1166   146
   180   1153   146
   175   1142   254
   165   1135   448
   157   1127   675
   156   1117   925
   159   1112   1184
   167   1107   1439
   176   1103   1684
   186   1098   1917
   196   1094   2125
   206   1090   2318
   216   1088   2496
   227   1087   2665
   237   1084   2820
   246   1080   2972
   252   1074   3114
   240   1452   202
   237   1437   200
   233   1426   290
   224   1416   471
   213   1408   692
   208   1400   937
   211   1394   1193
   216   1387   1447
   222   1383   1693
   229   1377   1924
   238   1371   2134
   247   1366   2323
   257   1361   2502
   268   1359   2669
   278   1355   2825
   286   1350   2974
   291   1342   3116
   296   1737   256
   293   1722   254
   290   1710   331
   281   1699   502
   271   1690   715
   263   1681   956
   263   1675   1209
   268   1670   1462
   273   1664   1707
   277   1657   1936
   284   1651   2147
   292   1646   2338
   301   1639   2515
   312   1636   2683
   322   1631   2837
   329   1623   2986
   336   1616   3127
   350   2011   307
   347   1995   304
   344   1982   374
   336   1972   536
   326   1960   743
   317   1954   979
   314   1950   1229
   317   1942   1479
   321   1936   1722
   326   1930   1952
   330   1922   2161
   336   1916   2351
   344   1911   2529
   353   1906   2694
   363   1901   2849
   371   1893   2998
   376   1883   3138
   406   2259   359
   403   2247   356
   399   2230   421
   391   2220   576
   381   2209   778
   372   2203   1009
   368   2196   1257
   368   2192   1506
   371   2185   1746
   375   2179   1973
   379   2173   2180
   383   2167   2368
   389   2161   2545
   396   2155   2711
   405   2149   2863
   412   2143   3011
   417   2132   3151
   467   2502   416
   463   2485   413
   459   2470   476
   451   2457   625
   442   2448   823
   432   2439   1051
   427   2434   1294
   424   2428   1539
   425   2422   1779
   428   2416   2003
   431   2407   2208
   435   2401   2395
   440   2395   2568
   446   2390   2733
   452   2382   2886
   457   2374   3032
   461   2364   3171
   536   2739   481
   532   2722   478
   527   2708   541
   519   2692   687
   509   2681   882
   499   2671   1106
   493   2666   1346
   489   2660   1588
   487   2653   1823
   488   2644   2044
   491   2637   2247
   494   2629   2429
   498   2622   2601
   503   2615   2763
   507   2608   2915
   510   2600   3061
   513   2589   3198
   603   2965   544
   598   2948   541
   594   2933   607
   586   2919   753
   577   2906   946
   568   2896   1168
   561   2889   1404
   556   2883   1643
   553   2877   1877
   552   2868   2093
   554   2861   2291
   557   2851   2474
   561   2843   2642
   565   2837   2803
   569   2831   2953
   572   2821   3095
   572   2808   3230
   653   3167   589
   649   3153   589
   646   3134   661
   640   3123   808
   631   3111   1002
   624   3102   1224
   618   3095   1459
   614   3090   1695
   610   3084   1925
   608   3075   2136
   609   3068   2334
   612   3059   2513
   617   3053   2681
   621   3043   2837
   626   3037   2987
   628   3027   3131
   629   3013   3263
   682   3337   615
   680   3323   619
   678   3306   698
   674   3294   849
   666   3284   1044
   660   3276   1265
   655   3271   1498
   651   3265   1731
   648   3260   1959
   646   3252   2166
   646   3246   2362
   649   3237   2539
   655   3231   2703
   661   3225   2861
   666   3215   3008
   669   3207   3148
   671   3197   3283
   708   3493   636
   706   3479   643
   704   3465   731
   699   3449   886
   693   3439   1083
   687   3433   1303
   683   3426   1535
   679   3420   1766
   675   3412   1988
   673   3407   2193
   673   3401   2380
   675   3391   2557
   680   3386   2717
   687   3378   2874
   693   3370   3018
   696   3358   3156
   698   3347   3288
   738   3644   662
   735   3626   674
   732   3612   771
   728   3597   931
   721   3586   1130
   716   3577   1352
   712   3569   1581
   707   3565   1808
   703   3556   2025
   700   3549   2223
   700   3541   2407
   701   3535   2578
   705   3528   2739
   711   3521   2890
   716   3513   3032
   720   3501   3166
   722   3488   3297
   366   2   2
   356   13   114
   329   32   344
   316   34   575
   310   45   824
   307   57   1086
   309   73   1350
   313   89   1609
   317   104   1857
   321   118   2083
   326   132   2289
   332   146   2477
   339   161   2655
   346   175   2821
   351   187   2980
   355   197   3127
   356   204   3268
   349   238   24
   334   221   69
   316   212   317
   294   191   538
   280   180   761
   279   179   1022
   283   183   1289
   288   189   1548
   293   194   1796
   299   200   2026
   305   206   2234
   311   213   2426
   319   222   2605
   327   230   2773
   334   239   2932
   339   244   3082
   342   248   3227
   281   424   40
   278   417   61
   294   442   282
   285   426   525
   264   389   733
   259   377   974
   263   377   1236
   269   379   1496
   274   380   1743
   280   382   1976
   287   384   2186
   294   387   2380
   302   390   2560
   311   395   2727
   318   398   2887
   325   400   3040
   329   400   3185
   258   629   69
   255   620   74
   254   617   234
   258   638   471
   251   617   707
   246   591   937
   251   589   1197
   257   588   1454
   264   587   1701
   270   587   1934
   276   587   2145
   284   588   2337
   292   589   2517
   301   591   2687
   310   593   2847
   317   593   3000
   321   590   3142
   257   871   97
   255   861   98
   252   851   225
   246   844   428
   241   838   660
   240   830   912
   246   824   1171
   254   821   1425
   261   819   1670
   269   816   1903
   276   813   2113
   283   813   2305
   292   812   2486
   301   812   2655
   309   813   2815
   316   811   2965
   321   808   3110
   278   1139   139
   276   1126   138
   272   1115   241
   267   1105   431
   260   1099   656
   257   1091   904
   260   1084   1162
   266   1081   1417
   275   1076   1660
   282   1071   1891
   290   1068   2102
   298   1064   2293
   307   1062   2473
   316   1060   2641
   325   1058   2797
   332   1055   2947
   337   1050   3091
   319   1424   195
   316   1409   193
   313   1397   278
   309   1386   457
   300   1378   674
   294   1372   917
   296   1364   1172
   301   1359   1426
   307   1354   1670
   314   1348   1902
   322   1342   2111
   331   1336   2301
   340   1333   2480
   350   1329   2644
   359   1325   2803
   366   1322   2952
   372   1315   3093
   363   1709   249
   361   1694   247
   358   1680   321
   355   1668   490
   347   1659   701
   340   1653   939
   339   1647   1192
   344   1641   1443
   349   1635   1686
   354   1628   1918
   361   1622   2127
   370   1614   2316
   379   1610   2494
   389   1605   2660
   399   1600   2817
   407   1594   2964
   413   1586   3105
   408   1982   300
   406   1967   297
   404   1954   365
   400   1941   526
   393   1931   731
   386   1925   965
   383   1919   1213
   386   1914   1463
   391   1908   1705
   396   1900   1935
   401   1894   2144
   408   1888   2335
   417   1881   2510
   427   1876   2675
   437   1869   2829
   445   1861   2978
   452   1855   3117
   456   2230   352
   454   2218   349
   452   2206   413
   448   2191   568
   442   2181   768
   434   2173   997
   430   2168   1242
   431   2165   1490
   435   2158   1730
   440   2150   1957
   445   2144   2164
   450   2138   2354
   457   2133   2528
   467   2126   2695
   477   2120   2846
   485   2113   2993
   492   2103   3132
   511   2473   409
   508   2458   405
   506   2445   468
   502   2428   617
   496   2416   814
   489   2410   1041
   485   2406   1282
   484   2400   1527
   485   2394   1764
   489   2388   1989
   494   2378   2192
   499   2371   2379
   506   2366   2552
   513   2360   2717
   521   2352   2869
   529   2344   3014
   535   2336   3151
   575   2712   473
   572   2695   469
   569   2678   532
   565   2664   680
   558   2649   874
   552   2640   1097
   548   2634   1335
   545   2629   1575
   544   2622   1811
   547   2616   2031
   552   2608   2232
   556   2598   2415
   562   2591   2587
   569   2586   2748
   576   2579   2900
   582   2570   3043
   587   2558   3179
   640   2938   535
   637   2919   533
   634   2904   600
   631   2886   747
   625   2875   941
   619   2864   1161
   615   2857   1397
   612   2853   1634
   611   2847   1866
   612   2840   2083
   615   2829   2280
   620   2820   2460
   626   2815   2632
   633   2808   2789
   639   2799   2939
   644   2789   3081
   647   2778   3214
   690   3143   584
   689   3124   584
   687   3111   657
   686   3094   807
   682   3082   1002
   677   3073   1222
   674   3065   1456
   671   3060   1691
   670   3054   1919
   670   3047   2131
   673   3037   2324
   678   3029   2505
   685   3023   2671
   693   3015   2828
   699   3004   2974
   705   2995   3115
   708   2981   3246
   721   3313   611
   721   3298   616
   721   3285   698
   721   3270   852
   718   3258   1048
   716   3250   1270
   714   3245   1501
   713   3238   1734
   712   3233   1960
   713   3226   2166
   715   3218   2357
   721   3210   2534
   729   3205   2699
   738   3197   2853
   746   3189   3000
   752   3178   3139
   757   3167   3272
   746   3471   632
   747   3455   641
   747   3439   733
   748   3427   892
   746   3414   1091
   744   3405   1311
   745   3401   1543
   743   3393   1772
   743   3387   1994
   743   3379   2195
   746   3372   2383
   752   3366   2556
   760   3359   2716
   770   3352   2871
   779   3343   3016
   786   3331   3152
   792   3319   3282
   776   3618   657
   776   3602   672
   776   3586   775
   777   3573   940
   776   3559   1141
   776   3551   1363
   775   3544   1592
   774   3536   1818
   774   3528   2032
   775   3522   2228
   778   3517   2410
   783   3508   2579
   791   3501   2738
   799   3492   2888
   809   3484   3030
   817   3470   3162
   823   3457   3290
   607   3   3
   596   6   104
   519   39   315
   508   50   544
   509   52   804
   505   62   1071
   504   76   1333
   505   90   1589
   506   104   1832
   507   117   2058
   510   130   2261
   514   144   2452
   518   158   2627
   523   172   2796
   527   184   2955
   529   194   3103
   529   201   3245
   619   231   34
   604   215   59
   538   189   298
   494   182   515
   478   170   750
   473   168   1005
   473   170   1265
   476   176   1521
   479   182   1769
   482   188   2000
   486   195   2209
   491   202   2402
   496   211   2579
   502   220   2749
   507   228   2908
   511   234   3058
