Resources/LUT/Garber.3dl
# 17x17x17 .3dl lookup table from LUT Buddy
0 128 256 384 512 640 768 896 1023
   0   0   0
   0   0   387
   0   0   1502
   0   0   2556
   8   8   3210
   25   25   3589
   62   63   3748
   90   93   3865
   114   119   3947
   5   492   5
   7   491   307
   13   492   1264
   26   501   2270
   54   524   2989
   77   548   3458
   97   571   3710
   119   593   3842
   142   613   3931
   65   1200   65
   68   1200   349
   76   1210   1157
   89   1222   2111
   106   1237   2882
   124   1255   3368
   144   1270   3663
   163   1286   3807
   180   1300   3905
   135   2005   135
   137   2004   407
   145   2006   1136
   156   2010   2014
   168   2016   2756
   181   2022   3249
   193   2028   3585
   203   2033   3752
   214   2037   3865
   197   2726   197
   198   2725   461
   202   2727   1121
   208   2731   1921
   214   2736   2630
   220   2742   3128
   226   2745   3465
   231   2749   3689
   235   2752   3814
   218   3286   218
   218   3283   506
   219   3285   1140
   219   3286   1908
   220   3291   2605
   220   3293   3111
   219   3297   3459
   231   3299   3695
   247   3303   3824
   150   3690   150
   149   3687   555
   146   3686   1285
   147   3686   2092
   161   3687   2783
   169   3686   3248
   176   3685   3580
   182   3686   3755
   187   3685   3870
   12   3890   0
   16   3889   529
   19   3886   1396
   20   3885   2273
   21   3883   2955
   22   3881   3389
   24   3880   3670
   27   3877   3812
   31   3874   3911
   16   4010   20
   18   4009   492
   20   4006   1539
   23   4004   2488
   25   4001   3130
   29   3999   3535
   33   3996   3742
   38   3992   3863
   42   3990   3947
   41   0   0
   41   0   358
   41   0   1453
   44   0   2513
   54   9   3182
   79   28   3573
   126   67   3738
   163   97   3859
   195   123   3942
   55   491   6
   58   491   296
   67   492   1237
   88   502   2238
   125   525   2966
   157   550   3438
   187   572   3700
   217   594   3836
   245   614   3925
   151   1199   68
   157   1200   350
   172   1210   1149
   193   1222   2094
   218   1238   2863
   244   1255   3350
   269   1271   3653
   294   1286   3799
   318   1299   3899
   269   2003   139
   276   2002   414
   289   2004   1138
   305   2010   2004
   325   2016   2743
   345   2021   3232
   365   2026   3569
   385   2031   3743
   405   2039   3857
   380   2729   201
   388   2728   476
   400   2730   1134
   415   2734   1925
   432   2739   2624
   450   2744   3115
   468   2748   3451
   487   2752   3680
   507   2755   3805
   457   3290   220
   466   3287   531
   477   3290   1178
   488   3292   1945
   500   3296   2636
   513   3299   3130
   526   3303   3473
   540   3304   3702
   555   3308   3828
   431   3691   147
   443   3688   592
   454   3688   1338
   464   3687   2142
   473   3688   2820
   484   3687   3272
   496   3686   3594
   508   3685   3761
   522   3684   3874
   255   3889   18
   272   3888   587
   284   3886   1475
   293   3884   2343
   303   3883   2999
   313   3880   3418
   326   3879   3683
   341   3876   3819
   358   3873   3916
   61   4009   27
   64   4007   603
   69   4004   1661
   81   4003   2581
   95   3999   3184
   115   3996   3569
   141   3994   3756
   176   3990   3871
   221   3987   3952
   143   0   0
   143   0   332
   145   0   1397
   154   2   2453
   177   12   3137
   221   33   3542
   286   75   3722
   328   104   3848
   365   131   3934
   188   490   8
   195   491   288
   215   494   1201
   252   507   2190
   301   530   2928
   340   554   3409
   375   577   3685
   409   598   3825
   443   619   3917
   352   1204   73
   360   1206   354
   379   1214   1138
   405   1227   2069
   435   1243   2834
   467   1259   3323
   499   1274   3635
   530   1289   3786
   562   1302   3890
   522   2005   147
   531   2004   426
   550   2006   1137
   573   2011   1989
   600   2017   2717
   630   2022   3206
   660   2030   3543
   690   2040   3731
   721   2049   3848
   706   2740   209
   719   2738   494
   739   2740   1147
   762   2744   1923
   789   2749   2609
   818   2753   3097
   849   2757   3427
   880   2760   3664
   911   2763   3793
   835   3300   222
   848   3300   560
   863   3301   1223
   880   3303   1988
   897   3306   2670
   916   3310   3153
   935   3312   3490
   956   3316   3709
   978   3317   3834
   823   3694   139
   840   3693   630
   856   3691   1396
   873   3691   2196
   890   3691   2860
   908   3690   3298
   928   3689   3612
   949   3688   3769
   972   3687   3878
   672   3890   35
   694   3889   646
   713   3887   1553
   731   3885   2413
   750   3883   3044
   770   3881   3448
   794   3878   3696
   820   3876   3828
   850   3872   3920
   427   4008   35
   462   4006   730
   498   4003   1795
   536   4002   2679
   578   3998   3241
   623   3995   3604
   673   3993   3771
   729   3989   3880
   790   3985   3956
   347   0   0
   350   0   306
   358   2   1333
   374   6   2380
   404   18   3081
   451   43   3496
   509   86   3702
   556   114   3835
   600   142   3926
   431   493   12
   440   494   285
   462   501   1162
   499   516   2131
   545   541   2883
   589   564   3373
   632   586   3666
   676   607   3811
   720   627   3907
   625   1214   83
   637   1216   363
   662   1225   1127
   695   1237   2039
   734   1252   2798
   777   1269   3288
   820   1283   3614
   863   1297   3770
   906   1309   3877
   875   2011   161
   889   2010   440
   916   2013   1135
   948   2018   1964
   987   2027   2686
   1028   2036   3179
   1069   2047   3517
   1111   2058   3717
   1153   2067   3836
   1155   2755   220
   1175   2754   514
   1202   2756   1157
   1237   2759   1914
   1276   2764   2585
   1318   2768   3069
   1356   2773   3402
   1390   2777   3653
   1419   2783   3792
   1315   3316   224
   1331   3315   592
   1350   3317   1273
   1370   3318   2035
   1391   3321   2709
   1413   3324   3178
   1437   3327   3510
   1462   3329   3717
   1489   3330   3838
   1311   3700   129
   1332   3699   671
   1354   3698   1456
   1375   3697   2253
   1397   3697   2902
   1421   3696   3326
   1447   3695   3627
   1474   3693   3777
   1504   3692   3883
   1175   3893   49
   1203   3891   708
   1229   3889   1635
   1254   3887   2485
   1281   3885   3090
   1310   3882   3480
   1344   3879   3710
   1380   3877   3836
   1419   3873   3925
   977   4009   43
   1020   4005   872
   1064   4004   1933
   1111   4000   2776
   1163   3997   3298
   1219   3994   3630
   1282   3991   3786
   1350   3987   3889
   1423   3983   3961
   631   2   0
   637   4   282
   649   6   1262
   669   13   2292
   703   28   3012
   752   60   3434
   811   103   3679
   868   130   3820
   924   158   3913
   743   501   20
   755   503   288
   781   513   1123
   821   534   2067
   873   557   2837
   927   579   3333
   983   600   3643
   1038   621   3791
   1094   640   3894
   994   1229   97
   1009   1232   377
   1042   1241   1119
   1086   1254   2007
   1136   1269   2755
   1191   1284   3249
   1247   1298   3583
   1302   1311   3750
   1360   1322   3860
   1339   2025   178
   1359   2026   459
   1392   2031   1137
   1433   2040   1948
   1481   2051   2658
   1531   2064   3150
   1580   2074   3484
   1631   2083   3698
   1681   2091   3819
   1698   2776   233
   1720   2775   535
   1753   2777   1164
   1791   2781   1899
   1822   2786   2568
   1854   2792   3060
   1877   2798   3407
   1901   2804   3662
   1926   2810   3798
   1818   3335   225
   1835   3335   626
   1854   3337   1324
   1873   3339   2086
   1895   3341   2749
   1917   3343   3206
   1940   3346   3532
   1966   3347   3727
   1993   3347   3845
   1820   3709   154
   1840   3707   713
   1862   3706   1518
   1884   3706   2315
   1907   3705   2943
   1932   3704   3355
   1958   3702   3642
   1988   3701   3786
   2018   3698   3888
   1713   3897   62
   1741   3894   773
   1769   3892   1719
   1796   3890   2558
   1825   3888   3136
   1856   3885   3513
   1890   3882   3723
   1929   3879   3845
   1970   3875   3929
   1574   4008   86
   1619   4007   1034
   1665   4003   2080
   1714   3999   2875
   1767   3998   3357
   1823   3994   3657
   1883   3990   3799
   1948   3986   3898
   2018   3981   3966
   1006   7   0
   1014   9   262
   1031   14   1187
   1056   24   2191
   1094   48   2923
   1146   92   3359
   1212   125   3653
   1281   153   3800
   1351   180   3899
   1146   518   36
   1160   523   305
   1190   539   1090
   1240   558   2015
   1303   579   2788
   1371   600   3287
   1438   622   3614
   1505   641   3771
   1570   660   3877
   1468   1253   119
   1488   1257   395
   1527   1266   1111
   1578   1278   1969
   1636   1291   2707
   1697   1307   3200
   1758   1320   3537
   1817   1332   3726
   1875   1346   3843
   1863   2058   201
   1883   2060   483
   1919   2066   1145
   1963   2076   1932
   2012   2086   2626
   2063   2096   3115
   2116   2106   3447
   2168   2115   3675
   2222   2122   3799
   2237   2803   247
   2255   2803   558
   2278   2807   1184
   2295   2812   1925
   2314   2819   2596
   2335   2826   3089
   2357   2832   3429
   2380   2837   3673
   2404   2843   3805
   2293   3360   222
   2311   3360   661
   2328   3361   1377
   2347   3362   2138
   2368   3365   2790
   2390   3368   3233
   2413   3369   3554
   2439   3369   3736
   2464   3370   3851
   2293   3718   176
   2314   3717   757
   2335   3716   1581
   2356   3715   2375
   2380   3714   2986
   2405   3713   3385
   2432   3710   3657
   2462   3709   3794
   2493   3706   3892
   2204   3901   77
   2230   3899   843
   2257   3896   1807
   2285   3894   2631
   2314   3892   3183
   2346   3889   3547
   2383   3885   3737
   2421   3882   3853
   2463   3878   3933
   2110   4009   197
   2152   4006   1219
   2195   4004   2238
   2242   4001   2976
   2291   3997   3420
   2347   3993   3684
   2404   3989   3817
   2467   3984   3907
   2534   3980   3971
   1478   17   4
   1488   20   254
   1507   29   1116
   1536   49   2081
   1573   89   2818
   1634   130   3294
   1708   158   3621
   1780   184   3776
   1852   208   3882
   1633   553   70
   1651   559   334
   1692   573   1074
   1748   590   1971
   1814   609   2733
   1883   630   3235
   1951   650   3575
   2017   669   3746
   2084   687   3858
   1992   1286   149
   2013   1289   418
   2053   1298   1105
   2104   1310   1933
   2163   1324   2651
   2224   1340   3152
   2283   1357   3491
   2342   1373   3703
   2401   1389   3823
   2396   2101   226
   2418   2102   509
   2453   2109   1151
   2498   2117   1912
   2547   2127   2586
   2598   2136   3072
   2648   2144   3400
   2698   2152   3644
   2745   2159   3775
   2692   2842   259
   2703   2842   591
   2717   2847   1233
   2731   2852   1973
   2748   2858   2637
   2765   2865   3118
   2782   2870   3451
   2801   2873   3684
   2820   2878   3812
   2723   3388   221
   2736   3388   695
   2752   3389   1430
   2768   3389   2191
   2785   3392   2830
   2804   3395   3262
   2823   3394   3574
   2843   3395   3745
   2865   3394   3856
   2717   3728   202
   2735   3728   801
   2753   3727   1645
   2773   3726   2436
   2792   3725   3029
   2814   3722   3415
   2837   3721   3670
   2861   3718   3803
   2887   3715   3897
   2642   3906   95
   2666   3905   920
   2690   3902   1899
   2715   3899   2707
   2741   3897   3230
   2770   3894   3579
   2802   3890   3751
   2836   3887   3860
   2873   3881   3937
   2578   4011   370
   2615   4007   1432
   2654   4006   2410
   2695   4002   3079
   2739   3998   3486
   2785   3994   3711
   2835   3989   3834
   2888   3983   3916
   2943   3978   3976
   1981   42   21
   1990   48   268
   2008   68   1057
   2033   107   1970
   2088   146   2727
   2160   173   3238
   2232   198   3582
   2305   222   3751
   2376   245   3861
   2162   595   104
   2180   600   361
   2222   612   1065
   2281   630   1927
   2345   649   2673
   2415   669   3180
   2482   687   3520
   2548   706   3716
   2611   723   3835
   2530   1328   186
   2551   1333   446
   2587   1344   1104
   2634   1360   1902
   2686   1377   2610
   2740   1393   3111
   2792   1409   3448
   2844   1424   3677
   2893   1437   3802
   2892   2149   253
   2911   2151   534
   2941   2157   1153
   2979   2166   1883
   3019   2174   2537
   3056   2183   3021
   3081   2192   3363
   3096   2203   3632
   3110   2212   3776
   3050   2886   266
   3058   2886   623
   3070   2889   1282
   3081   2895   2020
   3093   2902   2677
   3107   2907   3145
   3121   2911   3473
   3136   2916   3692
   3152   2919   3816
   3069   3419   276
   3078   3417   728
   3090   3418   1481
   3103   3420   2242
   3117   3423   2870
   3132   3424   3288
   3148   3423   3593
   3165   3424   3753
   3182   3423   3860
   3058   3743   249
   3072   3741   848
   3086   3740   1711
   3101   3739   2498
   3117   3736   3070
   3136   3735   3445
   3154   3732   3683
   3175   3731   3810
   3195   3728   3901
   2992   3912   155
   3012   3911   1008
   3033   3908   1998
   3053   3905   2786
   3075   3903   3280
   3101   3899   3610
   3126   3896   3765
   3158   3891   3869
   3190   3885   3941
   2947   4013   572
   2977   4009   1668
   3008   4006   2592
   3042   4003   3184
   3079   3999   3559
   3117   3994   3740
   3158   3988   3850
   3202   3983   3926
   3248   3976   3982
   2469   111   72
   2478   124   321
   2510   150   1031
   2565   174   1904
   2630   199   2662
   2698   223   3178
   2763   247   3524
   2825   269   3719
   2886   290   3837
   2700   645   147
   2720   650   392
   2758   662   1058
   2809   679   1883
   2864   697   2608
   2917   717   3120
   2970   737   3466
   3020   755   3690
   3069   772   3813
   3008   1393   225
   3025   1397   478
   3055   1408   1110
   3090   1423   1877
   3132   1438   2563
   3175   1453   3062
   3214   1467   3396
   3254   1480   3642
   3293   1491   3774
   3294   2205   279
   3308   2205   556
   3321   2213   1155
   3334   2222   1874
   3342   2233   2537
   3353   2243   3038
   3364   2252   3384
   3374   2262   3643
   3386   2271   3782
   3333   2933   276
   3338   2933   652
   3346   2937   1327
   3356   2942   2065
   3366   2948   2714
   3376   2952   3169
   3387   2956   3493
   3400   2961   3702
   3412   2962   3820
   3337   3454   322
   3345   3452   759
   3356   3453   1531
   3367   3455   2292
   3377   3457   2906
   3390   3458   3314
   3402   3457   3611
   3417   3457   3760
   3432   3456   3863
   3323   3757   316
   3332   3754   896
   3345   3753   1778
   3357   3751   2560
   3372   3750   3111
   3385   3749   3473
   3401   3746   3695
   3418   3743   3818
   3437   3740   3904
   3264   3920   307
   3279   3917   1119
   3296   3914   2115
   3314   3912   2874
   3334   3909   3338
   3355   3905   3637
   3380   3900   3780
   3406   3896   3877
   3435   3891   3945
   3225   4015   932
   3249   4011   1936
   3274   4009   2785
   3302   4005   3299
   3331   3999   3623
   3364   3993   3773
   3402   3986   3870
   3441   3978   3938
   3487   3968   3988
