Resources/LUT/Garber.3dl
# 17x17x17 .3dl lookup table from LUT Buddy
0 256 512 768 1023
   0   0   0
   0   0   1502
   8   8   3210
   62   63   3748
   114   119   3947
   65   1200   65
   76   1210   1157
   106   1237   2882
   144   1270   3663
   180   1300   3905
   197   2726   197
   202   2727   1121
   214   2736   2630
   226   2745   3465
   235   2752   3814
   150   3690   150
   146   3686   1285
   161   3687   2783
   176   3685   3580
   187   3685   3870
   16   4010   20
   20   4006   1539
   25   4001   3130
   33   3996   3742
   42   3990   3947
   143   0   0
   145   0   1397
   177   12   3137
   286   75   3722
   365   131   3934
   352   1204   73
   379   1214   1138
   435   1243   2834
   499   1274   3635
   562   1302   3890
   706   2740   209
   739   2740   1147
   789   2749   2609
   849   2757   3427
   911   2763   3793
   823   3694   139
   856   3691   1396
   890   3691   2860
   928   3689   3612
   972   3687   3878
   427   4008   35
   498   4003   1795
   578   3998   3241
   673   3993   3771
   790   3985   3956
   631   2   0
   649   6   1262
   703   28   3012
   811   103   3679
   924   158   3913
   994   1229   97
   1042   1241   1119
   1136   1269   2755
   1247   1298   3583
   1360   1322   3860
   1698   2776   233
   1753   2777   1164
   1822   2786   2568
   1877   2798   3407
   1926   2810   3798
   1820   3709   154
   1862   3706   1518
   1907   3705   2943
   1958   3702   3642
   2018   3698   3888
   1574   4008   86
   1665   4003   2080
   1767   3998   3357
   1883   3990   3799
   2018   3981   3966
   1478   17   4
   1507   29   1116
   1573   89   2818
   1708   158   3621
   1852   208   3882
   1992   1286   149
   2053   1298   1105
   2163   1324   2651
   2283   1357   3491
   2401   1389   3823
   2692   2842   259
   2717   2847   1233
   2748   2858   2637
   2782   2870   3451
   2820   2878   3812
   2717   3728   202
   2753   3727   1645
   2792   3725   3029
   2837   3721   3670
   2887   3715   3897
   2578   4011   370
   2654   4006   2410
   2739   3998   3486
   2835   3989   3834
   2943   3978   3976
   2469   111   72
   2510   150   1031
   2630   199   2662
   2763   247   3524
   2886   290   3837
   3008   1393   225
   3055   1408   1110
   3132   1438   2563
   3214   1467   3396
   3293   1491   3774
   3333   2933   276
   3346   2937   1327
   3366   2948   2714
   3387   2956   3493
   3412   2962   3820
   3323   3757   316
   3345   3753   1778
   3372   3750   3111
   3401   3746   3695
   3437   3740   3904
   3225   4015   932
   3274   4009   2785
   3331   3999   3623
   3402   3986   3870
   3487   3968   3988
