Resources/LUT/Garber.3dl
# 17x17x17 .3dl lookup table from LUT Buddy
   0   64   128   192   256   320   384   448   512   576   640   704   768   832   896   960   1023
   0   0   0
   0   0   9
   0   0   387
   0   0   899
   0   0   1502
   0   0   2064
   0   0   2556
   2   2   2932
   8   8   3210
   15   15   3430
   25   25   3589
   41   41   3680
   62   63   3748
   78   80   3813
   90   93   3865
   102   106   3910
   114   119   3947
   0   210   0
   0   210   0
   0   208   333
   0   207   803
   1   207   1371
   4   209   1922
   8   215   2412
   14   224   2808
   23   238   3103
   36   256   3328
   54   279   3509
   70   297   3638
   82   312   3726
   92   324   3798
   104   336   3855
   115   348   3900
   127   360   3939
   5   492   5
   5   492   5
   7   491   307
   9   491   737
   13   492   1264
   18   496   1794
   26   501   2270
   38   511   2675
   54   524   2989
   67   537   3244
   77   548   3458
   87   560   3615
   97   571   3710
   108   582   3783
   119   593   3842
   130   603   3890
   142   613   3931
   29   818   29
   29   817   29
   33   818   318
   39   818   702
   46   822   1175
   55   827   1683
   62   836   2157
   70   845   2587
   79   855   2933
   88   865   3199
   98   875   3416
   108   885   3589
   118   895   3688
   129   904   3764
   139   914   3827
   150   923   3877
   161   931   3919
   65   1200   65
   65   1198   65
   68   1200   349
   72   1205   707
   76   1210   1157
   82   1215   1650
   89   1222   2111
   97   1230   2535
   106   1237   2882
   115   1246   3150
   124   1255   3368
   134   1263   3549
   144   1270   3663
   154   1278   3742
   163   1286   3807
   172   1292   3861
   180   1300   3905
   98   1614   98
   98   1613   98
   100   1614   377
   104   1616   718
   109   1620   1147
   115   1624   1618
   121   1628   2064
   129   1633   2478
   137   1639   2823
   146   1644   3097
   155   1650   3311
   163   1654   3493
   170   1659   3629
   178   1664   3714
   185   1668   3782
   192   1672   3840
   198   1677   3887
   135   2005   135
   135   2004   135
   137   2004   407
   141   2005   731
   145   2006   1136
   150   2008   1586
   156   2010   2014
   162   2014   2415
   168   2016   2756
   174   2020   3032
   181   2022   3249
   187   2026   3429
   193   2028   3585
   198   2030   3680
   203   2033   3752
   209   2034   3812
   214   2037   3865
   169   2374   169
   169   2371   176
   171   2371   433
   173   2371   740
   176   2371   1123
   180   2371   1549
   184   2375   1956
   189   2378   2344
   193   2381   2686
   198   2386   2964
   203   2390   3183
   208   2394   3367
   212   2398   3525
   216   2402   3645
   220   2405   3724
   224   2410   3788
   228   2412   3843
   197   2726   197
   197   2725   228
   198   2725   461
   200   2727   756
   202   2727   1121
   205   2729   1528
   208   2731   1921
   211   2732   2294
   214   2736   2630
   217   2738   2905
   220   2742   3128
   223   2743   3307
   226   2745   3465
   228   2748   3602
   231   2749   3689
   233   2751   3758
   235   2752   3814
   215   3031   215
   215   3030   266
   215   3029   483
   217   3029   766
   218   3029   1113
   219   3029   1499
   221   3032   1874
   222   3033   2229
   224   3032   2556
   226   3034   2830
   227   3035   3058
   228   3037   3242
   230   3038   3403
   231   3040   3547
   232   3042   3662
   233   3045   3739
   234   3046   3802
   218   3286   218
   218   3284   291
   218   3283   506
   218   3284   791
   219   3285   1140
   219   3286   1529
   219   3286   1908
   220   3289   2271
   220   3291   2605
   220   3291   2884
   220   3293   3111
   219   3297   3295
   219   3297   3459
   222   3298   3601
   231   3299   3695
   239   3303   3765
   247   3303   3824
   199   3519   199
   199   3517   306
   199   3517   537
   199   3517   843
   198   3517   1214
   197   3518   1614
   196   3518   2000
   194   3519   2368
   193   3520   2695
   193   3521   2962
   199   3523   3180
   207   3524   3361
   213   3525   3519
   219   3525   3644
   224   3527   3726
   229   3526   3791
   234   3526   3849
   150   3690   150
   150   3688   301
   149   3687   555
   148   3687   888
   146   3686   1285
   145   3686   1698
   147   3686   2092
   155   3686   2464
   161   3687   2783
   165   3686   3042
   169   3686   3248
   173   3686   3425
   176   3685   3580
   179   3686   3681
   182   3686   3755
   184   3685   3816
   187   3685   3870
   70   3801   69
   75   3800   268
   80   3799   555
   84   3798   920
   87   3798   1346
   89   3797   1777
   90   3797   2185
   91   3796   2560
   93   3796   2871
   94   3795   3119
   96   3795   3319
   97   3794   3491
   98   3792   3629
   99   3792   3716
   100   3791   3783
   102   3790   3842
   103   3788   3891
   12   3890   0
   14   3890   197
   16   3889   529
   18   3887   932
   19   3886   1396
   19   3886   1851
   20   3885   2273
   20   3885   2651
   21   3883   2955
   21   3882   3193
   22   3881   3389
   23   3881   3558
   24   3880   3670
   26   3878   3747
   27   3877   3812
   29   3876   3866
   31   3874   3911
   10   3958   10
   11   3958   98
   12   3957   471
   13   3956   923
   14   3954   1431
   15   3953   1916
   16   3953   2359
   18   3952   2738
   19   3950   3035
   21   3949   3266
   22   3948   3458
   24   3948   3615
   26   3945   3706
   28   3944   3778
   30   3944   3839
   32   3941   3888
   34   3940   3931
   16   4010   20
   17   4009   81
   18   4009   492
   19   4008   992
   20   4006   1539
   22   4005   2038
   23   4004   2488
   24   4003   2852
   25   4001   3130
   27   4000   3349
   29   3999   3535
   31   3997   3660
   33   3996   3742
   35   3995   3808
   38   3992   3863
   40   3991   3908
   42   3990   3947
   2   0   0
   3   0   0
   2   0   374
   2   0   880
   2   0   1481
   2   0   2045
   4   0   2540
   7   2   2920
   13   7   3200
   21   15   3421
   32   26   3584
   49   42   3675
   71   64   3745
   89   82   3809
   102   95   3863
   115   108   3907
   129   121   3945
   3   210   0
   3   210   0
   4   208   324
   5   207   791
   7   207   1358
   10   210   1908
   15   215   2398
   21   224   2794
   31   238   3092
   45   257   3319
   65   279   3502
   82   298   3634
   95   312   3722
   107   324   3795
   120   336   3851
   133   348   3897
   147   360   3938
   12   492   5
   12   492   5
   14   491   302
   17   491   730
   21   492   1252
   28   495   1783
   37   501   2258
   50   511   2665
   67   524   2980
   81   537   3235
   93   549   3449
   105   560   3611
   117   571   3706
   129   582   3779
   142   593   3840
   155   603   3888
   169   614   3929
   40   817   30
   40   816   30
   45   817   316
   52   817   698
   60   821   1169
   70   827   1676
   79   836   2147
   88   845   2578
   98   855   2925
   110   865   3194
   121   875   3409
   134   885   3584
   146   894   3685
   159   904   3761
   172   913   3824
   184   923   3875
   197   931   3917
   82   1199   66
   83   1198   66
   86   1200   349
   91   1204   706
   97   1209   1154
   105   1215   1645
   114   1222   2105
   124   1229   2529
   135   1237   2875
   147   1246   3145
   159   1253   3361
   171   1262   3543
   183   1270   3658
   194   1278   3738
   206   1285   3803
   217   1292   3857
   227   1299   3903
   123   1613   98
   124   1612   98
   129   1614   379
   134   1616   720
   141   1620   1147
   149   1622   1616
   158   1628   2060
   169   1632   2473
   179   1637   2817
   190   1642   3090
   200   1648   3305
   211   1653   3487
   221   1658   3625
   230   1663   3710
   240   1668   3778
   249   1671   3836
   258   1676   3884
   173   2003   136
   174   2002   136
   179   2003   410
   184   2004   734
   190   2005   1138
   197   2007   1585
   205   2010   2009
   214   2012   2409
   222   2015   2751
   231   2019   3027
   240   2021   3242
   249   2024   3423
   257   2027   3578
   266   2029   3676
   274   2031   3748
   282   2033   3808
   291   2037   3861
   219   2371   170
   221   2371   186
   225   2371   438
   230   2371   745
   235   2370   1127
   241   2372   1550
   248   2375   1958
   255   2379   2342
   263   2382   2683
   271   2386   2960
   279   2391   3179
   287   2395   3361
   295   2399   3520
   302   2404   3642
   310   2407   3720
   318   2411   3784
   325   2414   3839
   261   2727   198
   264   2725   237
   267   2726   468
   272   2727   764
   277   2727   1129
   283   2730   1533
   289   2731   1924
   295   2734   2293
   302   2737   2627
   309   2739   2902
   316   2742   3124
   323   2744   3302
   330   2746   3459
   337   2748   3596
   344   2751   3685
   352   2751   3752
   359   2754   3810
   296   3031   216
   299   3030   275
   303   3030   491
   307   3029   775
   312   3029   1120
   317   3030   1505
   323   3032   1877
   329   3032   2230
   335   3033   2554
   341   3034   2832
   347   3037   3058
   353   3038   3242
   359   3040   3406
   366   3044   3553
   372   3045   3665
   378   3048   3741
   384   3050   3804
   315   3286   219
   319   3285   301
   322   3285   518
   326   3286   806
   330   3286   1158
   335   3287   1547
   340   3289   1926
   344   3291   2288
   349   3292   2619
   354   3293   2895
   358   3297   3120
   363   3298   3303
   368   3299   3465
   373   3301   3607
   379   3303   3697
   384   3303   3768
   390   3303   3826
   311   3521   199
   315   3519   317
   319   3518   551
   323   3518   862
   326   3519   1235
   330   3519   1637
   334   3520   2020
   338   3522   2388
   342   3523   2712
   346   3523   2977
   350   3525   3191
   354   3525   3370
   359   3526   3527
   363   3526   3650
   368   3526   3729
   372   3527   3793
   377   3527   3851
   280   3689   149
   285   3689   313
   289   3689   573
   293   3688   911
   296   3688   1311
   300   3688   1723
   303   3687   2116
   306   3687   2486
   310   3687   2802
   313   3686   3057
   316   3687   3260
   320   3687   3435
   323   3686   3586
   327   3686   3685
   331   3685   3758
   336   3685   3819
   340   3684   3872
   209   3800   66
   214   3800   284
   219   3800   577
   223   3798   948
   227   3797   1378
   230   3797   1807
   233   3797   2213
   235   3796   2584
   237   3795   2891
   240   3795   3134
   243   3794   3331
   246   3794   3504
   249   3792   3636
   253   3791   3720
   257   3790   3787
   262   3790   3845
   267   3787   3893
   93   3890   8
   98   3889   220
   102   3887   558
   106   3886   969
   109   3886   1435
   112   3885   1887
   114   3885   2307
   116   3884   2679
   117   3882   2978
   119   3881   3209
   122   3881   3403
   124   3880   3570
   128   3879   3676
   131   3877   3752
   135   3876   3815
   140   3874   3869
   145   3873   3913
   33   3957   13
   34   3957   122
   35   3956   510
   37   3956   969
   38   3953   1479
   40   3953   1959
   41   3952   2399
   43   3951   2769
   44   3949   3061
   46   3948   3284
   48   3948   3473
   50   3945   3624
   51   3944   3713
   53   3944   3784
   55   3943   3844
   57   3940   3892
   59   3939   3933
   37   4009   23
   39   4009   110
   40   4008   546
   42   4006   1054
   43   4005   1599
   45   4004   2093
   47   4003   2535
   49   4002   2889
   50   4000   3156
   52   3999   3372
   54   3999   3552
   56   3996   3669
   58   3995   3749
   60   3994   3814
   63   3991   3868
   65   3990   3911
   67   3988   3948
   41   0   0
   41   0   0
   41   0   358
   40   0   857
   41   0   1453
   41   0   2015
   44   0   2513
   48   3   2896
   54   9   3182
   64   17   3403
   79   28   3573
   99   44   3667
   126   67   3738
   147   84   3803
   163   97   3859
   179   110   3903
   195   123   3942
   43   209   0
   43   209   0
   44   208   314
   46   207   774
   48   207   1336
   51   210   1885
   57   216   2374
   66   225   2774
   79   239   3075
   97   258   3303
   121   281   3488
   141   299   3626
   157   313   3717
   172   325   3789
   188   337   3847
   203   349   3895
   218   361   3934
   55   491   6
   55   491   6
   58   491   296
   61   491   719
   67   492   1237
   76   496   1764
   88   502   2238
   105   512   2645
   125   525   2966
   143   538   3222
   157   550   3438
   172   561   3603
   187   572   3700
   202   583   3773
   217   594   3836
   231   604   3884
   245   614   3925
   94   816   31
   94   816   31
   101   816   315
   110   818   692
   120   822   1160
   132   828   1663
   143   837   2134
   155   846   2565
   169   856   2913
   183   866   3181
   197   876   3398
   211   886   3575
   225   895   3678
   239   905   3756
   253   914   3820
   266   923   3871
   279   932   3914
   151   1199   68
   152   1198   68
   157   1200   350
   163   1205   704
   172   1210   1149
   181   1215   1636
   193   1222   2094
   205   1230   2516
   218   1238   2863
   231   1246   3134
   244   1255   3350
   257   1263   3532
   269   1271   3653
   282   1278   3733
   294   1286   3799
   306   1292   3854
   318   1299   3899
   209   1612   101
   210   1612   101
   216   1614   381
   222   1616   720
   230   1618   1144
   239   1622   1611
   249   1628   2052
   259   1632   2463
   271   1638   2807
   283   1642   3081
   294   1648   3296
   305   1653   3476
   317   1658   3617
   327   1663   3705
   338   1667   3774
   349   1671   3832
   360   1675   3880
   269   2003   139
   271   2002   139
   276   2002   414
   282   2003   737
   289   2004   1138
   297   2006   1583
   305   2010   2004
   315   2012   2401
   325   2016   2743
   334   2017   3017
   345   2021   3232
   355   2023   3412
   365   2026   3569
   375   2028   3670
   385   2031   3743
   395   2035   3804
   405   2039   3857
   326   2371   173
   328   2370   197
   333   2370   444
   338   2370   750
   345   2372   1130
   352   2374   1552
   360   2375   1955
   369   2382   2339
   378   2386   2678
   388   2390   2955
   397   2394   3173
   407   2399   3355
   416   2402   3511
   426   2406   3636
   435   2410   3716
   445   2413   3779
   456   2418   3835
   380   2729   201
   383   2728   246
   388   2728   476
   394   2729   771
   400   2730   1134
   407   2732   1538
   415   2734   1925
   423   2737   2291
   432   2739   2624
   440   2742   2896
   450   2744   3115
   459   2747   3296
   468   2748   3451
   478   2750   3587
   487   2752   3680
   497   2754   3748
   507   2755   3805
   429   3033   218
   433   3032   284
   438   3032   500
   444   3032   784
   451   3032   1128
   458   3033   1510
   466   3032   1879
   473   3034   2231
   481   3036   2558
   489   3039   2834
   497   3039   3059
   504   3042   3247
   512   3045   3412
   519   3047   3558
   527   3049   3668
   534   3051   3743
   543   3054   3805
   457   3290   220
   461   3288   312
   466   3287   531
   472   3289   823
   477   3290   1178
   482   3291   1567
   488   3292   1945
   494   3293   2307
   500   3296   2636
   506   3298   2909
   513   3299   3130
   519   3301   3312
   526   3303   3473
   533   3303   3612
   540   3304   3702
   547   3307   3770
   555   3308   3828
   456   3523   199
   462   3522   327
   467   3522   567
   472   3522   882
   477   3522   1259
   482   3522   1660
   488   3524   2042
   493   3524   2408
   499   3525   2728
   504   3526   2990
   510   3526   3199
   517   3527   3379
   523   3528   3534
   529   3528   3654
   536   3529   3732
   543   3529   3796
   550   3529   3852
   431   3691   147
   438   3689   325
   443   3688   592
   449   3688   935
   454   3688   1338
   459   3687   1750
   464   3687   2142
   469   3688   2509
   473   3688   2820
   479   3688   3071
   484   3687   3272
   490   3687   3445
   496   3686   3594
   502   3686   3690
   508   3685   3761
   515   3685   3821
   522   3684   3874
   371   3800   63
   377   3800   300
   383   3799   600
   389   3799   977
   394   3799   1411
   399   3798   1840
   404   3797   2242
   409   3796   2609
   413   3795   2912
   418   3794   3150
   423   3794   3344
   429   3793   3514
   434   3793   3642
   441   3792   3724
   447   3790   3791
   455   3789   3848
   462   3789   3895
   255   3889   18
   264   3889   242
   272   3888   587
   278   3886   1005
   284   3886   1475
   289   3885   1924
   293   3884   2343
   298   3884   2707
   303   3883   2999
   308   3881   3227
   313   3880   3418
   320   3880   3580
   326   3879   3683
   334   3877   3758
   341   3876   3819
   350   3874   3871
   358   3873   3916
   95   3957   16
   101   3956   148
   107   3956   548
   112   3955   1015
   117   3953   1528
   121   3952   2004
   126   3952   2438
   129   3951   2801
   134   3949   3084
   139   3948   3304
   144   3947   3490
   151   3945   3633
   158   3944   3719
   167   3943   3789
   176   3940   3848
   186   3940   3894
   197   3939   3934
   61   4009   27
   62   4008   149
   64   4007   603
   65   4005   1121
   69   4004   1661
   75   4004   2149
   81   4003   2581
   88   4000   2925
   95   3999   3184
   105   3999   3394
   115   3996   3569
   128   3995   3679
   141   3994   3756
   158   3991   3820
   176   3990   3871
   197   3989   3915
   221   3987   3952
   84   0   0
   84   0   0
   84   0   346
   84   0   836
   84   0   1425
   86   0   1987
   89   1   2484
   95   5   2872
   104   10   3160
   118   19   3384
   137   30   3561
   163   47   3658
   196   70   3730
   220   87   3799
   238   100   3853
   255   113   3899
   272   127   3938
   89   208   0
   89   208   0
   91   207   305
   93   207   760
   97   208   1313
   102   211   1860
   111   217   2350
   123   227   2752
   140   242   3055
   163   260   3285
   193   283   3472
   217   301   3618
   236   315   3709
   253   327   3783
   269   339   3843
   285   351   3890
