Resources/LUT/Gold Tone.3dl
# 17x17x17 .3dl lookup table from LUT Buddy
0 128 256 384 512 640 768 896 1023
   0   0   0
   222   177   80
   537   455   259
   817   701   422
   1075   926   568
   1307   1126   697
   1513   1304   809
   1700   1465   909
   1877   1618   1003
   440   370   202
   545   462   264
   759   650   389
   990   852   521
   1219   1050   649
   1433   1235   766
   1626   1402   870
   1802   1553   964
   1969   1697   1051
   793   680   409
   865   742   450
   1027   884   542
   1220   1051   649
   1419   1223   758
   1612   1389   862
   1789   1543   957
   1952   1683   1043
   2105   1817   1124
   1136   978   602
   1194   1029   635
   1327   1143   708
   1489   1283   796
   1663   1433   889
   1835   1581   981
   1994   1720   1065
   2140   1848   1143
   2281   1971   1218
   1470   1267   786
   1522   1312   814
   1636   1410   875
   1777   1532   950
   1930   1663   1031
   2080   1795   1111
   2220   1918   1186
   2353   2034   1256
   2477   2144   1324
   1786   1540   955
   1839   1586   983
   1941   1673   1037
   2065   1782   1103
   2200   1899   1174
   2330   2014   1245
   2453   2123   1311
   2583   2237   1381
   2708   2347   1450
   2083   1798   1113
   2141   1848   1144
   2233   1928   1192
   2348   2030   1254
   2483   2149   1327
   2609   2259   1395
   2727   2364   1460
   2837   2462   1521
   2943   2556   1581
   2411   2085   1288
   2481   2147   1326
   2572   2227   1375
   2673   2316   1431
   2782   2414   1491
   2888   2507   1550
   2989   2598   1607
   3085   2684   1663
   3180   2769   1718
   2742   2378   1469
   2803   2432   1502
   2885   2504   1548
   2977   2586   1600
   3070   2670   1654
   3163   2754   1708
   3249   2831   1760
   3326   2910   1812
   3397   2987   1863
   556   472   270
   653   557   327
   851   730   442
   1071   922   566
   1293   1114   689
   1502   1295   803
   1692   1458   905
   1867   1610   998
   2032   1752   1085
   798   684   412
   873   749   454
   1039   894   548
   1233   1062   657
   1435   1237   767
   1630   1405   872
   1810   1560   968
   1976   1704   1056
   2132   1840   1138
   1079   929   571
   1140   982   605
   1282   1105   683
   1452   1252   776
   1634   1409   874
   1813   1563   969
   1978   1706   1057
   2131   1840   1139
   2278   1968   1216
   1385   1194   740
   1441   1242   770
   1564   1348   836
   1715   1478   917
   1878   1619   1003
   2039   1758   1089
   2188   1890   1169
   2329   2013   1244
   2463   2130   1316
   1700   1465   909
   1756   1514   939
   1866   1609   997
   2001   1725   1069
   2145   1851   1145
   2288   1977   1222
   2423   2095   1294
   2549   2208   1363
   2672   2316   1430
   2010   1734   1074
   2069   1785   1105
   2168   1872   1158
   2289   1978   1222
   2418   2092   1292
   2547   2205   1361
   2667   2311   1427
   2782   2413   1491
   2893   2513   1553
   2305   1992   1231
   2370   2049   1266
   2464   2131   1317
   2573   2229   1376
   2690   2332   1440
   2805   2433   1503
   2914   2530   1565
   3017   2623   1624
   3118   2713   1682
   2611   2261   1397
   2677   2320   1433
   2766   2398   1482
   2867   2489   1538
   2971   2581   1597
   3074   2673   1656
   3169   2760   1712
   3260   2843   1767
   3340   2926   1822
   2914   2530   1565
   2979   2590   1603
   3065   2666   1651
   3158   2749   1705
   3250   2834   1761
   3331   2916   1815
   3404   2994   1868
   3472   3068   1919
   3539   3144   1971
   1127   970   597
   1188   1023   631
   1324   1141   706
   1491   1285   797
   1671   1440   894
   1847   1592   987
   2011   1734   1074
   2163   1868   1155
   2307   1994   1232
   1291   1112   688
   1345   1159   718
   1470   1268   786
   1626   1402   870
   1795   1548   960
   1962   1692   1048
   2118   1828   1131
   2263   1956   1209
   2402   2078   1283
   1505   1298   805
   1557   1342   833
   1673   1443   895
   1817   1566   971
   1973   1701   1054
   2127   1836   1136
   2271   1963   1213
   2409   2083   1287
   2540   2199   1358
   1759   1517   941
   1811   1561   968
   1917   1653   1024
   2047   1766   1094
   2191   1892   1170
   2333   2017   1246
   2466   2133   1318
   2592   2245   1386
   2713   2352   1453
   2034   1755   1086
   2087   1801   1114
   2185   1887   1167
   2303   1991   1230
   2433   2105   1300
   2562   2218   1370
   2683   2326   1436
   2799   2428   1500
   2910   2527   1563
   2309   1996   1233
   2367   2047   1264
   2458   2127   1314
   2569   2224   1373
   2685   2328   1438
   2802   2430   1502
   2913   2529   1564
   3019   2625   1625
   3120   2716   1683
   2576   2231   1378
   2643   2290   1414
   2730   2366   1462
   2832   2458   1519
   2940   2555   1580
   3045   2648   1640
   3144   2738   1698
   3240   2824   1754
   3323   2908   1810
   2862   2485   1536
   2928   2543   1573
   3012   2617   1620
   3106   2703   1675
   3203   2790   1732
   3292   2876   1789
   3370   2957   1843
   3442   3036   1897
   3512   3113   1949
   3144   2738   1697
   3211   2798   1737
   3288   2872   1786
   3363   2950   1839
   3438   3031   1893
   3506   3106   1945
   3573   3181   1998
   3634   3253   2048
   3677   3313   2093
   1651   1423   883
   1695   1462   907
   1803   1554   964
   1936   1669   1034
   2083   1797   1112
   2230   1926   1191
   2368   2047   1264
   2499   2162   1335
   2624   2273   1404
   1778   1532   951
   1821   1570   974
   1922   1658   1028
   2050   1769   1095
   2191   1892   1170
   2330   2014   1244
   2463   2131   1316
   2589   2243   1385
   2710   2350   1451
   1952   1683   1043
   1996   1721   1066
   2092   1805   1117
   2212   1910   1181
   2343   2025   1251
   2476   2142   1323
   2602   2254   1392
   2720   2359   1457
   2838   2462   1521
   2165   1869   1156
   2209   1908   1180
   2300   1988   1228
   2412   2086   1289
   2535   2194   1355
   2657   2303   1422
   2775   2406   1487
   2886   2507   1550
   2995   2603   1611
   2398   2074   1281
   2447   2117   1307
   2533   2193   1354
   2636   2284   1410
   2751   2386   1473
   2864   2486   1537
   2971   2582   1597
   3076   2675   1657
   3174   2765   1715
   2639   2285   1411
   2693   2334   1441
   2775   2407   1487
   2874   2495   1542
   2979   2589   1602
   3083   2682   1662
   3182   2772   1720
   3273   2856   1775
   3354   2940   1832
   2876   2496   1543
   2940   2554   1580
   3020   2626   1625
   3112   2708   1678
   3209   2796   1736
   3298   2882   1793
   3376   2965   1848
   3449   3043   1902
   3520   3121   1956
   3136   2730   1692
   3196   2785   1728
   3272   2855   1775
   3348   2934   1828
   3424   3015   1883
   3493   3092   1936
   3561   3169   1988
   3623   3240   2039
   3670   3304   2086
   3373   2961   1846
   3429   3020   1886
   3492   3090   1934
   3557   3164   1985
   3621   3237   2037
   3669   3302   2084
   3707   3356   2127
   3741   3408   2169
   3772   3460   2211
   2139   1846   1142
   2174   1878   1161
   2262   1953   1207
   2369   2048   1265
   2491   2156   1331
   2613   2263   1397
   2731   2368   1462
   2843   2468   1525
   2949   2563   1585
   2239   1935   1196
   2276   1968   1216
   2360   2041   1261
   2465   2133   1317
   2582   2237   1381
   2700   2340   1445
   2814   2442   1509
   2922   2538   1570
   3027   2631   1629
   2384   2061   1273
   2421   2094   1293
   2502   2165   1337
   2603   2255   1392
   2714   2353   1453
   2828   2454   1517
   2937   2551   1578
   3040   2643   1637
   3140   2734   1695
   2562   2218   1369
   2602   2253   1391
   2680   2322   1434
   2776   2407   1488
   2882   2502   1547
   2988   2596   1607
   3090   2688   1666
   3186   2775   1722
   3279   2862   1779
   2761   2394   1479
   2805   2433   1503
   2882   2502   1547
   2972   2582   1598
   3072   2672   1655
   3170   2760   1712
   3263   2846   1769
   3343   2928   1824
   3418   3009   1879
   2967   2577   1595
   3020   2625   1626
   3094   2692   1668
   3181   2770   1719
   3270   2854   1774
   3349   2936   1829
   3424   3016   1883
   3495   3094   1937
   3561   3169   1988
   3180   2770   1718
   3237   2822   1753
   3303   2887   1796
   3374   2962   1846
   3447   3041   1900
   3516   3119   1954
   3582   3193   2005
   3641   3262   2055
   3682   3321   2100
   3388   2976   1856
   3435   3028   1891
   3495   3095   1937
   3560   3167   1987
   3622   3239   2039
   3670   3303   2085
   3707   3357   2128
   3741   3409   2170
   3772   3460   2211
   3578   3187   2001
   3626   3244   2041
   3669   3301   2083
   3706   3355   2127
   3740   3407   2169
   3771   3459   2209
   3800   3507   2250
   3826   3556   2289
   3850   3603   2328
   2591   2244   1385
   2617   2267   1400
   2688   2329   1438
   2780   2411   1490
   2880   2500   1546
   2982   2592   1604
   3083   2681   1661
   3178   2768   1717
   3268   2851   1772
   2671   2315   1430
   2701   2341   1446
   2772   2403   1485
   2860   2482   1534
   2958   2570   1590
   3058   2659   1647
   3155   2747   1704
   3246   2831   1758
   3326   2911   1813
   2791   2421   1496
   2822   2449   1514
   2891   2510   1552
   2976   2586   1600
   3072   2672   1655
   3168   2759   1711
   3257   2841   1766
   3337   2923   1820
   3411   3002   1873
   2938   2552   1579
   2975   2585   1599
   3042   2645   1638
   3124   2719   1686
   3214   2801   1739
   3299   2884   1794
   3376   2963   1848
   3447   3041   1900
   3514   3115   1952
   3106   2703   1675
   3148   2741   1700
   3214   2800   1739
   3289   2872   1786
   3363   2949   1838
   3435   3028   1891
   3504   3104   1944
   3568   3177   1994
   3628   3247   2043
   3279   2863   1780
   3322   2907   1810
   3378   2966   1849
   3442   3036   1897
   3510   3111   1949
   3575   3184   1999
   3634   3254   2049
   3677   3312   2093
   3713   3366   2135
   3440   3034   1895
   3482   3080   1927
   3536   3140   1968
   3595   3207   2016
   3651   3275   2064
   3689   3331   2108
   3725   3384   2150
   3757   3435   2191
   3786   3484   2230
   3602   3215   2021
   3641   3263   2055
   3677   3313   2094
   3713   3366   2135
   3746   3417   2177
   3777   3468   2217
   3804   3515   2256
   3829   3561   2293
   3852   3608   2331
   3719   3375   2143
   3748   3419   2178
   3775   3465   2215
   3804   3514   2255
   3829   3561   2294
   3852   3607   2331
   3874   3645   2367
   3892   3674   2401
   3910   3703   2437
   3001   2608   1614
   3023   2628   1627
   3082   2681   1661
   3158   2749   1705
   3241   2826   1755
   3319   2903   1807
   3391   2980   1859
   3459   3055   1909
   3522   3124   1958
   3067   2667   1652
   3093   2691   1668
   3149   2741   1700
   3223   2809   1744
   3301   2885   1794
   3373   2961   1846
   3442   3036   1896
   3507   3107   1946
   3570   3179   1996
   3163   2754   1708
   3192   2780   1725
   3248   2833   1760
   3314   2899   1804
   3382   2971   1853
   3452   3047   1904
   3518   3119   1954
   3579   3189   2003
   3637   3257   2051
   3283   2867   1782
   3311   2896   1802
   3361   2948   1837
   3420   3012   1880
   3485   3083   1929
   3550   3155   1979
   3611   3225   2028
   3659   3287   2073
   3696   3340   2115
   3405   2995   1869
   3436   3029   1892
   3484   3082   1928
   3541   3145   1972
   3600   3214   2020
   3653   3278   2067
   3690   3332   2108
   3724   3382   2149
   3755   3431   2188
   3530   3133   1964
   3566   3174   1992
   3611   3226   2029
   3656   3283   2070
   3694   3337   2113
   3727   3388   2153
   3759   3436   2193
   3787   3485   2231
   3812   3530   2268
   3653   3279   2067
   3677   3313   2093
   3706   3356   2128
   3737   3404   2166
   3768   3452   2205
   3796   3501   2244
   3821   3546   2281
   3843   3590   2316
   3865   3632   2353
   3739   3404   2166
   3761   3441   2196
   3786   3484   2230
   3812   3530   2268
   3836   3575   2305
   3858   3619   2341
   3878   3653   2376
   3895   3680   2408
   3912   3707   2441
   3815   3536   2272
   3836   3574   2305
   3857   3617   2339
   3877   3651   2374
   3895   3680   2408
   3912   3706   2441
   3927   3731   2473
   3941   3755   2504
   3955   3777   2536
   3355   2942   1833
   3372   2959   1844
   3413   3004   1874
   3465   3061   1914
   3522   3125   1958
   3583   3192   2005
   3638   3257   2051
   3675   3310   2091
   3710   3359   2130
   3400   2991   1865
   3418   3008   1878
   3458   3054   1909
   3510   3110   1948
   3567   3176   1993
   3624   3241   2039
   3666   3298   2081
   3702   3347   2121
   3733   3396   2160
   3468   3063   1916
   3486   3084   1930
   3527   3129   1962
   3577   3187   2001
   3630   3249   2044
   3672   3305   2087
   3706   3355   2126
   3737   3402   2165
   3766   3449   2202
   3551   3156   1980
   3573   3182   1998
   3612   3227   2030
   3654   3280   2068
   3688   3329   2106
   3722   3379   2146
   3752   3426   2184
   3780   3473   2221
   3804   3517   2257
   3642   3264   2056
   3661   3290   2076
   3687   3327   2104
   3717   3371   2139
   3746   3417   2176
   3775   3465   2214
   3801   3510   2251
   3824   3552   2286
   3847   3596   2322
   3711   3362   2133
   3728   3388   2153
   3751   3424   2183
   3777   3467   2217
   3802   3512   2253
   3827   3557   2289
   3847   3599   2324
   3868   3637   2358
   3886   3665   2391
   3774   3461   2212
   3790   3490   2235
   3811   3526   2265
   3833   3568   2299
   3854   3611   2335
   3874   3645   2368
   3892   3673   2401
   3907   3700   2432
   3923   3724   2463
   3832   3567   2299
   3848   3599   2325
   3867   3634   2356
   3885   3663   2389
   3902   3691   2421
   3918   3716   2453
   3931   3739   2483
   3945   3761   2513
   3958   3781   2542
   3886   3665   2390
   3900   3688   2419
   3916   3713   2449
   3931   3737   2481
   3944   3760   2511
   3956   3780   2540
   3968   3800   2570
   3979   3818   2599
   3988   3836   2627
   3628   3245   2042
   3640   3259   2052
   3660   3289   2075
   3688   3329   2107
   3718   3373   2141
   3748   3419   2178
   3774   3462   2213
   3798   3505   2247
   3821   3545   2279
   3654   3279   2067
   3664   3293   2078
   3684   3323   2102
   3710   3362   2132
   3738   3405   2167
   3766   3450   2202
   3791   3492   2237
   3814   3534   2272
   3836   3576   2305
   3687   3328   2105
   3697   3342   2116
   3718   3374   2142
   3743   3411   2172
   3769   3455   2206
   3794   3498   2241
   3817   3538   2275
   3838   3580   2309
   3857   3620   2341
   3728   3389   2154
   3739   3406   2167
   3758   3437   2192
   3781   3475   2223
   3805   3516   2257
   3827   3558   2291
   3848   3598   2324
   3866   3635   2356
   3884   3662   2387
   3772   3459   2210
   3785   3481   2228
   3802   3512   2254
   3823   3550   2285
   3843   3589   2317
   3863   3628   2349
   3881   3657   2381
   3897   3682   2411
   3912   3706   2441
   3818   3540   2276
   3829   3561   2294
   3845   3593   2320
   3864   3630   2350
   3881   3657   2381
   3897   3683   2412
   3913   3708   2442
   3926   3730   2471
   3939   3752   2500
   3860   3622   2344
   3871   3641   2363
   3886   3665   2390
   3901   3689   2419
   3916   3713   2450
   3930   3736   2479
   3942   3757   2507
   3955   3777   2536
   3965   3795   2562
   3900   3688   2418
   3911   3704   2439
   3924   3726   2466
   3938   3748   2495
   3949   3769   2524
   3961   3787   2551
   3971   3806   2579
   3981   3823   2607
   3990   3839   2632
   3938   3748   2496
   3948   3766   2520
   3959   3785   2548
   3970   3804   2577
   3980   3821   2604
   3990   3837   2631
   3998   3853   2657
   4005   3867   2683
   4012   3880   2708
