Resources/LUT/Gold Tone.3dl
# 17x17x17 .3dl lookup table from LUT Buddy
   0   64   128   192   256   320   384   448   512   576   640   704   768   832   896   960   1023
   0   0   0
   14   10   4
   222   177   80
   385   321   169
   537   455   259
   680   581   343
   817   701   422
   948   815   497
   1075   926   568
   1195   1030   635
   1307   1126   697
   1412   1217   755
   1513   1304   809
   1609   1387   861
   1700   1465   909
   1790   1543   957
   1877   1618   1003
   256   208   97
   256   208   97
   398   333   177
   521   441   250
   649   554   325
   776   665   399
   902   774   471
   1025   882   540
   1145   986   607
   1259   1085   671
   1367   1178   730
   1469   1266   785
   1566   1350   838
   1660   1431   888
   1749   1508   936
   1837   1583   982
   1921   1656   1026
   440   370   202
   440   370   202
   545   462   264
   647   552   324
   759   650   389
   874   750   455
   990   852   521
   1106   952   586
   1219   1050   649
   1329   1145   709
   1433   1235   766
   1531   1320   819
   1626   1402   870
   1716   1479   918
   1802   1553   964
   1888   1627   1009
   1969   1697   1051
   618   526   307
   618   526   307
   702   600   356
   789   676   406
   888   762   463
   991   852   521
   1098   945   581
   1205   1038   641
   1311   1130   699
   1415   1220   756
   1515   1306   810
   1610   1387   861
   1700   1465   909
   1787   1541   955
   1872   1613   1000
   1953   1684   1043
   2032   1753   1085
   793   680   409
   793   680   409
   865   742   450
   940   808   493
   1027   884   542
   1122   966   594
   1220   1051   649
   1319   1137   704
   1419   1223   758
   1517   1308   811
   1612   1389   862
   1702   1468   911
   1789   1543   957
   1872   1614   1000
   1952   1683   1043
   2031   1751   1084
   2105   1817   1124
   966   831   507
   966   830   507
   1029   885   542
   1096   944   580
   1174   1012   624
   1261   1086   671
   1351   1164   721
   1444   1244   771
   1537   1325   822
   1630   1405   872
   1719   1482   919
   1805   1556   965
   1887   1627   1009
   1967   1696   1051
   2043   1763   1091
   2118   1828   1131
   2189   1890   1169
   1136   978   602
   1135   978   602
   1194   1029   635
   1255   1081   668
   1327   1143   708
   1405   1211   751
   1489   1283   796
   1576   1358   843
   1663   1433   889
   1750   1509   936
   1835   1581   981
   1916   1651   1024
   1994   1720   1065
   2069   1785   1105
   2140   1848   1143
   2213   1911   1181
   2281   1971   1218
   1303   1123   695
   1305   1125   696
   1358   1170   725
   1415   1220   756
   1481   1276   791
   1553   1339   831
   1632   1406   873
   1713   1476   916
   1795   1547   960
   1877   1618   1003
   1956   1686   1045
   2032   1752   1085
   2105   1816   1124
   2176   1879   1162
   2245   1939   1199
   2311   1998   1234
   2377   2056   1269
   1470   1267   786
   1477   1273   789
   1522   1312   814
   1574   1357   842
   1636   1410   875
   1704   1469   911
   1777   1532   950
   1853   1597   990
   1930   1663   1031
   2006   1730   1072
   2080   1795   1111
   2152   1857   1149
   2220   1918   1186
   2287   1976   1221
   2353   2034   1256
   2417   2090   1291
   2477   2144   1324
   1630   1405   872
   1642   1415   878
   1683   1451   900
   1732   1493   926
   1790   1543   957
   1855   1599   991
   1923   1658   1028
   1994   1719   1065
   2065   1782   1103
   2136   1844   1141
   2205   1904   1178
   2272   1964   1213
   2338   2021   1249
   2400   2076   1282
   2461   2129   1315
   2522   2183   1348
   2580   2234   1380
   1786   1540   955
   1802   1553   963
   1839   1586   983
   1887   1626   1008
   1941   1673   1037
   2001   1726   1069
   2065   1782   1103
   2130   1839   1138
   2200   1899   1174
   2265   1958   1210
   2330   2014   1245
   2393   2070   1278
   2453   2123   1311
   2518   2180   1346
   2583   2237   1381
   2647   2293   1416
   2708   2347   1450
   1936   1670   1035
   1956   1687   1045
   1992   1717   1064
   2036   1756   1088
   2087   1801   1115
   2144   1850   1145
   2204   1903   1177
   2265   1958   1210
   2329   2013   1244
   2395   2072   1279
   2464   2132   1316
   2529   2190   1352
   2595   2247   1388
   2655   2301   1421
   2714   2352   1453
   2771   2403   1485
   2827   2454   1516
   2083   1798   1113
   2105   1817   1124
   2141   1848   1144
   2183   1885   1165
   2233   1928   1192
   2288   1977   1222
   2348   2030   1254
   2416   2090   1291
   2483   2149   1327
   2547   2206   1362
   2609   2259   1395
   2669   2313   1428
   2727   2364   1460
   2783   2413   1491
   2837   2462   1521
   2891   2510   1551
   2943   2556   1581
   2233   1930   1193
   2268   1960   1211
   2307   1995   1233
   2354   2035   1257
   2405   2081   1285
   2459   2128   1314
   2516   2178   1345
   2575   2230   1377
   2635   2283   1410
   2693   2334   1441
   2750   2385   1473
   2805   2434   1504
   2859   2482   1534
   2910   2527   1563
   2961   2573   1591
   3011   2617   1620
   3060   2661   1648
   2411   2085   1288
   2446   2116   1307
   2481   2147   1326
   2523   2184   1349
   2572   2227   1375
   2622   2271   1402
   2673   2316   1431
   2728   2365   1461
   2782   2414   1491
   2836   2462   1521
   2888   2507   1550
   2939   2552   1579
   2989   2598   1607
   3038   2641   1635
   3085   2684   1663
   3132   2726   1690
   3180   2769   1718
   2583   2237   1381
   2611   2262   1396
   2646   2292   1415
   2687   2328   1437
   2729   2367   1461
   2777   2409   1488
   2827   2453   1516
   2877   2497   1543
   2926   2541   1572
   2976   2586   1600
   3025   2631   1629
   3073   2673   1656
   3119   2715   1683
   3166   2756   1710
   3210   2797   1736
   3255   2838   1763
   3293   2877   1789
   2742   2378   1469
   2768   2400   1483
   2803   2432   1502
   2842   2466   1524
   2885   2504   1548
   2929   2544   1573
   2977   2586   1600
   3023   2629   1627
   3070   2670   1654
   3116   2712   1681
   3163   2754   1708
   3207   2794   1735
   3249   2831   1760
   3290   2873   1786
   3326   2910   1812
   3362   2949   1838
   3397   2987   1863
   96   72   31
   103   77   34
   298   245   119
   446   375   205
   588   500   289
   726   621   370
   860   738   447
   989   851   520
   1114   959   590
   1234   1063   657
   1346   1159   718
   1451   1251   775
   1551   1337   829
   1646   1419   881
   1738   1498   929
   1827   1575   977
   1914   1650   1023
   345   286   146
   349   290   148
   473   399   221
   588   500   289
   710   607   360
   832   714   431
   955   821   501
   1075   925   568
   1193   1028   634
   1305   1125   696
   1414   1219   755
   1515   1306   810
   1612   1389   862
   1705   1469   912
   1794   1546   959
   1880   1620   1005
   1965   1694   1049
   523   442   251
   526   446   253
   623   531   310
   720   615   366
   826   708   427
   937   806   491
   1051   904   555
   1164   1002   618
   1275   1099   680
   1383   1192   739
   1486   1281   794
   1584   1365   847
   1678   1447   898
   1767   1524   945
   1855   1599   992
   1938   1671   1036
   2021   1743   1079
   699   597   354
   701   599   355
   783   670   402
   865   743   450
   960   826   504
   1061   913   561
   1165   1003   619
   1270   1094   677
   1375   1185   734
   1478   1274   790
   1576   1359   843
   1671   1440   894
   1761   1518   942
   1848   1593   988
   1931   1665   1032
   2012   1736   1075
   2091   1804   1116
   874   750   455
   877   753   457
   946   813   496
   1020   878   538
   1105   951   585
   1197   1031   637
   1293   1114   689
   1391   1199   743
   1490   1285   797
   1588   1369   849
   1681   1449   899
   1771   1527   947
   1857   1600   993
   1940   1673   1037
   2021   1743   1079
   2098   1810   1120
   2174   1877   1161
   1048   902   553
   1050   904   554
   1113   959   590
   1180   1016   627
   1258   1084   670
   1342   1156   716
   1432   1234   765
   1523   1313   815
   1616   1393   864
   1708   1472   913
   1795   1548   960
   1881   1621   1005
   1962   1692   1049
   2041   1761   1090
   2117   1828   1131
   2190   1892   1170
   2263   1956   1208
   1221   1052   650
   1223   1054   651
   1282   1105   683
   1343   1158   717
   1414   1219   756
   1493   1287   798
   1575   1358   842
   1660   1431   888
   1748   1507   935
   1834   1582   981
   1918   1653   1025
   1998   1723   1067
   2075   1790   1108
   2149   1856   1148
   2222   1919   1186
   2292   1981   1224
   2361   2041   1261
   1392   1200   743
   1399   1206   747
   1451   1251   776
   1507   1299   806
   1573   1356   841
   1646   1419   880
   1724   1486   922
   1803   1555   964
   1886   1626   1008
   1966   1695   1050
   2044   1763   1092
   2120   1830   1132
   2192   1893   1171
   2263   1955   1209
   2332   2016   1246
   2398   2075   1281
   2463   2132   1317
   1561   1346   835
   1573   1356   841
   1618   1395   865
   1672   1441   894
   1733   1493   927
   1802   1553   963
   1874   1615   1002
   1949   1680   1041
   2026   1747   1082
   2102   1814   1122
   2175   1878   1161
   2245   1940   1199
   2314   2000   1236
   2381   2059   1272
   2447   2117   1307
   2510   2173   1342
   2573   2228   1376
   1726   1488   923
   1741   1500   931
   1783   1537   953
   1833   1581   980
   1892   1631   1011
   1957   1687   1045
   2025   1746   1081
   2095   1807   1118
   2166   1870   1157
   2238   1933   1195
   2306   1993   1231
   2373   2052   1268
   2439   2110   1303
   2501   2165   1337
   2563   2219   1371
   2624   2273   1404
   2683   2326   1437
   1886   1625   1008
   1905   1642   1018
   1945   1677   1039
   1992   1718   1064
   2047   1766   1093
   2107   1819   1125
   2173   1876   1160
   2238   1934   1195
   2306   1993   1231
   2373   2052   1267
   2439   2110   1303
   2501   2164   1337
   2563   2220   1370
   2623   2272   1403
   2681   2324   1435
   2739   2375   1467
   2796   2426   1499
   2040   1760   1090
   2063   1780   1102
   2100   1812   1121
   2146   1853   1146
   2200   1900   1175
   2256   1950   1205
   2317   2003   1238
   2379   2058   1271
   2445   2115   1306
   2508   2170   1341
   2569   2225   1374
   2629   2278   1407
   2687   2329   1438
   2744   2379   1470
   2799   2429   1501
   2855   2478   1532
   2909   2526   1562
   2190   1891   1169
   2219   1917   1185
   2254   1948   1204
   2299   1988   1228
   2350   2032   1255
   2404   2080   1285
   2463   2131   1316
   2523   2184   1349
   2584   2238   1381
   2643   2290   1414
   2702   2342   1446
   2757   2391   1477
   2812   2440   1508
   2867   2489   1538
   2920   2536   1568
   2972   2583   1598
   3022   2628   1627
   2345   2027   1252
   2375   2055   1269
   2411   2086   1288
   2456   2125   1312
   2504   2167   1338
   2558   2214   1367
   2611   2262   1397
   2668   2312   1428
   2726   2363   1460
   2782   2413   1491
   2836   2462   1521
   2889   2508   1551
   2941   2555   1580
   2991   2600   1609
   3041   2645   1637
   3092   2690   1666
   3142   2735   1696
   2503   2166   1338
   2534   2194   1354
   2569   2225   1374
   2612   2263   1398
   2659   2304   1423
   2709   2349   1451
   2762   2395   1479
   2815   2443   1509
   2869   2491   1540
   2921   2537   1569
   2974   2584   1599
   3023   2629   1627
   3072   2672   1655
   3120   2715   1683
   3167   2759   1711
   3213   2800   1738
   3258   2842   1766
   2661   2305   1424
   2690   2332   1440
   2726   2363   1460
   2767   2399   1482
   2811   2439   1508
   2861   2483   1535
   2911   2527   1563
   2961   2573   1592
   3012   2619   1621
   3063   2663   1649
   3109   2706   1677
   3157   2749   1705
   3203   2790   1732
   3247   2831   1759
   3288   2872   1785
   3327   2912   1813
   3364   2951   1839
   2813   2440   1508
   2841   2467   1524
   2880   2500   1545
   2921   2537   1568
   2963   2574   1593
   3009   2617   1620
   3058   2660   1647
   3107   2704   1675
   3154   2746   1703
   3200   2788   1730
   3246   2829   1758
   3286   2869   1784
   3324   2909   1810
   3360   2947   1836
   3397   2985   1863
   3431   3023   1888
   3465   3061   1914
   556   472   270
   557   473   271
   653   557   327
   747   639   382
   851   730   442
   960   825   504
   1071   922   566
   1182   1018   628
   1293   1114   689
   1400   1207   748
   1502   1295   803
   1598   1377   855
   1692   1458   905
   1781   1535   952
   1867   1610   998
   1952   1683   1043
   2032   1752   1085
   680   580   343
   681   582   344
   764   654   391
   848   728   440
   944   811   495
   1045   899   552
   1150   990   610
   1256   1082   669
   1361   1173   727
   1464   1262   783
   1563   1347   836
   1657   1428   886
   1748   1506   935
   1835   1582   981
   1919   1654   1026
   2000   1725   1068
   2079   1793   1110
   798   684   412
   800   685   412
   873   749   454
   950   816   498
   1039   894   548
   1134   976   602
   1233   1062   657
   1334   1150   712
   1435   1237   767
   1535   1323   821
   1630   1405   872
   1722   1485   921
   1810   1560   968
   1895   1634   1013
   1976   1704   1056
   2055   1772   1097
   2132   1840   1138
   933   802   489
   935   804   490
   1001   861   527
   1071   922   567
   1153   993   612
   1242   1070   661
   1336   1151   713
   1430   1233   764
   1527   1317   817
   1623   1399   868
   1715   1478   917
   1803   1554   964
   1888   1628   1009
   1969   1698   1052
   2048   1767   1094
   2125   1834   1135
   2200   1899   1174
   1079   929   571
   1080   930   571
   1140   982   605
   1206   1039   641
   1282   1105   683
   1365   1176   728
   1452   1252   776
   1542   1329   825
   1634   1409   874
   1725   1487   923
   1813   1563   969
   1897   1635   1014
   1978   1706   1057
   2057   1774   1098
   2131   1840   1139
   2207   1905   1178
   2278   1968   1216
   1229   1059   654
   1232   1061   656
   1289   1110   687
   1349   1163   720
   1419   1223   758
   1497   1290   800
   1579   1361   844
   1665   1435   891
   1751   1510   937
   1838   1584   983
   1922   1657   1027
   2002   1726   1069
   2079   1794   1111
   2153   1859   1150
   2227   1923   1189
   2296   1985   1226
   2366   2046   1264
   1385   1194   740
   1387   1195   741
   1441   1242   770
   1499   1292   801
   1564   1348   836
   1637   1411   876
   1715   1478   917
   1795   1547   960
   1878   1619   1003
   1960   1690   1047
   2039   1758   1089
   2114   1825   1129
   2188   1890   1169
   2259   1952   1207
   2329   2013   1244
   2397   2073   1280
   2463   2130   1316
   1541   1329   824
   1551   1337   829
   1598   1377   854
   1652   1424   883
   1713   1477   916
   1782   1536   953
   1857   1600   992
   1931   1665   1032
   2010   1733   1073
   2086   1800   1114
   2160   1865   1154
   2233   1929   1192
   2303   1990   1230
   2371   2050   1266
   2436   2108   1302
   2500   2164   1336
   2566   2221   1371
   1700   1465   909
   1713   1477   916
   1756   1514   939
   1807   1558   966
   1866   1609   997
   1932   1666   1032
   2001   1725   1069
   2072   1788   1107
   2145   1851   1145
   2217   1916   1184
   2288   1977   1222
   2355   2037   1258
   2423   2095   1294
   2487   2152   1329
   2549   2208   1363
   2611   2262   1396
   2672   2316   1430
   1857   1601   993
   1874   1615   1001
   1913   1650   1023
   1963   1692   1048
   2019   1742   1078
   2079   1794   1111
   2145   1852   1146
   2213   1911   1182
   2281   1971   1218
   2349   2032   1255
   2417   2091   1291
   2481   2147   1326
   2544   2203   1360
   2606   2257   1394
   2664   2309   1426
   2724   2361   1458
   2782   2413   1491
   2010   1734   1074
   2031   1752   1085
   2069   1785   1105
   2115   1826   1130
   2168   1872   1158
   2227   1924   1189
   2289   1978   1222
   2354   2035   1257
   2418   2092   1292
   2483   2149   1327
   2547   2205   1361
   2608   2259   1395
   2667   2311   1427
   2725   2362   1459
   2782   2413   1491
   2838   2463   1522
   2893   2513   1553
   2158   1864   1152
   2184   1885   1166
   2220   1918   1185
   2265   1958   1210
   2317   2003   1237
   2372   2051   1267
   2431   2103   1299
   2493   2158   1332
   2554   2211   1366
   2615   2266   1399
   2675   2319   1432
   2734   2370   1464
   2789   2419   1495
   2845   2469   1526
   2899   2517   1556
   2952   2565   1586
   3004   2611   1616
   2305   1992   1231
   2334   2018   1246
   2370   2049   1266
   2413   2088   1290
   2464   2131   1317
   2517   2179   1345
   2573   2229   1376
   2631   2280   1408
   2690   2332   1440
   2749   2384   1472
   2805   2433   1503
   2859   2482   1534
   2914   2530   1565
   2965   2577   1594
   3017   2623   1624
   3068   2668   1653
   3118   2713   1682
   2454   2123   1311
   2487   2152   1329
   2524   2185   1349
   2566   2221   1372
   2614   2265   1399
   2665   2310   1426
   2720   2358   1456
   2773   2406   1486
   2830   2456   1517
   2885   2504   1548
   2938   2552   1579
   2989   2598   1607
   3040   2644   1637
   3089   2688   1666
   3140   2733   1695
   3187   2776   1723
   3234   2819   1750
   2611   2261   1397
   2641   2287   1413
   2677   2320   1433
   2719   2357   1456
   2766   2398   1482
   2815   2443   1509
   2867   2489   1538
   2919   2535   1567
   2971   2581   1597
   3023   2628   1627
   3074   2673   1656
   3120   2715   1684
   3169   2760   1712
   3216   2803   1740
   3260   2843   1767
   3300   2885   1795
   3340   2926   1822
   2763   2397   1480
   2793   2423   1497
   2830   2455   1518
   2872   2493   1541
   2917   2533   1567
   2963   2575   1593
   3012   2618   1621
   3062   2664   1650
   3113   2709   1679
   3159   2751   1706
   3206   2794   1734
   3251   2835   1761
   3293   2877   1789
   3331   2916   1816
   3369   2956   1843
   3405   2996   1869
   3441   3035   1895
   2914   2530   1565
   2944   2558   1582
   2979   2590   1603
   3022   2627   1626
   3065   2666   1651
   3111   2707   1678
   3158   2749   1705
   3204   2791   1733
   3250   2834   1761
   3292   2875   1788
   3331   2916   1815
   3367   2954   1842
   3404   2994   1868
   3439   3031   1894
   3472   3068   1919
   3506   3107   1946
   3539   3144   1971
   850   729   441
   852   730   442
   923   793   483
   998   858   525
   1084   933   574
   1177   1014   625
   1276   1099   680
   1374   1184   734
   1474   1270   788
   1571   1355   840
   1666   1436   891
   1756   1514   939
   1843   1588   985
   1927   1661   1030
   2007   1731   1072
   2085   1800   1114
   2161   1866   1154
   946   813   496
   948   814   497
   1014   872   534
   1084   933   573
   1165   1003   619
   1253   1080   667
   1345   1160   718
   1441   1242   770
   1537   1325   822
   1632   1407   873
   1724   1486   922
   1812   1562   969
   1896   1634   1013
   1977   1705   1056
   2057   1775   1099
   2132   1840   1138
