Resources/LUT/Gold Tone.3dl
# 17x17x17 .3dl lookup table from LUT Buddy
0 256 512 768 1023
   0   0   0
   537   455   259
   1075   926   568
   1513   1304   809
   1877   1618   1003
   793   680   409
   1027   884   542
   1419   1223   758
   1789   1543   957
   2105   1817   1124
   1470   1267   786
   1636   1410   875
   1930   1663   1031
   2220   1918   1186
   2477   2144   1324
   2083   1798   1113
   2233   1928   1192
   2483   2149   1327
   2727   2364   1460
   2943   2556   1581
   2742   2378   1469
   2885   2504   1548
   3070   2670   1654
   3249   2831   1760
   3397   2987   1863
   1127   970   597
   1324   1141   706
   1671   1440   894
   2011   1734   1074
   2307   1994   1232
   1505   1298   805
   1673   1443   895
   1973   1701   1054
   2271   1963   1213
   2540   2199   1358
   2034   1755   1086
   2185   1887   1167
   2433   2105   1300
   2683   2326   1436
   2910   2527   1563
   2576   2231   1378
   2730   2366   1462
   2940   2555   1580
   3144   2738   1698
   3323   2908   1810
   3144   2738   1697
   3288   2872   1786
   3438   3031   1893
   3573   3181   1998
   3677   3313   2093
   2139   1846   1142
   2262   1953   1207
   2491   2156   1331
   2731   2368   1462
   2949   2563   1585
   2384   2061   1273
   2502   2165   1337
   2714   2353   1453
   2937   2551   1578
   3140   2734   1695
   2761   2394   1479
   2882   2502   1547
   3072   2672   1655
   3263   2846   1769
   3418   3009   1879
   3180   2770   1718
   3303   2887   1796
   3447   3041   1900
   3582   3193   2005
   3682   3321   2100
   3578   3187   2001
   3669   3301   2083
   3740   3407   2169
   3800   3507   2250
   3850   3603   2328
   3001   2608   1614
   3082   2681   1661
   3241   2826   1755
   3391   2980   1859
   3522   3124   1958
   3163   2754   1708
   3248   2833   1760
   3382   2971   1853
   3518   3119   1954
   3637   3257   2051
   3405   2995   1869
   3484   3082   1928
   3600   3214   2020
   3690   3332   2108
   3755   3431   2188
   3653   3279   2067
   3706   3356   2128
   3768   3452   2205
   3821   3546   2281
   3865   3632   2353
   3815   3536   2272
   3857   3617   2339
   3895   3680   2408
   3927   3731   2473
   3955   3777   2536
   3628   3245   2042
   3660   3289   2075
   3718   3373   2141
   3774   3462   2213
   3821   3545   2279
   3687   3328   2105
   3718   3374   2142
   3769   3455   2206
   3817   3538   2275
   3857   3620   2341
   3772   3459   2210
   3802   3512   2254
   3843   3589   2317
   3881   3657   2381
   3912   3706   2441
   3860   3622   2344
   3886   3665   2390
   3916   3713   2450
   3942   3757   2507
   3965   3795   2562
   3938   3748   2496
   3959   3785   2548
   3980   3821   2604
   3998   3853   2657
   4012   3880   2708
