Resources/LUT/Grunge.3dl
# 17x17x17 .3dl lookup table from LUT Buddy
0 256 512 768 1023
   233   362   344
   232   362   554
   229   359   1125
   218   352   1683
   207   344   2055
   229   698   343
   227   696   542
   220   693   1105
   205   687   1668
   190   680   2046
   129   1933   331
   129   1924   545
   129   1910   1127
   129   1895   1689
   129   1877   2060
   606   2886   415
   607   2877   680
   630   2868   1226
   662   2857   1708
   684   2846   2018
   956   3282   583
   962   3270   911
   986   3260   1439
   1012   3248   1837
   1031   3235   2086
   429   362   344
   431   362   543
   432   359   1107
   429   351   1668
   427   342   2044
   441   697   343
   446   696   543
   448   693   1103
   448   687   1663
   449   679   2040
   327   1926   331
   341   1917   556
   348   1902   1140
   364   1887   1693
   392   1868   2058
   797   2879   415
   815   2871   709
   853   2861   1257
   897   2849   1724
   938   2836   2022
   1159   3273   609
   1192   3262   972
   1248   3250   1491
   1311   3237   1866
   1382   3223   2100
   1194   356   343
   1200   355   538
   1209   349   1097
   1219   335   1661
   1231   320   2040
   1229   695   342
   1245   693   545
   1266   688   1104
   1288   678   1662
   1318   667   2040
   1272   1924   328
   1307   1914   567
   1349   1900   1151
   1399   1883   1689
   1460   1865   2043
   1542   2880   449
   1600   2871   759
   1676   2861   1301
   1761   2850   1747
   1850   2837   2030
   1896   3274   676
   1978   3263   1076
   2073   3251   1575
   2172   3239   1920
   2276   3224   2134
   2380   256   336
   2385   250   528
   2391   221   1087
   2401   186   1657
   2410   186   2043
   2395   649   334
   2408   645   538
   2424   628   1101
   2443   602   1662
   2461   585   2039
   2412   1928   334
   2434   1919   587
   2457   1910   1159
   2484   1899   1674
   2515   1884   2012
   2484   2895   530
   2516   2886   847
   2557   2879   1372
   2601   2869   1786
   2647   2857   2050
   2627   3291   799
   2679   3281   1234
   2737   3270   1692
   2797   3255   1993
   2858   3237   2182
   2980   187   323
   2980   187   510
   2982   188   1068
   2983   188   1637
   2988   189   2024
   2976   580   322
   2981   578   527
   2987   570   1089
   2992   566   1641
   2998   579   2013
   2934   1971   355
   2944   1966   623
   2954   1960   1177
   2966   1954   1669
   2980   1946   1993
   2934   2925   624
   2951   2917   937
   2973   2910   1443
   2997   2903   1827
   3023   2889   2068
   3004   3317   956
   3033   3303   1404
   3066   3288   1807
   3100   3266   2062
   3138   3232   2217
