Resources/LUT/Grunge.3dl
# 17x17x17 .3dl lookup table from LUT Buddy
0 128 256 384 512 640 768 896 1023
   233   362   344
   233   362   399
   232   362   554
   231   361   806
   229   359   1125
   224   356   1426
   218   352   1683
   212   348   1891
   207   344   2055
   232   474   344
   232   474   394
   232   474   545
   230   473   792
   227   471   1110
   222   469   1412
   215   465   1670
   209   461   1880
   203   458   2046
   229   698   343
   228   697   393
   227   696   542
   225   695   788
   220   693   1105
   213   691   1408
   205   687   1668
   197   684   1878
   190   680   2046
   198   1178   342
   197   1176   394
   195   1174   545
   190   1170   795
   180   1166   1113
   168   1163   1417
   155   1158   1677
   143   1153   1889
   133   1147   2057
   129   1933   331
   129   1928   389
   129   1924   545
   129   1918   803
   129   1910   1127
   129   1903   1430
   129   1895   1689
   129   1887   1898
   129   1877   2060
   308   2525   350
   306   2521   420
   307   2516   586
   316   2512   842
   330   2506   1154
   346   2500   1437
   360   2495   1677
   372   2486   1868
   385   2479   2019
   606   2886   415
   605   2882   505
   607   2877   680
   615   2873   930
   630   2868   1226
   647   2864   1488
   662   2857   1708
   675   2852   1882
   684   2846   2018
   792   3104   483
   793   3100   599
   799   3097   785
   809   3092   1039
   824   3087   1321
   839   3084   1564
   855   3080   1764
   866   3074   1922
   877   3070   2045
   956   3282   583
   957   3276   710
   962   3270   911
   973   3267   1175
   986   3260   1439
   1001   3256   1659
   1012   3248   1837
   1022   3243   1976
   1031   3235   2086
   291   362   344
   292   362   396
   292   362   548
   292   361   798
   290   359   1115
   287   356   1417
   283   352   1675
   279   348   1885
   275   343   2050
   294   474   344
   294   474   393
   295   474   542
   294   473   788
   293   471   1104
   290   468   1406
   286   465   1666
   281   461   1877
   277   458   2042
   295   697   343
   296   697   394
   296   696   542
   295   695   788
   293   693   1103
   289   690   1405
   284   687   1665
   279   683   1876
   274   679   2043
   274   1176   342
   275   1174   396
   275   1172   548
   272   1169   798
   265   1165   1115
   255   1161   1418
   245   1156   1677
   236   1151   1888
   229   1145   2054
   165   1928   331
   166   1924   392
   167   1919   550
   169   1912   810
   170   1906   1133
   171   1899   1435
   173   1890   1691
   175   1881   1898
   177   1872   2060
   381   2522   350
   381   2517   425
   387   2513   596
   397   2509   853
   413   2502   1164
   431   2495   1446
   447   2488   1682
   461   2481   1871
   474   2475   2019
   667   2882   414
   670   2878   513
   675   2874   694
   686   2869   947
   703   2866   1241
   718   2859   1500
   734   2854   1716
   748   2847   1887
   760   2840   2021
   852   3100   498
   856   3097   613
   864   3093   804
   877   3088   1062
   895   3085   1341
   914   3081   1580
   932   3076   1775
   948   3070   1929
   963   3065   2048
   1015   3276   593
   1021   3271   729
   1031   3266   939
   1046   3261   1206
   1066   3255   1463
   1086   3249   1678
   1104   3242   1851
   1122   3235   1986
   1140   3227   2092
   429   362   344
   430   362   394
   431   362   543
   432   361   791
   432   359   1107
   431   356   1410
   429   351   1668
   428   347   1879
   427   342   2044
   435   474   344
   436   474   393
   437   473   540
   439   473   786
   439   471   1100
   439   468   1402
   438   465   1661
   438   461   1874
   438   457   2040
   441   697   343
   443   697   394
   446   696   543
   447   695   788
   448   693   1103
   448   690   1404
   448   687   1663
   448   682   1874
   449   679   2040
   435   1175   342
   439   1173   397
   442   1170   551
   444   1167   801
   443   1164   1118
   442   1160   1419
   440   1155   1677
   440   1149   1887
   442   1144   2052
   327   1926   331
   334   1921   395
   341   1917   556
   345   1910   817
   348   1902   1140
   354   1895   1439
   364   1887   1693
   376   1878   1897
   392   1868   2058
   537   2521   351
   543   2515   431
   553   2511   606
   566   2505   866
   585   2499   1175
   605   2493   1453
   625   2484   1687
   645   2477   1874
   664   2470   2019
   797   2879   415
   805   2877   524
   815   2871   709
   832   2866   965
   853   2861   1257
   875   2855   1512
   897   2849   1724
   918   2843   1891
   938   2836   2022
   986   3099   509
   996   3095   629
   1010   3090   827
   1032   3086   1090
   1057   3082   1364
   1083   3077   1596
   1109   3072   1787
   1135   3067   1936
   1163   3062   2053
   1159   3273   609
   1173   3268   755
   1192   3262   972
   1219   3257   1241
   1248   3250   1491
   1279   3243   1700
   1311   3237   1866
   1345   3230   1996
   1382   3223   2100
   712   361   344
   713   361   393
   716   361   541
   717   360   786
   719   357   1101
   721   353   1404
   723   348   1663
   725   343   1875
   727   338   2042
   721   473   343
   724   473   392
   727   473   540
   730   472   784
   734   470   1097
   738   466   1399
   741   462   1659
   745   458   1870
   750   453   2038
   734   697   343
   739   697   395
   744   696   544
   749   695   790
   755   692   1103
   759   689   1403
   765   685   1662
   772   681   1872
   779   677   2038
   746   1176   341
   753   1173   399
   759   1172   554
   767   1168   805
   773   1164   1121
   780   1160   1422
   788   1154   1678
   798   1149   1887
   809   1142   2052
   717   1926   330
   728   1922   398
   740   1915   562
   751   1908   824
   764   1901   1146
   779   1893   1442
   796   1885   1694
   816   1875   1895
   839   1866   2054
   852   2519   352
   864   2515   440
   881   2510   619
   900   2504   880
   924   2497   1188
   951   2491   1460
   978   2483   1691
   1006   2475   1874
   1035   2468   2017
   1068   2879   422
   1084   2874   539
   1104   2871   730
   1129   2866   988
   1158   2859   1276
   1191   2855   1526
   1224   2848   1733
   1258   2841   1896
   1294   2835   2026
   1254   3098   524
   1275   3093   652
   1301   3089   856
   1333   3084   1122
   1371   3081   1390
   1411   3076   1617
   1454   3072   1803
   1499   3067   1947
   1546   3061   2060
   1440   3271   633
   1468   3266   791
   1503   3259   1015
   1545   3253   1285
   1593   3248   1527
   1643   3242   1729
   1696   3234   1888
   1753   3227   2013
   1814   3220   2113
   1194   356   343
   1197   356   392
   1200   355   538
   1205   353   783
   1209   349   1097
   1213   342   1399
   1219   335   1661
   1225   327   1873
   1231   320   2040
   1207   469   343
   1213   469   392
   1218   468   539
   1225   466   782
   1231   463   1096
   1240   457   1397
   1248   451   1658
   1258   445   1869
   1267   439   2037
   1229   695   342
   1237   694   395
   1245   693   545
   1255   692   791
   1266   688   1104
   1277   683   1404
   1288   678   1662
   1303   672   1872
   1318   667   2040
   1256   1175   339
   1267   1173   399
   1279   1170   555
   1294   1167   808
   1307   1162   1124
   1323   1156   1423
   1340   1150   1678
   1360   1143   1888
   1381   1137   2053
   1272   1924   328
   1289   1919   400
   1307   1914   567
   1327   1907   830
   1349   1900   1151
   1372   1891   1441
   1399   1883   1689
   1429   1874   1887
   1460   1865   2043
   1370   2519   359
   1392   2514   453
   1416   2509   637
   1445   2504   898
   1476   2498   1202
   1511   2491   1470
   1548   2483   1695
   1586   2476   1875
   1626   2468   2014
   1542   2880   449
   1570   2875   566
   1600   2871   759
   1636   2867   1019
   1676   2861   1301
   1718   2855   1546
   1761   2850   1747
   1805   2843   1906
   1850   2837   2030
   1717   3098   553
   1750   3095   690
   1789   3091   900
   1831   3087   1166
   1877   3083   1428
   1923   3079   1646
   1969   3075   1825
   2018   3071   1965
   2066   3065   2074
   1896   3274   676
   1935   3268   844
   1978   3263   1076
   2024   3257   1344
   2073   3251   1575
   2122   3244   1767
   2172   3239   1920
   2222   3231   2039
   2276   3224   2134
   1854   330   341
   1858   330   389
   1861   327   535
   1866   322   779
   1871   312   1093
   1876   299   1398
   1884   283   1660
   1891   267   1873
   1898   252   2043
   1867   449   341
   1872   448   390
   1878   446   536
   1885   442   781
   1893   434   1094
   1902   424   1397
   1911   412   1657
   1923   400   1870
   1934   388   2040
   1887   681   339
   1895   680   393
   1903   678   543
   1914   675   790
   1925   668   1104
   1937   661   1405
   1950   652   1663
   1965   643   1874
   1980   634   2041
   1914   1168   334
   1926   1166   396
   1939   1162   553
   1951   1158   808
   1968   1152   1125
   1981   1144   1424
   1999   1137   1678
   2017   1129   1886
   2035   1123   2049
   1933   1923   329
   1949   1917   405
   1966   1912   574
   1983   1907   837
   2001   1899   1152
   2022   1893   1439
   2043   1884   1681
   2067   1877   1874
   2092   1869   2027
   1985   2523   374
   2005   2518   477
   2026   2513   664
   2049   2508   923
   2075   2503   1221
   2102   2495   1482
   2130   2490   1701
   2158   2482   1875
   2187   2475   2011
   2091   2885   487
   2113   2881   605
   2137   2875   800
   2165   2871   1059
   2196   2867   1335
   2226   2863   1571
   2260   2857   1765
   2291   2851   1918
   2324   2845   2039
   2200   3105   597
   2227   3101   741
   2257   3098   955
   2288   3094   1220
   2323   3091   1472
   2357   3087   1683
   2393   3083   1853
   2429   3079   1987
   2466   3075   2092
   2318   3281   734
   2348   3275   913
   2383   3270   1151
   2418   3264   1412
   2456   3259   1633
   2495   3253   1815
   2534   3247   1958
   2575   3240   2068
   2617   3232   2160
   2380   256   336
   2382   255   383
   2385   250   528
   2388   239   772
   2391   221   1087
   2395   199   1394
   2401   186   1657
   2407   186   1872
   2410   186   2043
   2386   396   335
   2391   394   385
   2393   390   530
   2398   382   775
   2405   365   1089
   2410   344   1394
   2418   319   1655
   2425   294   1870
   2434   272   2039
   2395   649   334
   2402   648   388
   2408   645   538
   2416   639   786
   2424   628   1101
   2433   616   1402
   2443   602   1662
   2451   591   1873
   2461   585   2039
   2414   1155   327
   2421   1153   391
   2429   1149   548
   2438   1145   805
   2447   1140   1123
   2457   1134   1418
   2468   1127   1671
   2480   1122   1876
   2492   1117   2035
   2412   1928   334
   2423   1924   415
   2434   1919   587
   2446   1914   848
   2457   1910   1159
   2471   1904   1439
   2484   1899   1674
   2499   1892   1863
   2515   1884   2012
   2429   2531   399
   2443   2527   510
   2457   2522   697
   2473   2517   953
   2489   2513   1243
   2507   2508   1497
   2526   2502   1709
   2545   2495   1879
   2565   2489   2012
   2484   2895   530
   2499   2891   650
   2516   2886   847
   2536   2883   1104
   2557   2879   1372
   2578   2874   1600
   2601   2869   1786
   2623   2865   1934
   2647   2857   2050
   2550   3115   647
   2569   3112   799
   2590   3109   1015
   2614   3105   1279
   2638   3102   1521
   2666   3099   1722
   2691   3096   1882
   2720   3091   2011
   2747   3086   2109
   2627   3291   799
   2652   3285   989
   2679   3281   1234
   2708   3275   1483
   2737   3270   1692
   2767   3263   1861
   2797   3255   1993
   2826   3247   2096
   2858   3237   2182
   2734   185   329
   2734   186   376
   2735   186   518
   2738   186   761
   2742   186   1078
   2744   187   1386
   2745   187   1650
   2748   187   1865
   2751   187   2035
   2735   295   328
   2736   293   377
   2741   285   521
   2743   271   766
   2747   248   1082
   2751   238   1387
   2755   238   1648
   2759   239   1861
   2765   239   2029
   2741   600   326
   2744   599   381
   2748   596   530
   2752   592   779
   2756   586   1095
   2761   579   1396
   2767   571   1652
   2773   564   1862
   2779   558   2027
   2742   1151   323
   2748   1148   389
   2753   1146   546
   2759   1144   803
   2764   1142   1119
   2769   1140   1412
   2773   1140   1659
   2780   1140   1859
   2789   1138   2018
   2722   1946   343
   2728   1942   428
   2736   1937   604
   2742   1934   863
   2752   1931   1167
   2759   1927   1440
   2769   1922   1671
   2778   1918   1856
   2789   1911   2002
   2720   2547   445
   2728   2541   544
   2737   2537   731
   2747   2534   984
   2758   2529   1267
   2772   2525   1513
   2784   2519   1720
   2798   2513   1884
   2813   2508   2012
   2748   2908   576
   2761   2905   695
   2773   2901   893
   2786   2897   1150
   2801   2893   1408
   2816   2890   1627
   2834   2884   1807
   2849   2879   1949
   2866   2872   2059
   2793   3129   702
   2807   3125   855
   2823   3121   1076
   2840   3119   1337
   2859   3115   1567
   2878   3112   1759
   2898   3107   1911
   2917   3104   2031
   2938   3098   2125
   2850   3304   868
   2866   3297   1068
   2886   3292   1317
   2908   3287   1554
   2929   3279   1749
   2952   3271   1905
   2975   3263   2028
   2996   3252   2122
   3021   3241   2202
   2980   187   323
   2980   187   370
   2980   187   510
   2981   187   752
   2982   188   1068
   2982   188   1375
   2983   188   1637
   2985   188   1853
   2988   189   2024
   2978   239   323
   2980   239   373
   2980   239   515
   2983   240   759
   2985   240   1074
   2985   240   1377
   2989   240   1636
   2991   240   1849
   2994   240   2018
   2976   580   322
   2978   579   378
   2981   578   527
   2984   575   774
   2987   570   1089
   2990   563   1388
   2992   566   1641
   2993   573   1849
   2998   579   2013
   2968   1166   323
   2971   1165   392
   2974   1165   551
   2977   1164   806
   2979   1166   1118
   2981   1167   1406
   2985   1169   1650
   2989   1170   1847
   2994   1170   2003
   2934   1971   355
   2939   1968   444
   2944   1966   623
   2949   1963   878
   2954   1960   1177
   2959   1957   1444
   2966   1954   1669
   2972   1950   1850
   2980   1946   1993
   2917   2566   482
   2924   2562   576
   2930   2557   763
   2939   2553   1013
   2946   2549   1290
   2956   2547   1530
   2965   2541   1730
   2975   2536   1887
   2986   2530   2013
   2934   2925   624
   2942   2921   736
   2951   2917   937
   2961   2913   1192
   2973   2910   1443
   2985   2906   1654
   2997   2903   1827
   3009   2896   1962
   3023   2889   2068
   2964   3142   765
   2974   3137   911
   2986   3134   1137
   2999   3131   1392
   3013   3127   1612
   3028   3124   1793
   3043   3120   1938
   3059   3115   2050
   3073   3108   2138
   3004   3317   956
   3018   3309   1152
   3033   3303   1404
   3049   3295   1626
   3066   3288   1807
   3083   3278   1952
   3100   3266   2062
   3119   3251   2147
   3138   3232   2217
