Resources/LUT/Grunge.3dl
# 17x17x17 .3dl lookup table from LUT Buddy
   0   64   128   192   256   320   384   448   512   576   640   704   768   832   896   960   1023
   233   362   344
   233   362   349
   233   362   399
   233   362   463
   232   362   554
   232   362   670
   231   361   806
   230   360   960
   229   359   1125
   227   358   1281
   224   356   1426
   221   354   1559
   218   352   1683
   215   350   1793
   212   348   1891
   209   346   1979
   207   344   2055
   233   417   344
   233   417   344
   232   417   396
   232   417   460
   232   416   548
   232   416   663
   231   416   798
   230   415   951
   228   414   1116
   226   413   1272
   223   411   1417
   220   409   1552
   217   407   1676
   214   406   1787
   211   403   1887
   208   402   1973
   205   399   2051
   232   474   344
   232   474   344
   232   474   394
   232   474   457
   232   474   545
   231   473   659
   230   473   792
   229   472   945
   227   471   1110
   224   470   1265
   222   469   1412
   219   467   1546
   215   465   1670
   212   463   1783
   209   461   1880
   206   459   1970
   203   458   2046
   231   560   344
   231   560   344
   231   559   394
   231   559   456
   230   559   542
   230   559   656
   229   558   789
   227   558   941
   225   557   1105
   222   555   1262
   219   554   1408
   216   553   1544
   212   551   1668
   209   549   1780
   205   548   1878
   202   546   1967
   199   544   2045
   229   698   343
   229   698   343
   228   697   393
   228   697   455
   227   696   542
   226   696   656
   225   695   788
   223   694   941
   220   693   1105
   217   692   1260
   213   691   1408
   209   689   1543
   205   687   1668
   201   685   1780
   197   684   1878
   194   682   1967
   190   680   2046
   221   902   343
   221   901   343
   220   900   394
   220   900   456
   219   899   543
   217   898   657
   215   898   791
   212   896   943
   209   894   1107
   204   894   1264
   200   892   1410
   195   889   1546
   190   887   1670
   185   885   1783
   180   883   1882
   176   881   1970
   172   879   2049
   198   1178   342
   198   1177   342
   197   1176   394
   196   1175   457
   195   1174   545
   193   1172   660
   190   1170   795
   186   1169   948
   180   1166   1113
   174   1165   1269
   168   1163   1417
   161   1160   1552
   155   1158   1677
   148   1156   1790
   143   1153   1889
   137   1151   1977
   133   1147   2057
   138   1534   338
   138   1532   341
   137   1530   393
   137   1528   457
   136   1527   546
   135   1524   663
   133   1521   800
   131   1518   954
   129   1517   1121
   129   1513   1278
   129   1509   1426
   129   1506   1562
   129   1503   1687
   129   1500   1801
   129   1496   1900
   129   1493   1989
   129   1488   2067
   129   1933   331
   129   1930   341
   129   1928   389
   129   1926   454
   129   1924   545
   129   1920   664
   129   1918   803
   129   1915   961
   129   1910   1127
   129   1906   1285
   129   1903   1430
   129   1899   1565
   129   1895   1689
   129   1891   1799
   129   1887   1898
   129   1883   1985
   129   1877   2060
   129   2265   334
   129   2264   349
   129   2260   396
   129   2259   464
   129   2256   556
   129   2254   675
   129   2250   815
   129   2246   970
   131   2243   1134
   134   2239   1287
   137   2236   1428
   141   2233   1559
   144   2229   1679
   147   2223   1784
   150   2220   1878
   152   2216   1961
   155   2213   2034
   308   2525   350
   306   2523   371
   306   2521   420
   307   2520   490
   307   2516   586
   312   2515   705
   316   2512   842
   322   2509   996
   330   2506   1154
   339   2504   1301
   346   2500   1437
   354   2497   1563
   360   2495   1677
   367   2491   1779
   372   2486   1868
   379   2483   1949
   385   2479   2019
   478   2728   378
   478   2727   406
   478   2725   458
   478   2722   533
   480   2720   631
   482   2717   748
   487   2715   883
   492   2712   1033
   499   2710   1186
   506   2707   1328
   513   2704   1459
   520   2699   1579
   530   2698   1688
   537   2695   1785
   542   2691   1871
   548   2688   1947
   554   2684   2013
   606   2886   415
   604   2883   449
   605   2882   505
   606   2880   582
   607   2877   680
   611   2877   797
   615   2873   930
   621   2870   1079
   630   2868   1226
   639   2865   1363
   647   2864   1488
   655   2860   1604
   662   2857   1708
   668   2854   1800
   675   2852   1882
   680   2849   1955
   684   2846   2018
   707   3011   451
   708   3009   495
   709   3007   554
   712   3005   633
   714   3002   733
   720   3002   850
   725   2999   983
   731   2996   1130
   740   2994   1272
   748   2992   1404
   756   2990   1526
   763   2987   1635
   771   2986   1735
   776   2983   1823
   782   2979   1901
   787   2977   1970
   792   2974   2029
   792   3104   483
   792   3102   536
   793   3100   599
   796   3098   683
   799   3097   785
   803   3095   904
   809   3092   1039
   816   3090   1184
   824   3087   1321
   833   3087   1449
   839   3084   1564
   847   3082   1670
   855   3080   1764
   861   3078   1848
   866   3074   1922
   872   3073   1987
   877   3070   2045
   872   3193   535
   873   3191   583
   876   3189   651
   877   3186   739
   880   3184   844
   885   3181   966
   891   3180   1102
   897   3177   1244
   905   3175   1375
   912   3172   1498
   920   3170   1609
   926   3167   1709
   932   3164   1798
   939   3163   1877
   944   3159   1946
   948   3156   2008
   954   3155   2064
   956   3282   583
   956   3279   636
   957   3276   710
   959   3274   803
   962   3270   911
   967   3269   1036
   973   3267   1175
   980   3264   1311
   986   3260   1439
   993   3257   1553
   1001   3256   1659
   1006   3252   1753
   1012   3248   1837
   1018   3246   1911
   1022   3243   1976
   1027   3238   2035
   1031   3235   2086
   236   362   344
   236   362   344
   236   362   398
   237   362   461
   237   362   550
   237   362   666
   237   361   801
   236   361   955
   235   359   1119
   234   358   1275
   232   356   1421
   230   354   1555
   227   352   1678
   225   350   1789
   223   348   1887
   220   346   1974
   218   344   2051
   238   417   344
   238   417   344
   239   417   395
   239   417   458
   239   416   546
   239   416   660
   239   416   794
   238   415   947
   237   414   1112
   236   413   1267
   234   411   1415
   232   409   1549
   229   408   1673
   227   406   1783
   224   404   1883
   222   402   1970
   220   400   2047
   240   474   344
   241   474   344
   241   474   394
   241   474   456
   241   474   543
   241   473   656
   241   473   790
   240   472   942
   239   471   1106
   238   470   1262
   236   469   1409
   233   467   1543
   231   465   1669
   228   463   1780
   226   462   1878
   224   460   1967
   221   458   2044
   242   560   344
   242   559   344
   242   559   393
   243   559   455
   243   559   542
   243   559   655
   243   558   788
   242   557   939
   240   557   1104
   239   555   1259
   237   554   1407
   234   553   1542
   232   551   1665
   229   549   1778
   226   547   1876
   224   546   1966
   222   544   2043
   242   698   343
   242   697   343
   243   697   393
   243   697   455
   243   696   542
   243   696   655
   243   695   788
   241   694   940
   240   693   1104
   237   692   1260
   234   690   1407
   232   689   1542
   229   687   1665
   226   685   1779
   223   683   1878
   220   682   1966
   218   680   2044
   237   901   343
   238   900   343
   238   900   394
   239   899   457
   238   899   544
   238   898   657
   237   897   791
   235   896   943
   232   894   1107
   229   893   1263
   226   891   1410
   222   889   1545
   218   887   1669
   214   884   1782
   211   883   1882
   208   881   1969
   205   879   2048
   218   1176   342
   219   1176   342
   219   1175   395
   220   1174   458
   219   1172   546
   218   1170   661
   216   1169   796
   213   1167   949
   209   1165   1114
   204   1164   1270
   199   1161   1418
   193   1159   1552
   188   1157   1677
   183   1154   1789
   179   1152   1889
   175   1149   1977
   171   1146   2055
   160   1532   338
   161   1530   344
   161   1528   394
   161   1527   458
   160   1524   548
   158   1522   665
   155   1520   802
   152   1517   957
   150   1514   1124
   147   1511   1280
   145   1507   1427
   146   1504   1563
   146   1501   1688
   147   1498   1801
   148   1494   1900
   148   1490   1989
   149   1486   2067
   142   1930   331
   142   1928   342
   143   1926   390
   143   1924   456
   144   1920   547
   144   1918   667
   145   1915   806
   146   1911   964
   146   1909   1130
   147   1904   1287
   148   1900   1433
   148   1896   1567
   149   1893   1690
   150   1888   1799
   151   1883   1898
   151   1879   1985
   152   1875   2059
   145   2264   334
   145   2260   350
   146   2260   398
   147   2256   466
   148   2254   559
   151   2250   679
   153   2247   819
   157   2244   975
   162   2240   1138
   167   2237   1290
   171   2233   1431
   176   2229   1561
   183   2224   1680
   192   2221   1785
   201   2218   1879
   208   2214   1962
   214   2210   2034
   337   2523   350
   337   2521   373
   338   2520   422
   339   2516   494
   343   2515   591
   347   2512   710
   353   2511   848
   360   2507   1001
   369   2504   1159
   378   2501   1306
   387   2497   1441
   395   2495   1566
   403   2491   1680
   410   2487   1781
   416   2483   1870
   421   2479   1949
   427   2476   2019
   506   2727   378
   507   2725   408
   507   2722   461
   509   2720   537
   512   2717   636
   515   2715   754
   521   2713   889
   528   2710   1040
   536   2707   1192
   543   2705   1333
   551   2701   1463
   558   2698   1583
   565   2695   1691
   572   2693   1787
   579   2690   1873
   583   2685   1947
   588   2682   2014
   633   2883   414
   635   2882   452
   636   2880   509
   638   2878   587
   641   2877   687
   644   2873   804
   650   2870   938
   657   2869   1088
   664   2866   1234
   673   2864   1369
   680   2860   1494
   687   2857   1609
   694   2855   1711
   700   2852   1804
   706   2850   1885
   711   2846   1956
   716   2843   2019
   738   3009   451
   739   3007   498
   741   3006   558
   743   3002   639
   747   3002   741
   751   2999   859
   756   2996   993
   763   2994   1139
   770   2992   1281
   779   2990   1412
   786   2987   1531
   794   2986   1641
   800   2983   1739
   807   2979   1826
   813   2977   1904
   818   2974   1971
   822   2971   2031
   819   3102   492
   820   3100   541
   821   3098   605
   824   3097   691
   828   3095   795
   832   3093   915
   839   3090   1050
   846   3088   1195
   855   3087   1331
   862   3084   1456
   870   3082   1572
   878   3081   1677
   885   3078   1771
   891   3075   1853
   898   3073   1925
   903   3070   1990
   910   3068   2047
   898   3191   539
   900   3189   589
   901   3186   658
   903   3184   748
   907   3181   855
   913   3180   978
   918   3177   1115
   927   3175   1256
   935   3173   1388
   942   3170   1507
   949   3167   1617
   957   3165   1716
   966   3163   1805
   971   3159   1882
   977   3156   1951
   985   3155   2012
   989   3151   2065
   977   3279   587
   979   3276   643
   982   3274   719
   984   3270   814
   989   3269   924
   994   3266   1050
   1001   3264   1189
   1009   3261   1325
   1017   3258   1450
   1025   3255   1564
   1032   3251   1668
   1040   3249   1761
   1047   3245   1843
   1054   3241   1917
   1061   3238   1983
   1067   3235   2037
   1074   3231   2089
   291   362   344
   291   362   344
   292   362   396
   292   362   460
   292   362   548
   292   361   663
   292   361   798
   291   360   950
   290   359   1115
   289   358   1271
   287   356   1417
   285   354   1552
   283   352   1675
   281   350   1786
   279   348   1885
   277   346   1972
   275   343   2050
   292   417   344
   293   417   344
   293   417   394
   293   416   457
   293   416   544
   293   416   658
   293   416   791
   292   415   944
   291   414   1108
   290   413   1264
   288   411   1411
   286   409   1545
   284   407   1669
   282   405   1781
   280   404   1880
   278   401   1968
   276   400   2045
   294   474   344
   294   474   344
   294   474   393
   294   474   455
   295   474   542
   295   473   655
   294   473   788
   294   472   940
   293   471   1104
   291   470   1260
   290   468   1406
   288   467   1542
   286   465   1666
   283   463   1778
   281   461   1877
   279   460   1966
   277   458   2042
   295   560   344
   295   559   344
   295   559   393
   296   559   455
   296   559   541
   296   559   654
   296   558   787
   295   558   938
   294   556   1102
   292   555   1258
   290   554   1405
   288   552   1539
   286   551   1664
   284   549   1776
   282   547   1875
   279   545   1964
   278   544   2042
   295   697   343
   295   697   343
   296   697   394
   296   696   455
   296   696   542
   296   695   655
   295   695   788
   294   694   939
   293   693   1103
   291   691   1260
   289   690   1405
   286   688   1540
   284   687   1665
   281   685   1777
   279   683   1876
   276   681   1964
   274   679   2043
   291   900   343
   291   900   343
   292   900   395
   292   899   457
   292   898   544
   292   897   658
   291   897   792
   289   895   944
   287   894   1107
   284   893   1263
   281   890   1410
   278   888   1545
   274   886   1668
   271   884   1781
   268   882   1881
   265   880   1968
   262   878   2047
   274   1176   342
   275   1175   342
   275   1174   396
   275   1174   459
   275   1172   548
   274   1170   663
   272   1169   798
   269   1167   951
   265   1165   1115
   260   1163   1271
   255   1161   1418
   250   1158   1552
   245   1156   1677
   240   1153   1789
   236   1151   1888
   232   1147   1976
   229   1145   2054
   216   1530   338
   218   1528   346
   218   1527   395
   218   1525   460
   216   1523   550
   215   1520   667
   211   1518   805
   206   1516   960
   200   1512   1125
   193   1510   1282
   186   1505   1429
   180   1503   1564
   177   1499   1689
   175   1496   1801
   174   1492   1899
   173   1488   1988
   173   1485   2066
   165   1928   331
   166   1927   344
   166   1924   392
   167   1922   458
   167   1919   550
   168   1917   670
   169   1912   810
   169   1910   967
   170   1906   1133
   171   1901   1289
   171   1899   1435
   172   1894   1569
   173   1890   1691
   174   1886   1801
   175   1881   1898
   176   1877   1984
   177   1872   2060
   182   2262   334
   183   2260   352
   184   2256   400
   185   2254   469
   187   2251   563
   188   2248   683
   193   2245   823
   199   2242   980
   208   2238   1142
   217   2235   1294
   227   2231   1434
   236   2227   1563
   245   2222   1683
   255   2220   1787
   263   2216   1879
   271   2212   1963
   278   2206   2034
   381   2522   350
   381   2521   375
   381   2517   425
   384   2515   497
   387   2513   596
   391   2511   715
   397   2509   853
   404   2505   1007
   413   2502   1164
   422   2499   1310
   431   2495   1446
   439   2492   1569
   447   2488   1682
   454   2484   1782
   461   2481   1871
   468   2477   1951
   474   2475   2019
   542   2725   378
   541   2722   410
   543   2721   464
   545   2718   542
   549   2716   642
   553   2714   760
   558   2710   896
   566   2709   1048
   574   2705   1199
   582   2702   1339
   590   2700   1468
   598   2696   1587
   606   2693   1695
   613   2690   1790
   619   2686   1874
   626   2683   1949
   631   2680   2015
   667   2882   414
   669   2881   455
   670   2878   513
   672   2877   593
   675   2874   694
   680   2871   812
   686   2869   947
   693   2867   1096
   703   2866   1241
   710   2861   1376
   718   2859   1500
   727   2856   1614
   734   2854   1716
   742   2850   1807
   748   2847   1887
   754   2843   1958
   760   2840   2021
   771   3007   451
   773   3006   502
   774   3002   564
   778   3002   647
   781   2999   749
   786   2997   868
   793   2995   1003
   800   2992   1149
   809   2990   1290
   818   2987   1419
   826   2986   1538
   835   2983   1647
   843   2980   1744
   850   2977   1829
   858   2975   1906
   864   2972   1973
   872   2969   2032
   852   3100   498
   854   3099   546
   856   3097   613
   860   3095   700
   864   3093   804
   870   3090   925
   877   3088   1062
   887   3087   1206
   895   3085   1341
   905   3082   1465
   914   3081   1580
   924   3078   1684
   932   3076   1775
   939   3073   1857
   948   3070   1929
   955   3068   1992
   963   3065   2048
   933   3189   544
   934   3186   595
   938   3185   667
   941   3182   758
   947   3180   867
   953   3177   991
   961   3175   1130
   971   3173   1269
   979   3170   1399
   988   3168   1517
   998   3165   1625
   1007   3163   1724
   1015   3159   1811
   1025   3158   1887
   1034   3155   1955
   1041   3151   2016
   1049   3147   2068
   1015   3276   593
   1018   3274   652
   1021   3271   729
   1025   3269   826
   1031   3266   939
   1038   3263   1066
   1046   3261   1206
   1056   3258   1339
   1066   3255   1463
   1075   3251   1575
   1086   3249   1678
   1095   3245   1770
   1104   3242   1851
   1114   3239   1922
   1122   3235   1986
   1132   3231   2042
   1140   3227   2092
   346   362   344
   346   362   344
   347   362   395
   347   362   458
   347   362   546
   347   361   660
   347   361   794
   347   360   946
   346   359   1111
   345   358   1267
   344   356   1414
   343   354   1547
   341   352   1671
   340   350   1783
   338   348   1881
   337   345   1970
   335   343   2046
   347   417   344
   348   417   344
   348   416   394
   349   416   456
   349   416   543
   349   416   656
   349   416   789
   349   415   941
   348   414   1105
   347   413   1261
   346   411   1407
   345   409   1543
   343   407   1667
   342   405   1779
   341   403   1877
   339   401   1965
