Resources/LUT/Hi Con Glow.3dl
# 17x17x17 .3dl lookup table from LUT Buddy
   0   64   128   192   256   320   384   448   512   576   640   704   768   832   896   960   1023
   49   49   49
   25   25   25
   22   22   22
   20   20   20
   20   20   20
   20   20   20
   20   20   20
   21   21   21
   21   21   21
   21   21   21
   21   21   21
   21   21   21
   21   21   21
   21   21   21
   22   22   22
   22   22   22
   22   22   22
   258   258   258
   101   101   101
   34   34   34
   32   32   32
   32   32   32
   33   33   33
   35   35   35
   38   38   38
   39   39   39
   39   39   39
   40   40   40
   40   40   40
   40   40   40
   40   40   40
   41   41   41
   41   41   41
   41   41   41
   533   533   533
   403   403   403
   107   107   107
   54   54   54
   46   46   46
   48   48   48
   50   50   50
   52   52   52
   54   54   54
   58   58   58
   62   62   62
   66   66   66
   70   70   70
   72   72   72
   74   74   74
   74   74   74
   75   75   75
   841   841   841
   756   756   756
   470   470   470
   158   158   158
   85   85   85
   64   64   64
   69   69   69
   72   72   72
   75   75   75
   78   78   78
   81   81   81
   85   85   85
   90   90   90
   94   94   94
   100   100   100
   106   106   106
   112   112   112
   1145   1145   1145
   1091   1091   1091
   843   843   843
   447   447   447
   224   224   224
   131   131   131
   96   96   96
   93   93   93
   100   100   100
   105   105   105
   109   109   109
   114   114   114
   118   118   118
   123   123   123
   129   129   129
   134   134   134
   140   140   140
   1445   1445   1445
   1407   1407   1407
   1202   1202   1202
   924   924   924
   467   467   467
   298   298   298
   196   196   196
   148   148   148
   124   124   124
   134   134   134
   142   142   142
   150   150   150
   156   156   156
   162   162   162
   168   168   168
   174   174   174
   181   181   181
   1751   1751   1751
   1721   1721   1721
   1543   1543   1543
   1278   1278   1278
   917   917   917
   535   535   535
   377   377   377
   269   269   269
   219   219   219
   179   179   179
   175   175   175
   187   187   187
   198   198   198
   206   206   206
   214   214   214
   221   221   221
   227   227   227
   2065   2065   2065
   2040   2040   2040
   1883   1883   1883
   1625   1625   1625
   1357   1357   1357
   893   893   893
   621   621   621
   468   468   468
   352   352   352
   300   300   300
   254   254   254
   227   227   227
   235   235   235
   248   248   248
   258   258   258
   268   268   268
   276   276   276
   2387   2387   2387
   2364   2364   2364
   2226   2226   2226
   1975   1975   1975
   1693   1693   1693
   1357   1357   1357
   913   913   913
   713   713   713
   564   564   564
   443   443   443
   387   387   387
   341   341   341
   303   303   303
   286   286   286
   300   300   300
   313   313   313
   325   325   325
   2700   2700   2700
   2680   2680   2680
   2565   2565   2565
   2324   2324   2324
   2038   2038   2038
   1765   1765   1765
   1299   1299   1299
   966   966   966
   803   803   803
   665   665   665
   539   539   539
   484   484   484
   435   435   435
   390   390   390
   361   361   361
   354   354   354
   371   371   371
   2958   2958   2958
   2940   2940   2940
   2856   2856   2856
   2660   2660   2660
   2385   2385   2385
   2096   2096   2096
   1748   1748   1748
   1284   1284   1284
   1037   1037   1037
   896   896   896
   764   764   764
   647   647   647
   586   586   586
   536   536   536
   489   489   489
   449   449   449
   429   429   429
   3172   3172   3172
   3156   3156   3156
   3093   3093   3093
   2941   2941   2941
   2716   2716   2716
   2439   2439   2439
   2165   2165   2165
   1667   1667   1667
   1313   1313   1313
   1127   1127   1127
   995   995   995
   869   869   869
   758   758   758
   690   690   690
   641   641   641
   595   595   595
   552   552   552
   3348   3348   3348
   3335   3335   3335
   3285   3285   3285
   3172   3172   3172
   2996   2996   2996
   2769   2769   2769
   2507   2507   2507
   2137   2137   2137
   1660   1660   1660
   1379   1379   1379
   1221   1221   1221
   1102   1102   1102
   982   982   982
   871   871   871
   803   803   803
   755   755   755
   712   712   712
   3455   3455   3455
   3445   3445   3445
   3445   3445   3445
   3357   3357   3357
   3221   3221   3221
   3041   3041   3041
   2823   2823   2823
   2594   2594   2594
   2090   2090   2090
   1700   1700   1700
   1467   1467   1467
   1332   1332   1332
   1213   1213   1213
   1099   1099   1099
   995   995   995
   915   915   915
   870   870   870
   3455   3455   3455
   3447   3447   3447
   3447   3447   3447
   3447   3447   3447
   3403   3403   3403
   3257   3257   3257
   3086   3086   3086
   2891   2891   2891
   2580   2580   2580
   2095   2095   2095
   1764   1764   1764
   1567   1567   1567
   1443   1443   1443
   1333   1333   1333
   1224   1224   1224
   1127   1127   1127
   1032   1032   1032
   3455   3455   3455
   3449   3449   3449
   3449   3449   3449
   3449   3449   3449
   3449   3449   3449
   3431   3431   3431
   3291   3291   3291
   3133   3133   3133
   2966   2966   2966
   2551   2551   2551
   2132   2132   2132
   1851   1851   1851
   1682   1682   1682
   1561   1561   1561
   1452   1452   1452
   1348   1348   1348
   1253   1253   1253
   3455   3455   3455
   3453   3453   3453
   3453   3453   3453
   3453   3453   3453
   3453   3453   3453
   3451   3451   3451
   3450   3450   3450
   3325   3325   3325
   3188   3188   3188
   2965   2965   2965
   2552   2552   2552
   2196   2196   2196
   1946   1946   1946
   1794   1794   1794
   1682   1682   1682
   1575   1575   1575
   1472   1472   1472
   118   118   118
   114   114   114
   79   79   79
   41   41   41
   41   41   41
   41   41   41
   41   41   41
   42   42   42
   42   42   42
   42   42   42
   42   42   42
   42   42   42
   42   42   42
   43   43   43
   43   43   43
   43   43   43
   43   43   43
   431   431   431
   262   262   262
   162   162   162
   107   107   107
   67   67   67
   67   67   67
   67   67   67
   68   68   68
   68   68   68
   69   69   69
   69   69   69
   69   69   69
   69   69   69
   70   70   70
   70   70   70
   70   70   70
   71   71   71
   711   711   711
   683   683   683
   352   352   352
   177   177   177
   138   138   138
   117   117   117
   109   109   109
   108   108   108
   111   111   111
   111   111   111
   112   112   112
   112   112   112
   112   112   112
   113   113   113
   114   114   114
   115   115   115
   115   115   115
   992   992   992
   984   984   984
   780   780   780
   338   338   338
   229   229   229
   199   199   199
   184   184   184
   171   171   171
   163   163   163
   161   161   161
   163   163   163
   167   167   167
   173   173   173
   178   178   178
   180   180   180
   182   182   182
   182   182   182
   1277   1277   1277
   1270   1270   1270
   1147   1147   1147
   787   787   787
   403   403   403
   297   297   297
   252   252   252
   248   248   248
   240   240   240
   233   233   233
   228   228   228
   226   226   226
   226   226   226
   228   228   228
   232   232   232
   238   238   238
   244   244   244
   1564   1564   1564
   1556   1556   1556
   1476   1476   1476
   1182   1182   1182
   744   744   744
   484   484   484
   373   373   373
   321   321   321
   307   307   307
   306   306   306
   302   302   302
   299   299   299
   297   297   297
   295   295   295
   296   296   296
   297   297   297
   300   300   300
   1863   1863   1863
   1858   1858   1858
   1795   1795   1795
   1545   1545   1545
   1224   1224   1224
   756   756   756
   574   574   574
   457   457   457
   401   401   401
   365   365   365
   370   370   370
   372   372   372
   371   371   371
   370   370   370
   370   370   370
   370   370   370
   370   370   370
   2175   2175   2175
   2170   2170   2170
   2115   2115   2115
   1903   1903   1903
   1587   1587   1587
   1202   1202   1202
   819   819   819
   667   667   667
   548   548   548
   490   490   490
   446   446   446
   432   432   432
   440   440   440
   444   444   444
   446   446   446
   447   447   447
   448   448   448
   2494   2494   2494
   2491   2491   2491
   2445   2445   2445
   2253   2253   2253
   1952   1952   1952
   1636   1636   1636
   1170   1170   1170
   905   905   905
   763   763   763
   648   648   648
   590   590   590
   540   540   540
   506   506   506
   507   507   507
   516   516   516
   522   522   522
   526   526   526
   2789   2789   2789
   2782   2782   2782
   2747   2747   2747
   2597   2597   2597
   2314   2314   2314
   1993   1993   1993
   1620   1620   1620
   1181   1181   1181
   996   996   996
   863   863   863
   747   747   747
   693   693   693
   645   645   645
   603   603   603
   580   580   580
   589   589   589
   599   599   599
   3030   3030   3030
   3022   3022   3022
   2996   2996   2996
   2885   2885   2885
   2660   2660   2660
   2350   2350   2350
   2041   2041   2041
   1556   1556   1556
   1233   1233   1233
   1086   1086   1086
   962   962   962
   851   851   851
   796   796   796
   747   747   747
   703   703   703
   675   675   675
   662   662   662
   3228   3228   3228
   3218   3218   3218
   3200   3200   3200
   3119   3119   3119
   2947   2947   2947
   2694   2694   2694
   2386   2386   2386
   2013   2013   2013
   1549   1549   1549
   1310   1310   1310
   1181   1181   1181
   1067   1067   1067
   958   958   958
   899   899   899
   853   853   853
   812   812   812
   773   773   773
   3396   3396   3396
   3381   3381   3381
   3369   3369   3369
   3307   3307   3307
   3178   3178   3178
   2984   2984   2984
   2733   2733   2733
   2452   2452   2452
   1959   1959   1959
   1591   1591   1591
   1405   1405   1405
   1288   1288   1288
   1178   1178   1178
   1073   1073   1073
   1007   1007   1007
   964   964   964
   923   923   923
   3501   3501   3501
   3491   3491   3491
   3483   3483   3483
   3469   3469   3469
   3365   3365   3365
   3215   3215   3215
   3019   3019   3019
   2786   2786   2786
   2453   2453   2453
   1970   1970   1970
   1670   1670   1670
   1514   1514   1514
   1402   1402   1402
   1297   1297   1297
   1196   1196   1196
   1122   1122   1122
   1079   1079   1079
   3507   3507   3507
   3491   3491   3491
   3487   3487   3487
   3487   3487   3487
   3485   3485   3485
   3398   3398   3398
   3243   3243   3243
   3060   3060   3060
   2859   2859   2859
   2423   2423   2423
   2020   2020   2020
   1764   1764   1764
   1630   1630   1630
   1521   1521   1521
   1418   1418   1418
   1322   1322   1322
   1237   1237   1237
   3513   3513   3513
   3493   3493   3493
   3493   3493   3493
   3493   3493   3493
   3492   3492   3492
   3487   3487   3487
   3423   3423   3423
   3275   3275   3275
   3110   3110   3110
   2880   2880   2880
   2433   2433   2433
   2090   2090   2090
   1874   1874   1874
   1751   1751   1751
   1640   1640   1640
   1540   1540   1540
   1447   1447   1447
   3520   3520   3520
   3495   3495   3495
   3497   3497   3497
   3497   3497   3497
   3495   3495   3495
   3493   3493   3493
   3491   3491   3491
   3450   3450   3450
   3309   3309   3309
   3172   3172   3172
   2858   2858   2858
   2480   2480   2480
   2176   2176   2176
   1984   1984   1984
   1873   1873   1873
   1768   1768   1768
   1669   1669   1669
   256   256   256
   285   285   285
   226   226   226
   89   89   89
   81   81   81
   79   79   79
   79   79   79
   79   79   79
   79   79   79
   80   80   80
   80   80   80
   81   81   81
   81   81   81
   81   81   81
   82   82   82
   82   82   82
   82   82   82
   536   536   536
   404   404   404
   398   398   398
   299   299   299
   125   125   125
   114   114   114
   114   114   114
   114   114   114
   115   115   115
   116   116   116
   116   116   116
   116   116   116
   117   117   117
   118   118   118
   117   117   117
   118   118   118
   119   119   119
   881   881   881
   830   830   830
   591   591   591
   439   439   439
   316   316   316
   175   175   175
   169   169   169
   170   170   170
   170   170   170
   171   171   171
   173   173   173
   174   174   174
   174   174   174
   174   174   174
   176   176   176
   176   176   176
   177   177   177
   1189   1189   1189
   1181   1181   1181
   1086   1086   1086
   661   661   661
   441   441   441
   350   350   350
   291   291   291
   259   259   259
   247   247   247
   247   247   247
   245   245   245
   244   244   244
   245   245   245
   245   245   245
   248   248   248
   249   249   249
   249   249   249
   1453   1453   1453
   1444   1444   1444
   1417   1417   1417
   1140   1140   1140
   632   632   632
   492   492   492
   444   444   444
   403   403   403
   368   368   368
   344   344   344
   331   331   331
   324   324   324
   323   323   323
   326   326   326
   331   331   331
   331   331   331
   333   333   333
   1726   1726   1726
   1719   1719   1719
   1686   1686   1686
   1527   1527   1527
   1095   1095   1095
   688   688   688
   576   576   576
   519   519   519
   498   498   498
   473   473   473
   449   449   449
   432   432   432
   418   418   418
   411   411   411
   407   407   407
   405   405   405
   408   408   408
   2018   2018   2018
   2012   2012   2012
   1981   1981   1981
   1873   1873   1873
   1508   1508   1508
   1026   1026   1026
   776   776   776
   664   664   664
   608   608   608
   580   580   580
   568   568   568
   551   551   551
   535   535   535
   521   521   521
   511   511   511
   503   503   503
   498   498   498
   2324   2324   2324
   2317   2317   2317
   2286   2286   2286
   2208   2208   2208
   1897   1897   1897
   1516   1516   1516
   1034   1034   1034
   867   867   867
   755   755   755
   702   702   702
   660   660   660
   653   653   653
   645   645   645
   635   635   635
   624   624   624
   614   614   614
   605   605   605
   2631   2631   2631
   2626   2626   2626
   2596   2596   2596
   2542   2542   2542
   2271   2271   2271
   1902   1902   1902
   1469   1469   1469
   1096   1096   1096
   958   958   958
   850   850   850
   799   799   799
   753   753   753
   729   729   729
   731   731   731
   727   727   727
   721   721   721
   713   713   713
   2898   2898   2898
   2892   2892   2892
   2863   2863   2863
   2829   2829   2829
   2627   2627   2627
   2282   2282   2282
   1923   1923   1923
   1427   1427   1427
   1181   1181   1181
   1056   1056   1056
   948   948   948
   898   898   898
   853   853   853
   817   817   817
   808   808   808
   812   812   812
   811   811   811
   3116   3116   3116
   3111   3111   3111
   3084   3084   3084
   3064   3064   3064
   2917   2917   2917
   2648   2648   2648
   2291   2291   2291
   1874   1874   1874
   1445   1445   1445
   1270   1270   1270
   1152   1152   1152
   1046   1046   1046
   996   996   996
   953   953   953
   914   914   914
   890   890   890
   893   893   893
   3294   3294   3294
   3290   3290   3290
   3264   3264   3264
   3252   3252   3252
   3146   3146   3146
   2943   2943   2943
   2653   2653   2653
   2325   2325   2325
   1817   1817   1817
   1503   1503   1503
   1366   1366   1366
   1257   1257   1257
   1151   1151   1151
   1098   1098   1098
   1058   1058   1058
   1019   1019   1019
   987   987   987
   3455   3455   3455
   3451   3451   3451
   3426   3426   3426
   3415   3415   3415
   3333   3333   3333
   3180   3180   3180
   2959   2959   2959
   2684   2684   2684
   2299   2299   2299
   1834   1834   1834
   1588   1588   1588
   1470   1470   1470
   1364   1364   1364
   1267   1267   1267
   1205   1205   1205
   1167   1167   1167
   1129   1129   1129
   3559   3559   3559
   3559   3559   3559
   3536   3536   3536
   3538   3538   3538
   3498   3498   3498
   3369   3369   3369
   3202   3202   3202
   2986   2986   2986
   2744   2744   2744
   2270   2270   2270
   1891   1891   1891
   1695   1695   1695
   1581   1581   1581
   1481   1481   1481
   1386   1386   1386
   1317   1317   1317
   1279   1279   1279
   3568   3568   3568
   3568   3568   3568
   3542   3542   3542
   3543   3543   3543
   3540   3540   3540
   3530   3530   3530
   3391   3391   3391
   3224   3224   3224
   3032   3032   3032
   2763   2763   2763
   2298   2298   2298
   1982   1982   1982
   1812   1812   1812
   1702   1702   1702
   1603   1603   1603
   1510   1510   1510
   1436   1436   1436
   3573   3573   3573
   3573   3573   3573
   3547   3547   3547
   3549   3549   3549
   3547   3547   3547
   3542   3542   3542
   3532   3532   3532
   3413   3413   3413
   3253   3253   3253
   3089   3089   3089
   2746   2746   2746
   2346   2346   2346
   2081   2081   2081
   1938   1938   1938
   1831   1831   1831
   1729   1729   1729
   1640   1640   1640
   3582   3582   3582
   3582   3582   3582
   3555   3555   3555
   3557   3557   3557
   3555   3555   3555
   3550   3550   3550
   3542   3542   3542
   3533   3533   3533
   3437   3437   3437
   3296   3296   3296
   3122   3122   3122
   2756   2756   2756
   2423   2423   2423
   2186   2186   2186
   2060   2060   2060
   1958   1958   1958
   1864   1864   1864
   439   439   439
   493   493   493
   494   494   494
   359   359   359
   163   163   163
   151   151   151
   146   146   146
   143   143   143
   142   142   142
   142   142   142
   143   143   143
   143   143   143
   146   146   146
   145   145   145
   148   148   148
   147   147   147
   149   149   149
   570   570   570
   569   569   569
   604   604   604
   479   479   479
   256   256   256
   195   195   195
   189   189   189
   188   188   188
   189   189   189
   189   189   189
   191   191   191
   192   192   192
   193   193   193
   193   193   193
   194   194   194
   195   195   195
