Resources/LUT/Hi Con Glow.3dl
# 17x17x17 .3dl lookup table from LUT Buddy
0 128 256 384 512 640 768 896 1023
   49   49   49
   22   22   22
   20   20   20
   20   20   20
   21   21   21
   21   21   21
   21   21   21
   22   22   22
   22   22   22
   533   533   533
   107   107   107
   46   46   46
   50   50   50
   54   54   54
   62   62   62
   70   70   70
   74   74   74
   75   75   75
   1145   1145   1145
   843   843   843
   224   224   224
   96   96   96
   100   100   100
   109   109   109
   118   118   118
   129   129   129
   140   140   140
   1751   1751   1751
   1543   1543   1543
   917   917   917
   377   377   377
   219   219   219
   175   175   175
   198   198   198
   214   214   214
   227   227   227
   2387   2387   2387
   2226   2226   2226
   1693   1693   1693
   913   913   913
   564   564   564
   387   387   387
   303   303   303
   300   300   300
   325   325   325
   2958   2958   2958
   2856   2856   2856
   2385   2385   2385
   1748   1748   1748
   1037   1037   1037
   764   764   764
   586   586   586
   489   489   489
   429   429   429
   3348   3348   3348
   3285   3285   3285
   2996   2996   2996
   2507   2507   2507
   1660   1660   1660
   1221   1221   1221
   982   982   982
   803   803   803
   712   712   712
   3455   3455   3455
   3447   3447   3447
   3403   3403   3403
   3086   3086   3086
   2580   2580   2580
   1764   1764   1764
   1443   1443   1443
   1224   1224   1224
   1032   1032   1032
   3455   3455   3455
   3453   3453   3453
   3453   3453   3453
   3450   3450   3450
   3188   3188   3188
   2552   2552   2552
   1946   1946   1946
   1682   1682   1682
   1472   1472   1472
   256   256   256
   226   226   226
   81   81   81
   79   79   79
   79   79   79
   80   80   80
   81   81   81
   82   82   82
   82   82   82
   881   881   881
   591   591   591
   316   316   316
   169   169   169
   170   170   170
   173   173   173
   174   174   174
   176   176   176
   177   177   177
   1453   1453   1453
   1417   1417   1417
   632   632   632
   444   444   444
   368   368   368
   331   331   331
   323   323   323
   331   331   331
   333   333   333
   2018   2018   2018
   1981   1981   1981
   1508   1508   1508
   776   776   776
   608   608   608
   568   568   568
   535   535   535
   511   511   511
   498   498   498
   2631   2631   2631
   2596   2596   2596
   2271   2271   2271
   1469   1469   1469
   958   958   958
   799   799   799
   729   729   729
   727   727   727
   713   713   713
   3116   3116   3116
   3084   3084   3084
   2917   2917   2917
   2291   2291   2291
   1445   1445   1445
   1152   1152   1152
   996   996   996
   914   914   914
   893   893   893
   3455   3455   3455
   3426   3426   3426
   3333   3333   3333
   2959   2959   2959
   2299   2299   2299
   1588   1588   1588
   1364   1364   1364
   1205   1205   1205
   1129   1129   1129
   3568   3568   3568
   3542   3542   3542
   3540   3540   3540
   3391   3391   3391
   3032   3032   3032
   2298   2298   2298
   1812   1812   1812
   1603   1603   1603
   1436   1436   1436
   3582   3582   3582
   3555   3555   3555
   3555   3555   3555
   3542   3542   3542
   3437   3437   3437
   3122   3122   3122
   2423   2423   2423
   2060   2060   2060
   1864   1864   1864
   659   659   659
   727   727   727
   557   557   557
   245   245   245
   231   231   231
   229   229   229
   230   230   230
   235   235   235
   236   236   236
   1037   1037   1037
   912   912   912
   790   790   790
   340   340   340
   336   336   336
   338   338   338
   341   341   341
   343   343   343
   345   345   345
   1709   1709   1709
   1868   1868   1868
   1277   1277   1277
   881   881   881
   496   496   496
   488   488   488
   491   491   491
   494   494   494
   498   498   498
   2415   2415   2415
   2411   2411   2411
   2357   2357   2357
   1236   1236   1236
   1018   1018   1018
   867   867   867
   762   762   762
   712   712   712
   698   698   698
   2941   2941   2941
   2928   2928   2928
   2890   2890   2890
   2160   2160   2160
   1347   1347   1347
   1204   1204   1204
   1135   1135   1135
   1060   1060   1060
   995   995   995
   3308   3308   3308
   3298   3298   3298
   3269   3269   3269
   2937   2937   2937
   2004   2004   2004
   1533   1533   1533
   1390   1390   1390
   1320   1320   1320
   1291   1291   1291
   3604   3604   3604
   3597   3597   3597
   3566   3566   3566
   3373   3373   3373
   2878   2878   2878
   2025   2025   2025
   1745   1745   1745
   1597   1597   1597
   1529   1529   1529
   3692   3692   3692
   3692   3692   3692
   3673   3673   3673
   3661   3661   3661
   3375   3375   3375
   2921   2921   2921
   2213   2213   2213
   1991   1991   1991
   1831   1831   1831
   3704   3704   3704
   3706   3706   3706
   3686   3686   3686
   3677   3677   3677
   3652   3652   3652
   3414   3414   3414
   2939   2939   2939
   2456   2456   2456
   2261   2261   2261
   1110   1110   1110
   1181   1181   1181
   1184   1184   1184
   983   983   983
   516   516   516
   443   443   443
   429   429   429
   428   428   428
   429   429   429
   1262   1262   1262
   1288   1288   1288
   1354   1354   1354
   974   974   974
   636   636   636
   591   591   591
   567   567   567
   559   559   559
   557   557   557
   1949   1949   1949
   1861   1861   1861
   1581   1581   1581
   1494   1494   1494
   706   706   706
   686   686   686
   690   690   690
   694   694   694
   696   696   696
   2592   2592   2592
   2744   2744   2744
   2742   2742   2742
   1941   1941   1941
   1483   1483   1483
   909   909   909
   857   857   857
   860   860   860
   863   863   863
   3184   3184   3184
   3221   3221   3221
   3214   3214   3214
   3118   3118   3118
   1844   1844   1844
   1594   1594   1594
   1401   1401   1401
   1232   1232   1232
   1133   1133   1133
   3510   3510   3510
   3501   3501   3501
   3496   3496   3496
   3452   3452   3452
   2794   2794   2794
   1926   1926   1926
   1789   1789   1789
   1704   1704   1704
   1588   1588   1588
   3734   3734   3734
   3729   3729   3729
   3726   3726   3726
   3704   3704   3704
   3378   3378   3378
   2656   2656   2656
   2139   2139   2139
   2001   2001   2001
   1932   1932   1932
   3788   3788   3788
   3789   3789   3789
   3789   3789   3789
   3773   3773   3773
   3717   3717   3717
   3345   3345   3345
   2712   2712   2712
   2396   2396   2396
   2242   2242   2242
   3800   3800   3800
   3802   3802   3802
   3804   3804   3804
   3787   3787   3787
   3766   3766   3766
   3710   3710   3710
   3377   3377   3377
   2861   2861   2861
   2665   2665   2665
   1553   1553   1553
   1624   1624   1624
   1627   1627   1627
   1632   1632   1632
   1419   1419   1419
   952   952   952
   722   722   722
   670   670   670
   661   661   661
   1635   1635   1635
   1703   1703   1703
   1773   1773   1773
   1779   1779   1779
   1446   1446   1446
   917   917   917
   858   858   858
   832   832   832
   816   816   816
   1983   1983   1983
   1910   1910   1910
   1934   1934   1934
   2004   2004   2004
   1326   1326   1326
   1045   1045   1045
   971   971   971
   933   933   933
   917   917   917
   2778   2778   2778
   2787   2787   2787
   2737   2737   2737
   2283   2283   2283
   2276   2276   2276
   1406   1406   1406
   1042   1042   1042
   1047   1047   1047
   1051   1051   1051
   3259   3259   3259
   3343   3343   3343
   3442   3442   3442
   3298   3298   3298
   2638   2638   2638
   2166   2166   2166
   1432   1432   1432
   1233   1233   1233
   1214   1214   1214
   3643   3643   3643
   3691   3691   3691
   3694   3694   3694
   3690   3690   3690
   3543   3543   3543
   2525   2525   2525
   2201   2201   2201
   1970   1970   1970
   1717   1717   1717
   3828   3828   3828
   3829   3829   3829
   3827   3827   3827
   3825   3825   3825
   3786   3786   3786
   3296   3296   3296
   2553   2553   2553
   2415   2415   2415
   2326   2326   2326
   3870   3870   3870
   3870   3870   3870
   3871   3871   3871
   3873   3873   3873
   3859   3859   3859
   3733   3733   3733
   3242   3242   3242
   2784   2784   2784
   2655   2655   2655
   3881   3881   3881
   3882   3882   3882
   3885   3885   3885
   3886   3886   3886
   3872   3872   3872
   3840   3840   3840
   3703   3703   3703
   3249   3249   3249
   2998   2998   2998
   2004   2004   2004
   2079   2079   2079
   2082   2082   2082
   2085   2085   2085
   2090   2090   2090
   1893   1893   1893
   1443   1443   1443
   1129   1129   1129
   962   962   962
   2025   2025   2025
   2142   2142   2142
   2213   2213   2213
   2219   2219   2219
   2227   2227   2227
   1956   1956   1956
   1390   1390   1390
   1126   1126   1126
   1080   1080   1080
   2268   2268   2268
   2278   2278   2278
   2350   2350   2350
   2426   2426   2426
   2435   2435   2435
   1973   1973   1973
   1334   1334   1334
   1272   1272   1272
   1233   1233   1233
   2942   2942   2942
   2734   2734   2734
   2607   2607   2607
   2627   2627   2627
   2690   2690   2690
   1921   1921   1921
   1438   1438   1438
   1335   1335   1335
   1287   1287   1287
   3348   3348   3348
   3356   3356   3356
   3367   3367   3367
   3262   3262   3262
   2944   2944   2944
   2951   2951   2951
   2260   2260   2260
   1389   1389   1389
   1395   1395   1395
   3684   3684   3684
   3727   3727   3727
   3775   3775   3775
   3814   3814   3814
   3667   3667   3667
   3197   3197   3197
   2879   2879   2879
   2248   2248   2248
   1621   1621   1621
   3871   3871   3871
   3898   3898   3898
   3909   3909   3909
   3908   3908   3908
   3908   3908   3908
   3808   3808   3808
   3138   3138   3138
   2834   2834   2834
   2608   2608   2608
   3934   3934   3934
   3938   3938   3938
   3938   3938   3938
   3940   3940   3940
   3942   3942   3942
   3927   3927   3927
   3708   3708   3708
   3100   3100   3100
   2993   2993   2993
   3946   3946   3946
   3946   3946   3946
   3948   3948   3948
   3950   3950   3950
   3949   3949   3949
   3940   3940   3940
   3895   3895   3895
   3665   3665   3665
   3249   3249   3249
   2471   2471   2471
   2552   2552   2552
   2556   2556   2556
   2560   2560   2560
   2564   2564   2564
   2570   2570   2570
   2414   2414   2414
   1998   1998   1998
   1630   1630   1630
   2434   2434   2434
   2599   2599   2599
   2666   2666   2666
   2673   2673   2673
   2680   2680   2680
   2687   2687   2687
   2506   2506   2506
   1971   1971   1971
   1573   1573   1573
   2649   2649   2649
   2659   2659   2659
   2767   2767   2767
   2832   2832   2832
   2839   2839   2839
   2846   2846   2846
   2618   2618   2618
   1907   1907   1907
   1554   1554   1554
   2957   2957   2957
   2902   2902   2902
   2916   2916   2916
   2961   2961   2961
   3023   3023   3023
   3030   3030   3030
   2637   2637   2637
   1781   1781   1781
   1689   1689   1689
   3515   3515   3515
   3451   3451   3451
   3320   3320   3320
   3160   3160   3160
   3169   3169   3169
   3208   3208   3208
   2789   2789   2789
   1870   1870   1870
   1707   1707   1707
   3725   3725   3725
   3734   3734   3734
   3744   3744   3744
   3757   3757   3757
   3653   3653   3653
   3374   3374   3374
   3376   3376   3376
   3094   3094   3094
   2216   2216   2216
   3890   3890   3890
   3912   3912   3912
   3936   3936   3936
   3960   3960   3960
   3968   3968   3968
   3864   3864   3864
   3608   3608   3608
   3376   3376   3376
   3071   3071   3071
   3971   3971   3971
   3981   3981   3981
   3987   3987   3987
   3989   3989   3989
   3991   3991   3991
   3991   3991   3991
   3959   3959   3959
   3604   3604   3604
   3365   3365   3365
   3988   3988   3988
   3992   3992   3992
   3994   3994   3994
   3995   3995   3995
   3997   3997   3997
   4000   4000   4000
   3989   3989   3989
   3916   3916   3916
   3561   3561   3561
   2893   2893   2893
   2959   2959   2959
   2961   2961   2961
   2964   2964   2964
   2969   2969   2969
   2971   2971   2971
   2975   2975   2975
   2902   2902   2902
   2591   2591   2591
   2826   2826   2826
   2983   2983   2983
   3034   3034   3034
   3040   3040   3040
   3046   3046   3046
   3051   3051   3051
   3056   3056   3056
   2991   2991   2991
   2608   2608   2608
   2974   2974   2974
   2984   2984   2984
   3096   3096   3096
   3148   3148   3148
   3154   3154   3154
   3160   3160   3160
   3166   3166   3166
   3095   3095   3095
   2625   2625   2625
   3151   3151   3151
   3158   3158   3158
   3168   3168   3168
   3230   3230   3230
   3277   3277   3277
   3284   3284   3284
   3290   3290   3290
   3205   3205   3205
   2563   2563   2563
   3526   3526   3526
   3391   3391   3391
   3335   3335   3335
   3346   3346   3346
   3367   3367   3367
   3414   3414   3414
   3421   3421   3421
   3260   3260   3260
   2331   2331   2331
   3811   3811   3811
   3806   3806   3806
   3786   3786   3786
   3722   3722   3722
   3545   3545   3545
   3532   3532   3532
   3562   3562   3562
   3422   3422   3422
   2808   2808   2808
   3907   3907   3907
   3915   3915   3915
   3923   3923   3923
   3933   3933   3933
   3947   3947   3947
   3868   3868   3868
   3694   3694   3694
   3689   3689   3689
   3639   3639   3639
   3992   3992   3992
   4002   4002   4002
   4010   4010   4010
   4018   4018   4018
   4024   4024   4024
   4026   4026   4026
   3983   3983   3983
   3852   3852   3852
   3737   3737   3737
   4014   4014   4014
   4021   4021   4021
   4026   4026   4026
   4028   4028   4028
   4030   4030   4030
   4032   4032   4032
   4034   4034   4034
   4009   4009   4009
   3862   3862   3862
   3211   3211   3211
   3257   3257   3257
   3259   3259   3259
   3263   3263   3263
   3263   3263   3263
   3269   3269   3269
   3271   3271   3271
   3275   3275   3275
   3251   3251   3251
   3136   3136   3136
   3265   3265   3265
   3306   3306   3306
   3310   3310   3310
   3314   3314   3314
   3318   3318   3318
   3322   3322   3322
   3328   3328   3328
   3316   3316   3316
   3229   3229   3229
   3245   3245   3245
   3343   3343   3343
   3386   3386   3386
   3390   3390   3390
   3396   3396   3396
   3402   3402   3402
   3406   3406   3406
   3397   3397   3397
   3353   3353   3353
   3359   3359   3359
   3368   3368   3368
   3442   3442   3442
   3488   3488   3488
   3493   3493   3493
   3501   3501   3501
   3506   3506   3506
   3506   3506   3506
   3549   3549   3549
   3502   3502   3502
   3508   3508   3508
   3518   3518   3518
   3557   3557   3557
   3607   3607   3607
   3615   3615   3615
   3623   3623   3623
   3622   3622   3622
   3842   3842   3842
   3795   3795   3795
   3721   3721   3721
   3663   3663   3663
   3669   3669   3669
   3677   3677   3677
   3709   3709   3709
   3713   3713   3713
   3711   3711   3711
   3943   3943   3943
   3946   3946   3946
   3947   3947   3947
   3945   3945   3945
   3926   3926   3926
   3825   3825   3825
   3774   3774   3774
   3788   3788   3788
   3788   3788   3788
   4008   4008   4008
   4012   4012   4012
   4018   4018   4018
   4023   4023   4023
   4029   4029   4029
   4034   4034   4034
   3990   3990   3990
   3863   3863   3863
   3858   3858   3858
   4027   4027   4027
   4035   4035   4035
   4041   4041   4041
   4043   4043   4043
   4043   4043   4043
   4043   4043   4043
   4043   4043   4043
   4025   4025   4025
   3961   3961   3961
