Resources/LUT/Hi Con Glow.3dl
# 17x17x17 .3dl lookup table from LUT Buddy
0 256 512 768 1023
   49   49   49
   20   20   20
   21   21   21
   21   21   21
   22   22   22
   1145   1145   1145
   224   224   224
   100   100   100
   118   118   118
   140   140   140
   2387   2387   2387
   1693   1693   1693
   564   564   564
   303   303   303
   325   325   325
   3348   3348   3348
   2996   2996   2996
   1660   1660   1660
   982   982   982
   712   712   712
   3455   3455   3455
   3453   3453   3453
   3188   3188   3188
   1946   1946   1946
   1472   1472   1472
   659   659   659
   557   557   557
   231   231   231
   230   230   230
   236   236   236
   1709   1709   1709
   1277   1277   1277
   496   496   496
   491   491   491
   498   498   498
   2941   2941   2941
   2890   2890   2890
   1347   1347   1347
   1135   1135   1135
   995   995   995
   3604   3604   3604
   3566   3566   3566
   2878   2878   2878
   1745   1745   1745
   1529   1529   1529
   3704   3704   3704
   3686   3686   3686
   3652   3652   3652
   2939   2939   2939
   2261   2261   2261
   1553   1553   1553
   1627   1627   1627
   1419   1419   1419
   722   722   722
   661   661   661
   1983   1983   1983
   1934   1934   1934
   1326   1326   1326
   971   971   971
   917   917   917
   3259   3259   3259
   3442   3442   3442
   2638   2638   2638
   1432   1432   1432
   1214   1214   1214
   3828   3828   3828
   3827   3827   3827
   3786   3786   3786
   2553   2553   2553
   2326   2326   2326
   3881   3881   3881
   3885   3885   3885
   3872   3872   3872
   3703   3703   3703
   2998   2998   2998
   2471   2471   2471
   2556   2556   2556
   2564   2564   2564
   2414   2414   2414
   1630   1630   1630
   2649   2649   2649
   2767   2767   2767
   2839   2839   2839
   2618   2618   2618
   1554   1554   1554
   3515   3515   3515
   3320   3320   3320
   3169   3169   3169
   2789   2789   2789
   1707   1707   1707
   3890   3890   3890
   3936   3936   3936
   3968   3968   3968
   3608   3608   3608
   3071   3071   3071
   3988   3988   3988
   3994   3994   3994
   3997   3997   3997
   3989   3989   3989
   3561   3561   3561
   3211   3211   3211
   3259   3259   3259
   3263   3263   3263
   3271   3271   3271
   3251   3251   3251
   3229   3229   3229
   3343   3343   3343
   3390   3390   3390
   3402   3402   3402
   3397   3397   3397
   3549   3549   3549
   3508   3508   3508
   3557   3557   3557
   3615   3615   3615
   3622   3622   3622
   3943   3943   3943
   3947   3947   3947
   3926   3926   3926
   3774   3774   3774
   3788   3788   3788
   4027   4027   4027
   4041   4041   4041
   4043   4043   4043
   4043   4043   4043
   3961   3961   3961
