Resources/LUT/Hughes.3dl
# 17x17x17 .3dl lookup table from LUT Buddy
0 128 256 384 512 640 768 896 1023
   0   0   0
   0   4   7
   0   17   28
   0   47   79
   0   106   177
   0   178   297
   0   249   416
   0   320   533
   0   390   651
   0   160   267
   0   177   296
   0   220   366
   0   275   459
   0   339   566
   0   406   677
   0   470   784
   0   533   888
   0   594   991
   0   492   821
   0   507   845
   0   543   906
   0   590   984
   0   644   1075
   0   701   1170
   0   758   1264
   0   812   1354
   0   867   1446
   0   871   1453
   0   885   1475
   0   915   1526
   0   956   1595
   0   1004   1674
   0   1053   1757
   0   1101   1837
   0   1147   1914
   0   1191   1987
   0   1259   2100
   0   1268   2115
   0   1291   2153
   0   1321   2202
   0   1353   2256
   0   1387   2313
   0   1419   2365
   0   1450   2418
   0   1480   2468
   0   1564   2608
   0   1570   2617
   0   1585   2643
   0   1605   2676
   0   1627   2713
   0   1649   2750
   0   1670   2786
   7   1694   2819
   15   1718   2853
   0   1791   2986
   0   1797   2996
   0   1807   3013
   3   1821   3034
   13   1840   3059
   21   1857   3081
   31   1874   3104
   41   1891   3126
   54   1908   3145
   18   1973   3277
   24   1979   3283
   31   1987   3292
   39   1997   3304
   49   2010   3318
   62   2023   3331
   80   2037   3343
   102   2052   3355
   129   2070   3366
   59   2107   3475
   69   2113   3477
   82   2121   3481
   98   2131   3489
   117   2142   3495
   148   2159   3501
   189   2180   3507
   235   2200   3511
   285   2221   3515
   136   0   0
   137   7   7
   140   27   27
   142   77   77
   145   164   176
   149   238   298
   153   311   416
   157   383   533
   162   455   651
   148   219   267
   152   238   295
   156   281   365
   160   338   458
   165   404   564
   170   473   675
   175   539   782
   182   603   885
   189   669   989
   167   559   821
   172   575   845
   178   615   906
   184   664   984
   191   721   1075
   199   781   1169
   207   839   1262
   216   898   1353
   226   956   1443
   192   948   1452
   200   964   1473
   208   998   1525
   217   1042   1593
   228   1094   1672
   238   1148   1756
   250   1201   1836
   263   1252   1911
   277   1302   1984
   226   1348   2096
   237   1362   2113
   249   1389   2151
   261   1425   2201
   275   1463   2256
   290   1503   2312
   307   1541   2364
   325   1578   2414
   344   1616   2464
   271   1670   2604
   286   1683   2614
   302   1704   2641
   319   1732   2674
   338   1762   2711
   359   1791   2746
   382   1821   2782
   407   1852   2816
   434   1882   2849
   329   1920   2982
   350   1935   2993
   372   1954   3010
   396   1976   3031
   422   2001   3056
   451   2027   3079
   482   2051   3100
   515   2078   3122
   552   2104   3140
   406   2127   3275
   435   2140   3279
   464   2158   3289
   497   2178   3301
   533   2201   3315
   572   2224   3327
   613   2249   3340
   659   2273   3351
   707   2298   3362
   509   2284   3470
   547   2301   3473
   588   2321   3479
   633   2342   3485
   681   2366   3491
   732   2390   3497
   787   2415   3502
   848   2443   3507
   913   2469   3510
   681   0   0
   683   7   7
   686   28   28
   690   78   78
   694   177   177
   698   298   298
   703   417   417
   709   534   534
   716   650   650
   696   267   267
   700   295   295
   706   365   365
   711   458   458
   718   564   564
   725   674   674
   733   766   781
   741   827   884
   751   892   986
   720   780   821
   727   798   846
   735   837   906
   743   887   984
   752   945   1074
   762   1006   1169
   774   1066   1262
   786   1125   1352
   799   1184   1442
   751   1171   1452
   762   1188   1473
   772   1224   1526
   785   1270   1594
   798   1323   1674
   812   1378   1756
   827   1432   1836
   844   1483   1910
   861   1534   1983
   793   1573   2094
   807   1590   2112
   823   1620   2152
   838   1655   2200
   856   1696   2256
   876   1736   2311
   896   1776   2364
   919   1815   2414
   943   1853   2461
   847   1899   2600
   866   1915   2615
   886   1939   2641
   908   1967   2674
   932   1998   2709
   957   2030   2746
   986   2062   2781
   1015   2094   2814
   1047   2125   2846
   917   2153   2980
   941   2169   2990
   969   2191   3008
   997   2216   3029
   1029   2243   3053
   1062   2270   3075
   1098   2297   3098
   1137   2325   3118
   1180   2353   3137
   1005   2365   3272
   1038   2382   3277
   1074   2400   3285
   1112   2423   3298
   1152   2447   3312
   1198   2473   3324
   1246   2499   3337
   1298   2526   3347
   1354   2556   3357
   1120   2527   3467
   1164   2547   3471
   1211   2568   3477
   1262   2594   3483
   1316   2619   3489
   1376   2646   3493
   1439   2674   3498
   1508   2703   3502
   1580   2735   3506
   1298   1   1
   1300   8   8
   1304   29   29
   1308   80   80
   1312   180   180
   1317   301   301
   1324   419   419
   1329   536   536
   1337   651   651
   1314   268   268
   1318   297   297
   1325   367   367
   1331   459   459
   1338   565   565
   1347   675   675
   1354   781   781
   1365   884   884
   1375   985   985
   1336   822   822
   1346   847   847
   1353   908   908
   1363   987   987
   1374   1076   1076
   1386   1171   1171
   1398   1263   1263
   1412   1353   1354
   1428   1440   1443
   1370   1429   1453
   1381   1446   1475
   1394   1474   1529
   1407   1521   1597
   1422   1573   1675
   1438   1630   1758
   1456   1684   1837
   1475   1736   1911
   1495   1787   1983
   1414   1822   2095
   1429   1840   2114
   1445   1870   2154
   1464   1906   2202
   1484   1948   2258
   1506   1989   2311
   1530   2029   2364
   1554   2069   2414
   1582   2109   2462
   1469   2147   2600
   1489   2163   2614
   1513   2188   2641
   1537   2218   2674
   1565   2250   2710
   1593   2284   2747
   1625   2316   2780
   1658   2349   2812
   1694   2383   2845
   1542   2403   2978
   1569   2421   2989
   1599   2443   3008
   1632   2469   3029
   1668   2498   3054
   1705   2527   3076
   1747   2555   3096
   1789   2584   3117
   1834   2614   3135
   1635   2615   3271
   1672   2634   3277
   1712   2655   3285
   1754   2679   3298
   1800   2705   3311
   1846   2731   3323
   1897   2757   3333
   1949   2784   3343
   2006   2814   3353
   1756   2781   3464
   1805   2803   3469
   1853   2825   3475
   1906   2849   3479
   1962   2875   3486
   2020   2901   3491
   2081   2928   3495
   2143   2955   3498
   2208   2983   3501
   1939   2   2
   1942   9   9
   1945   31   31
   1948   83   83
   1955   183   183
   1958   303   303
   1965   421   421
   1971   537   537
   1977   652   652
   1953   272   272
   1958   300   300
   1965   370   370
   1971   462   462
   1977   568   568
   1985   677   677
   1993   783   783
   2003   885   885
   2014   986   986
   1973   826   826
   1981   851   851
   1989   912   912
   2000   992   992
   2008   1081   1081
   2019   1174   1174
   2032   1266   1266
   2045   1356   1356
   2061   1445   1445
   2003   1457   1457
   2012   1481   1481
   2024   1533   1533
   2036   1601   1601
   2050   1681   1681
   2066   1762   1762
   2081   1840   1840
   2098   1913   1913
   2117   1985   1985
   2039   2089   2099
   2054   2107   2118
   2069   2137   2158
   2086   2170   2208
   2103   2198   2261
   2123   2238   2315
   2146   2277   2365
   2169   2315   2415
   2190   2352   2462
   2086   2395   2603
   2105   2411   2617
   2125   2436   2645
   2146   2465   2677
   2171   2495   2713
   2195   2527   2749
   2222   2557   2782
   2252   2588   2814
   2281   2618   2844
   2144   2645   2980
   2170   2662   2992
   2194   2682   3009
   2223   2707   3031
   2253   2733   3054
   2286   2760   3077
   2320   2786   3098
   2355   2811   3117
   2391   2835   3133
   2220   2849   3270
   2251   2866   3277
   2284   2884   3285
   2319   2906   3298
   2356   2927   3310
   2396   2950   3321
   2435   2972   3331
   2479   2996   3342
   2523   3019   3351
   2315   3003   3465
   2353   3021   3467
   2396   3041   3473
   2438   3062   3478
   2483   3082   3483
   2530   3104   3487
   2578   3125   3491
   2631   3148   3495
   2685   3171   3497
   2473   3   3
   2476   11   11
   2477   33   33
   2481   87   87
   2484   188   188
   2488   307   307
   2493   424   424
   2497   540   540
   2503   655   655
   2481   275   275
   2486   304   304
   2489   374   374
   2495   466   466
   2500   571   571
   2505   680   680
   2513   786   786
   2521   888   888
   2529   988   988
   2495   830   830
   2501   857   857
   2507   918   918
   2515   998   998
   2523   1086   1086
   2531   1180   1180
   2541   1271   1271
   2552   1360   1360
   2563   1448   1448
   2514   1463   1463
   2522   1487   1487
   2531   1540   1540
   2541   1610   1610
   2552   1688   1688
   2565   1769   1769
   2579   1845   1845
   2591   1919   1919
   2607   1989   1989
   2539   2103   2103
   2550   2125   2125
   2562   2165   2165
   2576   2213   2213
   2592   2266   2266
   2607   2320   2320
   2624   2371   2371
   2642   2419   2419
   2663   2465   2465
   2571   2601   2605
   2587   2617   2622
   2604   2642   2650
   2622   2670   2683
   2640   2696   2717
   2661   2722   2752
   2682   2748   2786
   2706   2772   2816
   2731   2799   2847
   2614   2835   2984
   2634   2850   2996
   2655   2868   3013
   2678   2891   3034
   2702   2914   3058
   2727   2938   3079
   2755   2959   3098
   2783   2982   3117
   2813   3004   3133
   2668   3029   3271
   2694   3043   3278
   2721   3060   3287
   2750   3078   3299
   2780   3097   3311
   2808   3116   3321
   2844   3135   3331
   2879   3155   3340
   2914   3174   3349
   2740   3174   3464
   2771   3188   3467
   2804   3204   3472
   2839   3221   3477
   2875   3238   3482
   2913   3257   3485
   2953   3274   3489
   2996   3292   3491
   3038   3311   3493
   2881   5   5
   2884   12   12
   2886   36   36
   2888   92   92
   2890   194   194
   2893   312   312
   2896   430   430
   2900   543   543
   2906   656   656
   2887   281   281
   2890   310   310
   2892   380   380
   2896   472   472
   2900   576   576
   2906   686   686
   2912   790   790
   2918   891   891
   2925   991   991
   2894   839   839
   2898   866   866
   2903   927   927
   2910   1006   1006
   2917   1095   1095
   2924   1186   1186
   2932   1278   1278
   2939   1366   1366
   2949   1454   1454
   2907   1470   1470
   2914   1498   1498
   2921   1551   1551
   2929   1620   1620
   2937   1698   1698
   2946   1778   1778
   2957   1854   1854
   2969   1926   1926
   2982   1996   1996
   2923   2112   2112
   2932   2136   2136
   2941   2174   2174
   2953   2222   2222
   2964   2276   2276
   2978   2330   2330
   2990   2379   2379
   3005   2425   2425
   3021   2472   2472
   2943   2613   2613
   2957   2630   2630
   2969   2657   2657
   2984   2689   2689
   2998   2725   2725
   3016   2759   2759
   3032   2790   2790
   3050   2822   2822
   3069   2850   2850
   2974   2986   2988
   2990   2998   3000
   3006   3017   3019
   3024   3038   3040
   3043   3058   3062
   3063   3080   3084
   3084   3098   3102
   3104   3118   3121
   3129   3134   3135
   3011   3168   3275
   3031   3180   3281
   3052   3194   3291
   3073   3210   3302
   3098   3226   3313
   3121   3242   3323
   3145   3257   3333
   3172   3273   3340
   3199   3287   3348
   3060   3303   3465
   3086   3315   3469
   3110   3327   3473
   3135   3340   3477
   3164   3353   3481
   3194   3368   3485
   3226   3381   3487
   3258   3394   3487
   3290   3408   3487
   3189   7   7
   3191   14   14
   3193   39   39
   3194   97   97
   3196   201   201
   3197   319   319
   3200   435   435
   3204   548   548
   3206   660   660
   3191   289   289
   3193   318   318
   3195   388   388
   3197   479   479
   3201   584   584
   3205   692   692
   3208   796   796
   3213   896   896
   3219   994   994
   3194   849   849
   3197   877   877
   3201   939   939
   3205   1017   1017
   3210   1105   1105
   3215   1198   1198
   3221   1287   1287
   3228   1376   1376
   3235   1462   1462
   3200   1484   1484
   3205   1511   1511
   3210   1565   1565
   3217   1634   1634
   3222   1711   1711
   3230   1790   1790
   3238   1865   1865
   3246   1937   1937
   3255   2005   2005
   3208   2124   2124
   3216   2147   2147
   3222   2186   2186
   3230   2237   2237
   3238   2289   2289
   3249   2341   2341
   3258   2390   2390
   3270   2435   2435
   3280   2480   2480
   3220   2625   2625
   3230   2641   2641
   3239   2668   2668
   3250   2700   2700
   3259   2736   2736
   3273   2770   2770
   3284   2801   2801
   3296   2830   2830
   3310   2857   2857
   3238   2998   2998
   3249   3010   3010
   3261   3028   3028
   3274   3049   3049
   3287   3070   3070
   3302   3090   3090
   3316   3108   3108
   3332   3125   3125
   3348   3139   3139
   3259   3277   3281
   3274   3283   3285
   3288   3294   3296
   3305   3306   3307
   3322   3318   3318
   3340   3327   3327
   3358   3335   3335
   3377   3342   3342
   3397   3348   3348
   3288   3395   3467
   3308   3405   3471
   3326   3415   3475
   3347   3426   3479
   3368   3435   3481
   3389   3445   3483
   3410   3453   3483
   3434   3463   3483
   3459   3476   3481
   3405   10   10
   3405   17   17
   3405   43   43
   3407   104   104
   3409   209   209
   3409   326   326
   3412   441   441
   3413   554   554
   3415   664   664
   3403   298   298
   3405   328   328
   3405   398   398
   3409   489   489
   3410   593   593
   3413   701   701
   3415   803   803
   3419   903   903
   3423   1000   1000
   3403   863   863
   3405   891   891
   3409   953   953
   3411   1031   1031
   3414   1119   1119
   3418   1211   1211
   3423   1300   1300
   3426   1386   1386
   3431   1472   1472
   3405   1501   1501
   3409   1529   1529
   3413   1582   1582
   3415   1652   1652
   3420   1728   1728
   3425   1808   1808
   3431   1881   1881
   3436   1951   1951
   3443   2018   2018
   3408   2141   2141
   3412   2165   2165
   3416   2205   2205
   3423   2252   2252
   3428   2304   2304
   3434   2355   2355
   3441   2403   2403
   3449   2450   2450
   3456   2491   2491
   3413   2642   2642
   3418   2656   2656
   3425   2682   2682
   3432   2714   2714
   3439   2748   2748
   3447   2781   2781
   3456   2811   2811
   3464   2841   2841
   3474   2867   2867
   3420   3013   3013
   3428   3021   3021
   3435   3040   3040
   3445   3060   3060
   3454   3080   3080
   3464   3100   3100
   3474   3117   3117
   3485   3131   3131
   3496   3147   3147
   3431   3289   3289
   3440   3295   3295
   3451   3304   3304
   3463   3314   3314
   3474   3324   3324
   3485   3332   3332
   3498   3339   3339
   3510   3346   3346
   3524   3350   3350
   3447   3467   3473
   3459   3471   3475
   3473   3475   3477
   3487   3481   3481
   3500   3482   3482
   3515   3481   3481
   3532   3480   3480
   3552   3475   3475
   3573   3467   3467
