Resources/LUT/Hughes.3dl
# 17x17x17 .3dl lookup table from LUT Buddy
   0   64   128   192   256   320   384   448   512   576   640   704   768   832   896   960   1023
   0   0   0
   0   0   0
   0   4   7
   0   9   15
   0   17   28
   0   29   48
   0   47   79
   0   72   121
   0   106   177
   0   142   237
   0   178   297
   0   213   356
   0   249   416
   0   285   475
   0   320   533
   0   355   592
   0   390   651
   0   44   74
   0   44   74
   0   57   96
   0   73   122
   0   96   160
   0   123   205
   0   153   256
   0   186   310
   0   220   367
   0   255   425
   0   290   483
   0   324   540
   0   358   597
   0   391   653
   0   424   708
   0   457   762
   0   490   817
   0   160   267
   0   160   267
   0   177   296
   0   196   327
   0   220   366
   0   246   410
   0   275   459
   0   306   511
   0   339   566
   0   373   622
   0   406   677
   0   438   731
   0   470   784
   0   501   836
   0   533   888
   0   563   939
   0   594   991
   0   316   528
   0   316   528
   0   333   555
   0   350   585
   0   373   622
   0   397   663
   0   425   708
   0   453   757
   0   484   807
   0   514   858
   0   545   909
   0   575   959
   0   605   1009
   0   634   1057
   0   662   1105
   0   692   1154
   0   721   1202
   0   492   821
   0   492   821
   0   507   845
   0   523   873
   0   543   906
   0   566   944
   0   590   984
   0   617   1029
   0   644   1075
   0   673   1123
   0   701   1170
   0   729   1217
   0   758   1264
   0   785   1310
   0   812   1354
   0   840   1400
   0   867   1446
   0   678   1131
   0   677   1130
   0   691   1153
   0   706   1177
   0   724   1208
   0   745   1243
   0   768   1281
   0   793   1322
   0   819   1366
   0   846   1410
   0   872   1455
   0   898   1498
   0   925   1542
   0   951   1585
   0   976   1628
   0   1002   1672
   0   1028   1714
   0   871   1453
   0   871   1453
   0   885   1475
   0   898   1498
   0   915   1526
   0   934   1558
   0   956   1595
   0   980   1634
   0   1004   1674
   0   1029   1716
   0   1053   1757
   0   1077   1797
   0   1101   1837
   0   1125   1877
   0   1147   1914
   0   1170   1951
   0   1191   1987
   0   1072   1787
   0   1072   1788
   0   1083   1806
   0   1097   1829
   0   1112   1854
   0   1128   1882
   0   1148   1914
   0   1168   1948
   0   1189   1983
   0   1209   2016
   0   1230   2051
   0   1249   2084
   0   1268   2114
   0   1287   2146
   0   1305   2177
   0   1324   2208
   0   1342   2237
   0   1259   2100
   0   1259   2100
   0   1268   2115
   0   1279   2133
   0   1291   2153
   0   1305   2176
   0   1321   2202
   0   1336   2228
   0   1353   2256
   0   1372   2287
   0   1387   2313
   0   1403   2340
   0   1419   2365
   0   1435   2392
   0   1450   2418
   0   1466   2444
   0   1480   2468
   0   1422   2372
   0   1424   2375
   0   1431   2387
   0   1439   2399
   0   1449   2416
   0   1461   2437
   0   1474   2457
   0   1486   2479
   0   1500   2501
   0   1514   2526
   0   1526   2545
   0   1540   2567
   0   1553   2590
   0   1565   2610
   0   1577   2631
   0   1589   2650
   0   1602   2671
   0   1564   2608
   0   1564   2607
   0   1570   2617
   0   1577   2630
   0   1585   2643
   0   1595   2660
   0   1605   2676
   0   1616   2695
   0   1627   2713
   0   1638   2731
   0   1649   2750
   0   1660   2768
   0   1670   2786
   2   1682   2803
   7   1694   2819
   11   1706   2836
   15   1718   2853
   0   1684   2808
   0   1685   2810
   0   1690   2818
   0   1696   2828
   0   1703   2839
   0   1711   2852
   0   1719   2866
   0   1728   2881
   0   1737   2896
   1   1746   2911
   5   1757   2926
   10   1769   2942
   14   1779   2956
   18   1788   2969
   23   1799   2984
   27   1807   2996
   32   1819   3011
   0   1791   2986
   0   1793   2990
   0   1797   2996
   0   1801   3003
   0   1807   3013
   1   1814   3023
   3   1821   3034
   9   1830   3046
   13   1840   3059
   17   1849   3071
   21   1857   3081
   26   1866   3093
   31   1874   3104
   36   1882   3114
   41   1891   3126
   48   1900   3135
   54   1908   3145
   0   1885   3142
   4   1889   3146
   8   1892   3150
   11   1897   3156
   14   1902   3162
   17   1908   3170
   20   1915   3179
   24   1922   3188
   29   1930   3198
   34   1937   3207
   39   1945   3216
   45   1952   3224
   51   1960   3233
   58   1968   3241
   66   1976   3249
   74   1984   3259
   84   1991   3265
   18   1973   3277
   21   1975   3279
   24   1979   3283
   27   1983   3287
   31   1987   3292
   35   1992   3298
   39   1997   3304
   43   2004   3312
   49   2010   3318
   55   2016   3325
   62   2023   3331
   70   2031   3339
   80   2037   3343
   90   2046   3350
   102   2052   3355
   115   2062   3362
   129   2070   3366
   35   2045   3387
   39   2048   3389
   44   2050   3391
   48   2054   3395
   52   2058   3398
   57   2064   3404
   63   2066   3405
   68   2072   3410
   75   2077   3416
   85   2085   3420
   96   2092   3425
   108   2100   3429
   123   2107   3433
   139   2117   3439
   158   2127   3441
   178   2139   3447
   200   2149   3450
   59   2107   3475
   64   2109   3475
   69   2113   3477
   76   2117   3479
   82   2121   3481
   90   2125   3485
   98   2131   3489
   107   2136   3491
   117   2142   3495
   131   2150   3498
   148   2159   3501
   168   2169   3504
   189   2180   3507
   212   2190   3509
   235   2200   3511
   259   2211   3513
   285   2221   3515
   7   0   0
   8   0   0
   9   7   7
   9   13   15
   10   20   27
   10   33   48
   11   51   78
   11   76   120
   12   110   175
   13   147   237
   13   184   297
   14   220   357
   15   256   417
   15   291   475
   16   326   533
   17   362   592
   18   397   650
   10   49   74
   11   49   74
   11   62   95
   12   78   121
   13   100   159
   13   128   204
   14   158   255
   15   191   309
   15   226   366
   16   261   424
   17   296   482
   17   330   539
   18   365   596
   19   399   652
   20   432   706
   21   464   760
   22   497   815
   13   165   267
   14   166   267
   14   183   295
   15   202   327
   16   225   366
   17   252   410
   17   282   458
   18   313   511
   19   346   565
   20   380   621
   21   413   675
   22   446   730
   23   478   782
   24   510   834
   25   542   887
   26   573   938
   27   604   989
   16   323   528
   17   323   527
   18   340   554
   18   358   585
   19   380   621
   20   406   663
   21   433   708
   22   463   756
   23   493   806
   24   524   857
   25   555   908
   27   586   959
   28   616   1008
   30   646   1057
   31   675   1104
   33   704   1152
   34   734   1201
   20   500   821
   21   501   821
   22   515   845
   23   532   872
   24   553   906
   25   576   943
   26   601   984
   27   628   1028
   29   656   1075
   30   685   1122
   32   714   1170
   33   743   1216
   35   771   1262
   37   800   1309
   39   827   1353
   41   855   1399
   42   884   1445
   24   687   1130
   25   687   1129
   26   701   1152
   28   717   1177
   29   736   1208
   31   757   1242
   32   781   1281
   34   807   1322
   35   833   1365
   37   861   1410
   39   888   1454
   41   915   1497
   43   942   1541
   45   968   1584
   48   995   1627
   50   1022   1670
   52   1047   1711
   30   883   1453
   31   883   1452
   32   897   1473
   34   912   1497
   36   929   1525
   38   950   1558
   39   972   1594
   41   996   1633
   43   1021   1673
   45   1047   1715
   48   1073   1756
   50   1098   1797
   53   1123   1837
   55   1146   1874
   58   1170   1912
   61   1193   1950
   64   1216   1985
   36   1087   1787
   38   1087   1787
   39   1099   1807
   41   1112   1827
   43   1130   1855
   46   1146   1881
   48   1166   1913
   50   1188   1947
   53   1209   1982
   55   1230   2015
   58   1253   2050
   61   1273   2082
   64   1293   2113
   68   1314   2146
   71   1334   2176
   76   1353   2206
   80   1373   2235
   43   1275   2097
   45   1277   2099
   48   1287   2114
   50   1300   2133
   52   1312   2152
   55   1326   2175
   58   1343   2201
   61   1361   2229
   64   1379   2257
   67   1396   2284
   71   1415   2311
   75   1433   2339
   79   1450   2365
   84   1468   2392
   89   1485   2416
   95   1502   2441
   100   1519   2466
   52   1443   2371
   55   1445   2373
   57   1453   2385
   60   1464   2401
   63   1475   2416
   67   1487   2435
   70   1501   2455
   74   1516   2477
   78   1531   2501
   83   1547   2524
   88   1562   2545
   93   1577   2566
   99   1591   2588
   105   1607   2609
   112   1622   2630
   120   1637   2650
   128   1652   2669
   63   1586   2604
   66   1591   2608
   69   1597   2616
   73   1605   2628
   77   1615   2642
   82   1627   2658
   87   1639   2675
   92   1652   2693
   98   1666   2711
   104   1679   2730
   111   1692   2748
   118   1706   2766
   126   1720   2784
   134   1733   2801
   144   1747   2817
   154   1762   2834
   165   1776   2851
   76   1713   2806
   80   1718   2810
   85   1723   2816
   90   1732   2827
   96   1741   2839
   102   1751   2851
   108   1761   2865
   115   1773   2879
   123   1786   2895
   131   1799   2911
   140   1810   2924
   150   1823   2939
   161   1836   2953
   173   1849   2967
   185   1862   2982
   197   1875   2995
   210   1888   3007
   93   1827   2984
   99   1831   2988
   105   1838   2994
   112   1845   3002
   119   1853   3010
   128   1864   3022
   137   1873   3033
   146   1884   3045
   157   1896   3056
   168   1908   3069
   180   1920   3081
   192   1931   3091
   205   1943   3102
   219   1955   3114
   233   1967   3124
   248   1978   3132
   264   1991   3143
   115   1930   3140
   123   1934   3142
   132   1941   3148
   141   1948   3154
   152   1957   3161
   163   1966   3169
   174   1976   3177
   187   1986   3187
   199   1997   3196
   213   2008   3205
   227   2019   3214
   242   2029   3222
   257   2041   3231
   273   2053   3239
   291   2063   3247
   308   2075   3255
   327   2088   3262
   146   2023   3275
   156   2028   3277
   168   2035   3281
   180   2042   3285
   193   2050   3290
   206   2059   3296
   220   2068   3302
   234   2078   3310
   250   2089   3316
   265   2099   3323
   282   2110   3329
   300   2120   3335
   318   2131   3341
   338   2143   3348
   357   2153   3353
   378   2165   3358
   401   2178   3364
   185   2103   3385
   198   2111   3387
   211   2117   3389
   226   2125   3392
   241   2133   3396
   256   2142   3401
   273   2150   3405
   290   2161   3410
   309   2171   3414
   327   2182   3419
   348   2192   3423
   368   2203   3428
   390   2215   3433
   413   2226   3437
   436   2237   3441
   461   2251   3445
   487   2263   3448
   231   2174   3471
   247   2182   3473
   263   2189   3475
   280   2197   3477
   297   2205   3479
   316   2215   3483
   336   2225   3487
   356   2235   3489
   378   2246   3493
   401   2256   3495
   424   2268   3499
   449   2280   3502
   474   2291   3504
   502   2304   3507
   529   2316   3509
   558   2329   3511
   589   2343   3513
   136   0   0
   136   0   0
   137   7   7
   139   15   15
   140   27   27
   141   47   47
   142   77   77
   144   119   120
   145   164   176
   147   201   237
   149   238   298
   151   275   357
   153   311   416
   155   347   476
   157   383   533
   159   419   593
   162   455   651
   141   74   74
   142   74   74
   144   95   95
   145   121   121
   147   154   158
   149   182   204
   150   213   254
   152   246   308
   154   281   365
   156   316   423
   158   352   480
   161   387   538
   163   422   595
   166   456   650
   168   490   705
   171   524   760
   174   557   813
   148   219   267
   150   220   266
   152   238   295
   154   257   326
   156   281   365
   158   309   409
   160   338   458
   162   370   509
   165   404   564
   167   438   619
   170   473   675
   173   506   729
   175   539   782
   179   572   834
   182   603   885
   185   636   937
   189   669   989
   157   379   527
   159   380   527
   161   397   554
   164   416   584
   166   439   621
   169   464   662
   171   493   707
   174   523   756
   177   554   806
   180   586   857
   183   618   908
   186   649   958
   190   680   1007
   194   711   1056
   198   741   1104
   202   772   1152
   206   802   1200
   167   559   821
   170   560   821
   172   575   845
   175   593   872
   178   615   906
   181   638   943
   184   664   984
   187   692   1028
   191   721   1075
   195   751   1122
   199   781   1169
   203   810   1216
   207   839   1262
   212   869   1308
   216   898   1353
   221   927   1398
   226   956   1443
   179   748   1127
   182   749   1127
   185   765   1152
   189   781   1176
   192   800   1206
   196   824   1243
   199   848   1281
   204   874   1321
   208   902   1365
   212   930   1409
   217   959   1454
   222   987   1497
   227   1015   1541
   232   1042   1583
   238   1070   1626
   244   1099   1670
   250   1126   1711
   192   948   1452
   196   949   1452
   200   964   1473
   204   980   1497
   208   998   1525
   213   1019   1557
   217   1042   1593
   222   1068   1633
   228   1094   1672
   232   1121   1714
   238   1148   1756
   244   1175   1796
   250   1201   1836
   257   1226   1874
   263   1252   1911
   270   1276   1948
   277   1302   1984
   208   1153   1785
   212   1157   1787
   217   1169   1805
   222   1185   1827
   227   1202   1852
   232   1222   1882
   238   1243   1914
   244   1265   1946
   250   1288   1981
   256   1311   2015
   262   1333   2049
   269   1357   2082
   276   1378   2112
   284   1399   2144
   292   1421   2174
   300   1442   2204
   309   1464   2235
   226   1348   2096
   232   1351   2098
   237   1362   2113
   243   1376   2132
   249   1389   2151
   255   1407   2176
   261   1425   2201
   268   1443   2227
   275   1463   2256
   283   1483   2285
   290   1503   2312
   299   1522   2338
   307   1541   2364
   316   1560   2390
   325   1578   2414
   334   1597   2439
   344   1616   2464
   247   1520   2369
   253   1524   2371
   260   1535   2385
   266   1545   2398
   273   1557   2415
   281   1572   2433
   288   1587   2455
   297   1604   2477
   305   1621   2500
   313   1638   2522
   323   1654   2543
   332   1672   2565
   342   1688   2587
   352   1705   2607
   363   1721   2628
   374   1739   2649
   386   1754   2667
   271   1670   2604
   278   1674   2606
   286   1683   2614
   293   1693   2627
   302   1704   2641
   310   1718   2657
   319   1732   2674
   329   1746   2692
   338   1762   2711
   349   1777   2730
   359   1791   2746
   371   1807   2765
   382   1821   2782
   394   1837   2801
   407   1852   2816
   419   1866   2832
   434   1882   2849
   298   1802   2806
   307   1808   2810
   315   1816   2817
   325   1826   2827
   334   1836   2837
   344   1847   2850
   355   1860   2864
   366   1873   2879
   377   1887   2894
   389   1901   2909
   402   1915   2924
   415   1928   2938
   429   1943   2953
   442   1956   2966
   457   1970   2980
   473   1984   2993
   489   1998   3005
   329   1920   2982
   339   1927   2986
   350   1935   2993
   361   1944   3000
   372   1954   3010
   383   1965   3020
   396   1976   3031
   408   1989   3044
   422   2001   3056
   436   2015   3068
   451   2027   3079
   465   2040   3091
   482   2051   3100
   498   2065   3112
   515   2078   3122
   533   2090   3130
   552   2104   3140
   365   2028   3138
   377   2036   3142
   389   2043   3146
   401   2050   3152
   414   2060   3160
   429   2071   3168
   443   2081   3176
   458   2094   3185
   473   2105   3194
   490   2117   3204
   507   2129   3212
   524   2142   3222
   542   2153   3229
   563   2167   3237
   582   2179   3245
   603   2192   3253
   625   2205   3260
   406   2127   3275
   419   2132   3277
   435   2140   3279
   449   2150   3284
   464   2158   3289
   480   2168   3294
   497   2178   3301
   514   2190   3308
   533   2201   3315
   552   2212   3321
   572   2224   3327
   592   2236   3333
   613   2249   3340
   636   2261   3345
   659   2273   3351
   683   2286   3356
   707   2298   3362
   454   2211   3383
   470   2217   3385
   486   2225   3387
   503   2234   3391
   521   2244   3396
   540   2254   3399
   560   2266   3405
   580   2276   3407
   601   2287   3412
   623   2298   3417
   647   2310   3421
   670   2322   3425
   695   2334   3429
   721   2347   3433
   747   2359   3437
   775   2373   3439
   802   2387   3446
   509   2284   3470
   528   2293   3471
   547   2301   3473
   567   2311   3475
   588   2321   3479
   609   2331   3480
   633   2342   3485
   655   2353   3487
   681   2366   3491
   706   2377   3492
   732   2390   3497
   759   2403   3500
   787   2415   3502
   818   2429   3505
   848   2443   3507
   879   2456   3509
   913   2469   3510
   389   0   0
   391   0   0
   392   7   7
   393   15   15
   394   27   27
   396   47   47
   398   78   78
   400   121   121
   402   176   176
   404   238   238
   406   298   298
   408   358   358
   411   412   417
   413   450   475
   416   487   534
   419   522   592
   421   559   651
   396   74   74
   398   74   74
   400   94   94
   402   121   121
   403   158   158
   406   203   203
   408   254   254
   410   308   308
   411   364   364
   415   418   422
   418   455   480
   420   490   537
   423   525   594
   427   560   649
   430   594   704
   433   628   759
