Resources/LUT/Hughes.3dl
# 17x17x17 .3dl lookup table from LUT Buddy
0 256 512 768 1023
   0   0   0
   0   17   28
   0   106   177
   0   249   416
   0   390   651
   0   492   821
   0   543   906
   0   644   1075
   0   758   1264
   0   867   1446
   0   1259   2100
   0   1291   2153
   0   1353   2256
   0   1419   2365
   0   1480   2468
   0   1791   2986
   0   1807   3013
   13   1840   3059
   31   1874   3104
   54   1908   3145
   59   2107   3475
   82   2121   3481
   117   2142   3495
   189   2180   3507
   285   2221   3515
   681   0   0
   686   28   28
   694   177   177
   703   417   417
   716   650   650
   720   780   821
   735   837   906
   752   945   1074
   774   1066   1262
   799   1184   1442
   793   1573   2094
   823   1620   2152
   856   1696   2256
   896   1776   2364
   943   1853   2461
   917   2153   2980
   969   2191   3008
   1029   2243   3053
   1098   2297   3098
   1180   2353   3137
   1120   2527   3467
   1211   2568   3477
   1316   2619   3489
   1439   2674   3498
   1580   2735   3506
   1939   2   2
   1945   31   31
   1955   183   183
   1965   421   421
   1977   652   652
   1973   826   826
   1989   912   912
   2008   1081   1081
   2032   1266   1266
   2061   1445   1445
   2039   2089   2099
   2069   2137   2158
   2103   2198   2261
   2146   2277   2365
   2190   2352   2462
   2144   2645   2980
   2194   2682   3009
   2253   2733   3054
   2320   2786   3098
   2391   2835   3133
   2315   3003   3465
   2396   3041   3473
   2483   3082   3483
   2578   3125   3491
   2685   3171   3497
   2881   5   5
   2886   36   36
   2890   194   194
   2896   430   430
   2906   656   656
   2894   839   839
   2903   927   927
   2917   1095   1095
   2932   1278   1278
   2949   1454   1454
   2923   2112   2112
   2941   2174   2174
   2964   2276   2276
   2990   2379   2379
   3021   2472   2472
   2974   2986   2988
   3006   3017   3019
   3043   3058   3062
   3084   3098   3102
   3129   3134   3135
   3060   3303   3465
   3110   3327   3473
   3164   3353   3481
   3226   3381   3487
   3290   3408   3487
   3405   10   10
   3405   43   43
   3409   209   209
   3412   441   441
   3415   664   664
   3403   863   863
   3409   953   953
   3414   1119   1119
   3423   1300   1300
   3431   1472   1472
   3408   2141   2141
   3416   2205   2205
   3428   2304   2304
   3441   2403   2403
   3456   2491   2491
   3420   3013   3013
   3435   3040   3040
   3454   3080   3080
   3474   3117   3117
   3496   3147   3147
   3447   3467   3473
   3473   3475   3477
   3500   3482   3482
   3532   3480   3480
   3573   3467   3467
