Resources/LUT/Jake.3dl
# 17x17x17 .3dl lookup table from LUT Buddy
0 128 256 384 512 640 768 896 1023
   0   0   0
   0   0   552
   0   0   1509
   0   0   2419
   13   13   3153
   42   42   3612
   84   84   3793
   108   110   3903
   127   130   3976
   0   298   0
   0   297   482
   0   297   1376
   8   304   2255
   29   319   2984
   63   345   3503
   95   370   3744
   113   386   3876
   131   400   3958
   9   669   9
   12   670   438
   23   673   1235
   44   681   2057
   73   694   2758
   94   709   3328
   110   723   3672
   126   736   3828
   141   750   3925
   74   1140   74
   77   1142   439
   85   1151   1121
   96   1162   1872
   109   1175   2547
   123   1189   3106
   136   1203   3515
   149   1215   3739
   161   1228   3865
   128   1753   128
   131   1755   460
   137   1762   1054
   146   1773   1724
   160   1785   2341
   178   1798   2859
   197   1811   3275
   216   1823   3583
   234   1835   3761
   248   2396   248
   251   2393   545
   260   2392   1071
   272   2392   1679
   288   2393   2257
   305   2394   2764
   322   2395   3190
   351   2396   3529
   384   2397   3747
   392   2900   392
   397   2896   741
   406   2894   1295
   425   2891   1892
   457   2890   2457
   487   2890   2943
   516   2888   3343
   546   2887   3645
   577   2887   3800
   610   3382   589
   625   3376   1038
   644   3372   1604
   668   3370   2179
   696   3364   2712
   727   3362   3163
   759   3355   3513
   793   3352   3730
   829   3346   3856
   918   3753   993
   933   3748   1455
   955   3743   1996
   982   3738   2535
   1012   3734   3019
   1047   3729   3405
   1086   3725   3671
   1124   3719   3809
   1165   3713   3909
   118   0   0
   117   0   523
   116   0   1468
   122   0   2376
   140   15   3112
   174   45   3592
   220   88   3780
   246   113   3896
   267   133   3971
   128   299   0
   131   298   469
   136   299   1350
   150   307   2223
   177   324   2950
   217   350   3476
   250   374   3733
   271   389   3868
   290   404   3952
   167   673   12
   174   673   436
   191   678   1222
   217   686   2033
   249   700   2731
   272   715   3302
   292   729   3658
   311   742   3819
   330   755   3919
   263   1148   79
   270   1151   446
   283   1159   1120
   299   1171   1861
   317   1184   2527
   335   1197   3080
   353   1211   3488
   370   1224   3724
   388   1237   3855
   346   1765   134
   354   1767   475
   366   1775   1063
   381   1786   1724
   401   1799   2328
   423   1812   2836
   447   1824   3246
   470   1837   3554
   495   1849   3743
   469   2398   257
   480   2395   573
   494   2394   1106
   513   2394   1712
   533   2395   2286
   556   2397   2789
   581   2398   3211
   606   2400   3543
   634   2400   3751
   609   2901   403
   623   2897   783
   642   2895   1343
   665   2893   1938
   692   2893   2497
   721   2890   2974
   751   2889   3365
   783   2888   3657
   818   2887   3805
   815   3381   651
   833   3374   1095
   857   3371   1665
   886   3365   2237
   919   3362   2760
   955   3360   3200
   992   3354   3539
   1030   3351   3742
   1070   3344   3864
   1105   3750   1048
   1127   3745   1528
   1157   3740   2072
   1193   3736   2604
   1233   3731   3077
   1274   3726   3447
   1316   3721   3689
   1359   3715   3820
   1404   3709   3915
   387   0   0
   388   0   496
   389   0   1420
   394   3   2315
   409   22   3052
   433   54   3558
   463   96   3762
   485   120   3885
   504   139   3963
   411   301   0
   414   302   455
   419   305   1314
   431   315   2175
   451   334   2894
   479   362   3426
   502   382   3715
   521   397   3855
   541   411   3944
   459   681   21
   465   682   435
   478   688   1199
   498   698   1992
   520   713   2690
   540   727   3261
   559   741   3634
   579   753   3801
   598   766   3907
   547   1165   89
   555   1169   455
   568   1177   1114
   584   1189   1838
   603   1202   2492
   622   1215   3034
   642   1229   3447
   661   1243   3705
   682   1257   3840
   645   1789   146
   654   1791   490
   669   1799   1069
   687   1810   1713
   709   1823   2302
   734   1835   2798
   759   1848   3198
   786   1861   3507
   813   1872   3719
   768   2404   274
   780   2403   609
   796   2402   1148
   816   2402   1752
   839   2403   2323
   863   2403   2818
   890   2405   3234
   918   2406   3559
   948   2407   3758
   896   2906   420
   913   2902   833
   935   2901   1400
   961   2899   1991
   990   2897   2541
   1021   2897   3012
   1055   2895   3392
   1090   2893   3670
   1127   2891   3813
   1090   3384   709
   1112   3379   1167
   1139   3373   1736
   1172   3370   2303
   1209   3367   2815
   1247   3361   3243
   1287   3357   3570
   1330   3351   3754
   1373   3345   3870
   1364   3749   1125
   1390   3745   1618
   1424   3740   2160
   1462   3735   2682
   1502   3731   3139
   1544   3725   3491
   1588   3719   3710
   1633   3712   3833
   1680   3706   3923
   669   0   0
   670   0   471
   672   1   1366
   677   11   2249
   690   34   2979
   710   70   3500
   736   108   3740
   758   129   3871
   780   149   3954
   703   308   0
   706   310   442
   713   316   1272
   724   329   2115
   741   351   2824
   765   378   3368
   788   394   3689
   811   409   3839
   834   421   3933
   764   695   36
   771   697   438
   784   704   1173
   802   717   1949
   825   730   2640
   848   744   3206
   871   757   3601
   895   769   3778
   919   781   3892
   871   1191   103
   881   1194   465
   898   1202   1104
   917   1213   1807
   939   1228   2448
   962   1242   2986
   986   1257   3403
   1009   1271   3679
   1035   1285   3818
   1000   1822   165
   1012   1824   509
   1030   1832   1072
   1053   1843   1695
   1079   1855   2264
   1106   1868   2744
   1134   1879   3144
   1160   1887   3470
   1185   1892   3712
   1118   2415   297
   1132   2414   651
   1150   2413   1198
   1171   2413   1798
   1195   2415   2364
   1221   2416   2852
   1249   2417   3261
   1279   2419   3580
   1310   2420   3766
   1234   2916   446
   1253   2914   893
   1277   2911   1465
   1305   2908   2050
   1335   2908   2592
   1368   2907   3054
   1401   2906   3422
   1438   2904   3684
   1476   2902   3821
   1409   3392   775
   1432   3386   1250
   1462   3381   1817
   1495   3376   2376
   1532   3374   2877
   1569   3367   3290
   1609   3364   3601
   1652   3356   3766
   1694   3351   3878
   1648   3751   1217
   1677   3746   1721
   1711   3741   2260
   1749   3736   2770
   1790   3731   3208
   1833   3725   3540
   1877   3719   3731
   1923   3712   3847
   1971   3704   3930
   987   0   0
   988   2   449
   991   9   1309
   998   25   2172
   1011   52   2893
   1031   94   3423
   1056   123   3711
   1081   143   3855
   1107   161   3942
   1034   320   8
   1038   323   432
   1046   333   1229
   1058   349   2046
   1075   375   2741
   1100   395   3305
   1127   410   3659
   1154   423   3818
   1181   436   3917
   1112   715   62
   1120   719   447
   1135   729   1148
   1157   740   1904
   1183   753   2582
   1211   766   3141
   1238   779   3542
   1267   791   3749
   1296   802   3869
   1251   1223   121
   1263   1227   477
   1282   1236   1095
   1303   1248   1781
   1328   1263   2407
   1355   1277   2934
   1382   1292   3348
   1411   1306   3643
   1440   1321   3790
   1406   1862   196
   1422   1865   533
   1442   1873   1073
   1467   1884   1669
   1489   1892   2233
   1512   1899   2718
   1533   1903   3143
   1555   1908   3484
   1578   1912   3720
   1497   2431   325
   1512   2430   701
   1530   2430   1254
   1551   2430   1850
   1573   2431   2408
   1598   2434   2892
   1625   2435   3290
   1653   2436   3601
   1682   2439   3775
   1590   2931   514
   1610   2928   962
   1634   2926   1536
   1660   2924   2116
   1689   2923   2647
   1720   2923   3099
   1753   2922   3454
   1787   2920   3698
   1824   2918   3828
   1734   3403   850
   1759   3398   1343
   1788   3392   1906
   1821   3390   2456
   1856   3384   2943
   1893   3380   3339
   1932   3373   3632
   1973   3369   3780
   2016   3361   3885
   1939   3755   1326
   1969   3750   1836
   2004   3744   2369
   2043   3740   2864
   2083   3735   3279
   2125   3728   3590
   2169   3721   3751
   2216   3713   3860
   2263   3704   3938
   1347   10   2
   1350   14   432
   1355   26   1252
   1362   47   2087
   1376   82   2795
   1397   121   3345
   1426   141   3678
   1454   160   3832
   1484   177   3927
   1406   341   26
   1411   346   429
   1419   359   1183
   1432   380   1971
   1454   401   2662
   1483   416   3233
   1513   429   3617
   1542   442   3788
   1572   454   3898
   1501   745   95
   1512   749   458
   1531   757   1125
   1556   768   1856
   1584   780   2514
   1614   793   3061
   1644   806   3466
   1675   817   3710
   1704   829   3842
   1660   1266   144
   1672   1269   491
   1691   1279   1088
   1715   1291   1751
   1741   1305   2357
   1768   1321   2868
   1796   1336   3274
   1825   1351   3575
   1855   1366   3751
   1820   1906   234
   1833   1908   564
   1848   1912   1090
   1863   1916   1689
   1878   1919   2256
   1896   1923   2752
   1914   1927   3170
   1934   1932   3504
   1957   1936   3729
   1867   2452   358
   1881   2451   757
   1897   2451   1316
   1917   2452   1905
   1938   2454   2458
   1962   2457   2931
   1987   2459   3319
   2013   2461   3621
   2041   2462   3782
   1938   2951   585
   1957   2948   1038
   1979   2947   1615
   2005   2945   2187
   2033   2945   2706
   2062   2944   3145
   2093   2943   3488
   2126   2942   3712
   2162   2939   3837
   2053   3419   938
   2078   3413   1446
   2105   3408   2003
   2138   3403   2541
   2173   3399   3013
   2210   3395   3389
   2247   3388   3657
   2286   3381   3795
   2329   3375   3893
   2226   3761   1448
   2258   3755   1962
   2292   3750   2487
   2330   3745   2964
   2369   3738   3353
   2410   3732   3632
   2453   3724   3774
   2497   3716   3873
   2544   3706   3946
   1728   32   19
   1731   38   422
   1737   55   1195
   1744   85   1998
   1759   124   2692
   1788   147   3263
   1817   165   3637
   1848   181   3801
   1878   196   3907
   1790   374   59
   1794   380   435
   1804   397   1142
   1824   413   1903
   1852   426   2585
   1883   440   3148
   1914   453   3552
   1946   464   3753
   1977   475   3872
   1909   779   120
   1920   782   466
   1941   791   1101
   1966   801   1802
   1996   813   2437
   2025   826   2973
   2053   839   3391
   2082   852   3672
   2111   864   3812
   2072   1316   169
   2085   1320   505
   2104   1329   1077
   2126   1341   1714
   2153   1357   2295
   2180   1372   2784
   2208   1388   3180
   2237   1404   3484
   2267   1419   3699
   2196   1937   271
   2207   1937   608
   2218   1940   1141
   2231   1943   1736
   2245   1948   2297
   2261   1952   2788
   2279   1957   3200
   2297   1962   3526
   2317   1967   3737
   2220   2477   401
   2234   2477   819
   2250   2478   1382
   2267   2481   1965
   2287   2481   2509
   2309   2485   2973
   2331   2488   3353
   2357   2490   3642
   2384   2492   3790
   2270   2976   670
   2288   2973   1125
   2308   2971   1697
   2333   2971   2261
   2359   2971   2768
   2387   2970   3194
   2416   2969   3523
   2448   2968   3727
   2482   2965   3844
   2360   3438   1039
   2383   3433   1557
   2410   3428   2110
   2440   3424   2632
   2474   3420   3087
   2507   3414   3441
   2543   3407   3681
   2580   3400   3808
   2619   3393   3900
   2500   3768   1587
   2531   3763   2104
   2564   3757   2613
   2600   3751   3072
   2638   3744   3431
   2678   3736   3669
   2718   3728   3795
   2760   3718   3886
   2806   3706   3953
   2109   73   55
   2112   82   424
   2117   107   1142
   2130   138   1912
   2159   158   2602
   2191   175   3172
   2221   191   3575
   2254   205   3764
   2286   219   3881
   2177   418   109
   2185   423   448
   2205   432   1109
   2231   443   1840
   2260   455   2501
   2293   468   3050
   2325   479   3460
   2357   490   3706
   2388   500   3839
   2323   818   149
   2334   822   474
   2354   830   1077
   2377   842   1752
   2403   854   2373
   2431   867   2897
   2459   879   3311
   2487   894   3616
   2513   911   3771
   2479   1373   198
   2492   1377   521
   2511   1388   1064
   2533   1401   1667
   2557   1417   2218
   2582   1433   2690
   2598   1444   3100
   2611   1453   3441
   2624   1461   3694
   2544   1969   309
   2553   1970   657
   2562   1972   1195
   2574   1977   1786
   2586   1982   2341
   2600   1988   2824
   2616   1993   3228
   2633   2000   3545
   2651   2005   3744
   2550   2511   505
   2562   2509   887
   2576   2510   1452
   2592   2514   2029
   2610   2516   2562
   2630   2519   3018
   2652   2522   3384
   2673   2525   3657
   2698   2528   3798
   2580   3007   779
   2596   3004   1220
   2615   3002   1788
   2637   3003   2340
   2661   3002   2835
   2686   3002   3243
   2713   3001   3558
   2741   3000   3740
   2773   2997   3853
   2643   3463   1182
   2664   3457   1679
   2690   3452   2223
   2719   3448   2730
   2748   3443   3163
   2780   3437   3497
   2814   3430   3704
   2849   3423   3821
   2885   3414   3907
   2754   3777   1743
   2783   3770   2259
   2814   3765   2754
   2849   3758   3186
   2884   3752   3513
   2921   3742   3706
   2961   3732   3818
   3001   3720   3899
   3046   3707   3960
   2489   142   114
   2496   149   438
   2512   162   1102
   2539   176   1841
   2567   191   2509
   2598   206   3066
   2630   220   3480
   2661   233   3717
   2693   245   3846
   2586   454   142
   2595   458   454
   2615   466   1075
   2641   476   1772
   2670   487   2407
   2699   499   2946
   2726   510   3368
   2754   521   3659
   2781   532   3802
   2722   865   178
   2733   869   485
   2751   877   1059
   2773   888   1705
   2798   900   2300
   2824   916   2804
   2849   932   3208
   2873   949   3515
   2901   966   3716
   2869   1440   247
   2879   1445   547
   2890   1453   1060
   2899   1461   1646
   2906   1469   2208
   2914   1478   2704
   2923   1487   3123
   2933   1496   3460
   2945   1505   3703
   2862   2008   359
   2869   2008   712
   2878   2012   1254
   2887   2017   1838
   2898   2023   2386
   2911   2030   2862
   2924   2036   3257
   2939   2043   3566
   2955   2050   3751
   2851   2549   604
   2863   2548   960
   2874   2549   1526
   2889   2552   2094
   2905   2556   2616
   2923   2560   3063
   2941   2563   3415
   2961   2566   3670
   2984   2570   3804
   2862   3046   912
   2876   3040   1322
   2894   3039   1882
   2913   3039   2423
   2935   3040   2903
   2958   3039   3295
   2983   3039   3591
   3009   3036   3754
   3036   3035   3861
   2902   3493   1371
   2921   3484   1811
   2944   3479   2346
   2971   3476   2834
   2997   3470   3245
   3028   3465   3553
   3059   3455   3728
   3093   3448   3836
   3125   3437   3915
   2986   3788   1967
   3010   3779   2434
   3042   3773   2909
   3072   3766   3307
   3106   3758   3598
   3140   3747   3744
   3177   3734   3845
   3216   3717   3916
   3259   3694   3968
