Resources/LUT/Jake.3dl
# 17x17x17 .3dl lookup table from LUT Buddy
   0   64   128   192   256   320   384   448   512   576   640   704   768   832   896   960   1023
   0   0   0
   0   0   34
   0   0   552
   0   0   1011
   0   0   1509
   0   0   1982
   0   0   2419
   4   4   2809
   13   13   3153
   26   26   3426
   42   42   3612
   61   61   3715
   84   84   3793
   98   99   3854
   108   110   3903
   118   120   3942
   127   130   3976
   0   131   0
   0   131   0
   0   130   513
   0   128   955
   0   128   1440
   0   130   1905
   2   134   2336
   9   141   2726
   19   152   3072
   33   167   3354
   50   186   3570
   70   207   3683
   88   224   3770
   101   236   3837
   110   246   3891
   119   254   3932
   128   262   3966
   0   298   0
   0   298   0
   0   297   482
   0   297   905
   0   297   1376
   2   299   1830
   8   304   2255
   17   310   2641
   29   319   2984
   44   331   3276
   63   345   3503
   82   360   3648
   95   370   3744
   104   378   3819
   113   386   3876
   122   393   3921
   131   400   3958
   0   477   0
   0   477   0
   0   477   456
   3   477   858
   6   478   1307
   12   481   1749
   21   485   2162
   32   491   2539
   46   499   2877
   64   509   3173
   81   519   3415
   93   527   3606
   101   534   3712
   110   541   3793
   118   548   3856
   127   554   3904
   135   561   3943
   9   669   9
   9   669   9
   12   670   438
   17   671   815
   23   673   1235
   32   676   1659
   44   681   2057
   58   687   2422
   73   694   2758
   85   702   3065
   94   709   3328
   102   716   3540
   110   723   3672
   118   730   3759
   126   736   3828
   134   743   3881
   141   750   3925
   36   889   36
   35   888   35
   41   889   432
   48   891   780
   57   894   1168
   67   898   1570
   76   904   1952
   84   911   2317
   92   918   2654
   99   925   2961
   107   932   3226
   114   938   3444
   122   945   3616
   129   952   3714
   136   958   3790
   143   965   3852
   150   971   3901
   74   1140   74
   74   1140   74
   77   1142   439
   81   1146   758
   85   1151   1121
   91   1156   1504
   96   1162   1872
   103   1168   2223
   109   1175   2547
   116   1182   2843
   123   1189   3106
   130   1196   3329
   136   1203   3515
   143   1208   3653
   149   1215   3739
   155   1221   3807
   161   1228   3865
   99   1434   99
   99   1433   112
   102   1436   445
   105   1439   742
   109   1443   1079
   114   1449   1438
   119   1454   1786
   125   1460   2120
   131   1468   2434
   137   1475   2721
   143   1482   2980
   149   1490   3208
   155   1496   3401
   161   1503   3569
   169   1510   3682
   178   1517   3759
   188   1523   3822
   128   1753   128
   129   1752   180
   131   1755   460
   134   1758   739
   137   1762   1054
   141   1768   1393
   146   1773   1724
   153   1780   2042
   160   1785   2341
   169   1793   2614
   178   1798   2859
   188   1805   3080
   197   1811   3275
   206   1817   3439
   216   1823   3583
   225   1829   3689
   234   1835   3761
   177   2087   177
   177   2086   248
   181   2086   488
   185   2090   745
   191   2093   1035
   198   2097   1346
   205   2102   1653
   213   2108   1945
   222   2112   2222
   231   2119   2479
   239   2123   2715
   248   2128   2932
   256   2131   3130
   265   2133   3310
   273   2134   3474
   282   2134   3619
   291   2136   3719
   248   2396   248
   249   2394   334
   251   2393   545
   255   2392   791
   260   2392   1071
   266   2391   1376
   272   2392   1679
   280   2393   1972
   288   2393   2257
   296   2394   2523
   305   2394   2764
   313   2394   2987
   322   2395   3190
   333   2396   3372
   351   2396   3529
   368   2398   3664
   384   2397   3747
   316   2650   316
   317   2648   426
   320   2647   633
   324   2647   886
   329   2646   1173
   335   2646   1477
   342   2646   1778
   350   2645   2069
   358   2645   2350
   369   2645   2610
   383   2645   2849
   401   2645   3070
   417   2646   3265
   433   2646   3436
   448   2645   3589
   463   2646   3698
   477   2646   3773
   392   2900   392
   393   2898   527
   397   2896   741
   401   2894   1001
   406   2894   1295
   414   2893   1595
   425   2891   1892
   441   2891   2182
   457   2890   2457
   472   2891   2710
   487   2890   2943
   502   2891   3156
   516   2888   3343
   532   2888   3504
   546   2887   3645
   562   2887   3731
   577   2887   3800
   481   3149   480
   488   3146   650
   498   3145   875
   507   3143   1144
   517   3140   1438
   529   3138   1734
   541   3137   2026
   554   3136   2310
   569   3135   2577
   584   3134   2823
   598   3132   3049
   614   3131   3250
   629   3129   3424
   644   3129   3579
   660   3126   3689
   676   3124   3765
   693   3123   3828
   610   3382   589
   617   3381   803
   625   3376   1038
   634   3375   1314
   644   3372   1604
   656   3372   1894
   668   3370   2179
   681   3366   2455
   696   3364   2712
   711   3363   2949
   727   3362   3163
   743   3360   3350
   759   3355   3513
   776   3354   3647
   793   3352   3730
   810   3351   3797
   829   3346   3856
   755   3590   788
   760   3589   986
   768   3585   1233
   778   3581   1507
   789   3578   1790
   800   3576   2074
   813   3573   2351
   827   3571   2613
   842   3570   2861
   859   3568   3085
   876   3565   3282
   893   3562   3455
   911   3557   3604
   929   3554   3698
   947   3553   3770
   967   3549   3831
   986   3546   3882
   918   3753   993
   924   3750   1205
   933   3748   1455
   943   3747   1722
   955   3743   1996
   967   3742   2272
   982   3738   2535
   997   3737   2786
   1012   3734   3019
   1028   3734   3227
   1047   3729   3405
   1066   3728   3561
   1086   3725   3671
   1104   3723   3747
   1124   3719   3809
   1145   3718   3863
   1165   3713   3909
   9   0   0
   10   0   0
   9   0   538
   9   0   994
   9   0   1492
   10   0   1965
   14   0   2403
   20   4   2795
   30   13   3138
   44   26   3414
   61   42   3605
   82   62   3710
   106   85   3789
   123   100   3850
   135   111   3900
   146   121   3940
   157   131   3973
   12   131   0
   13   131   0
   13   130   504
   13   128   943
   15   129   1427
   17   130   1892
   23   134   2324
   31   142   2712
   42   153   3058
   57   168   3343
   76   186   3561
   98   207   3679
   118   225   3765
   132   237   3835
   144   246   3887
   155   254   3930
   166   263   3965
   16   298   0
   17   298   0
   18   297   476
   20   297   898
   23   298   1366
   28   300   1820
   35   304   2244
   45   311   2629
   59   320   2972
   76   332   3264
   96   346   3494
   118   361   3643
   133   371   3740
   144   379   3815
   156   387   3872
   167   394   3918
   177   401   3956
   25   477   0
   26   477   0
   29   477   453
   32   477   853
   37   479   1300
   45   482   1740
   55   486   2152
   68   492   2529
   84   500   2866
   105   510   3162
   124   520   3407
   138   529   3600
   150   536   3708
   161   543   3789
   172   549   3852
   183   556   3902
   193   562   3943
   43   670   10
   44   669   10
   48   670   437
   55   672   812
   62   674   1231
   74   677   1653
   87   682   2047
   105   688   2414
   123   696   2748
   137   704   3056
   149   711   3319
   160   718   3531
   171   725   3667
   181   732   3754
   192   738   3825
   202   745   3879
   211   751   3923
   78   890   37
   79   889   37
   87   891   434
   96   892   780
   109   896   1166
   121   901   1566
   133   906   1949
   144   913   2312
   154   920   2647
   166   927   2951
   176   934   3217
   186   941   3434
   196   948   3609
   206   954   3709
   215   961   3785
   224   967   3848
   233   973   3897
   129   1142   76
   131   1141   76
   137   1145   442
   143   1148   761
   151   1153   1122
   159   1159   1502
   168   1165   1869
   178   1172   2217
   188   1178   2539
   197   1186   2834
   207   1192   3096
   216   1199   3319
   225   1206   3503
   234   1212   3646
   242   1218   3731
   251   1224   3801
   260   1231   3860
   170   1437   101
   172   1437   129
   178   1439   450
   184   1442   746
   191   1446   1081
   198   1452   1439
   206   1458   1786
   214   1465   2117
   223   1472   2430
   232   1479   2715
   240   1487   2974
   249   1494   3200
   257   1501   3394
   267   1508   3558
   277   1515   3676
   289   1522   3752
   302   1528   3816
   212   1757   130
   215   1757   192
   220   1759   467
   225   1763   745
   232   1767   1059
   238   1772   1396
   246   1778   1726
   255   1785   2039
   265   1791   2337
   277   1798   2607
   288   1804   2850
   300   1810   3069
   312   1817   3261
   324   1823   3427
   336   1829   3570
   348   1835   3680
   361   1842   3753
   269   2092   181
   273   2090   261
   279   2092   497
   286   2095   753
   294   2098   1041
   304   2103   1350
   314   2108   1654
   325   2112   1943
   336   2119   2217
   347   2124   2478
   358   2127   2713
   370   2131   2929
   381   2133   3132
   393   2135   3317
   404   2134   3480
   416   2136   3624
   429   2137   3723
   343   2396   252
   347   2394   348
   352   2394   558
   359   2393   806
   367   2393   1087
   375   2393   1392
   385   2393   1694
   395   2392   1988
   406   2394   2272
   417   2394   2536
   429   2395   2777
   441   2396   2999
   452   2396   3200
   465   2396   3379
   477   2398   3535
   490   2397   3668
   503   2398   3749
   413   2651   320
   418   2649   440
   424   2647   650
   431   2647   904
   439   2647   1193
   449   2646   1497
   459   2646   1797
   470   2646   2088
   482   2645   2367
   494   2645   2626
   506   2646   2863
   519   2646   3080
   532   2646   3274
   545   2646   3445
   559   2646   3595
   574   2646   3701
   588   2646   3776
   493   2900   397
   498   2898   543
   504   2896   761
   513   2895   1024
   522   2893   1318
   532   2893   1619
   543   2892   1915
   555   2892   2203
   568   2891   2476
   582   2891   2727
   596   2890   2958
   610   2889   3168
   624   2888   3353
   639   2888   3515
   654   2887   3651
   670   2887   3735
   687   2886   3803
   587   3148   485
   593   3145   669
   601   3144   898
   610   3141   1170
   621   3140   1464
   632   3138   1760
   645   3136   2051
   659   3135   2333
   673   3135   2598
   688   3133   2842
   703   3131   3066
   719   3130   3264
   735   3129   3436
   751   3127   3588
   768   3124   3694
   785   3123   3768
   803   3123   3830
   702   3381   622
   708   3379   825
   717   3375   1064
   727   3373   1343
   739   3372   1632
   752   3370   1922
   766   3366   2207
   782   3365   2480
   798   3363   2735
   814   3362   2969
   831   3361   3180
   848   3355   3365
   866   3355   3524
   884   3354   3655
   902   3351   3735
   921   3346   3803
   941   3345   3860
   837   3589   810
   845   3586   1012
   855   3581   1264
   866   3578   1539
   879   3576   1821
   894   3573   2104
   910   3571   2380
   926   3570   2642
   944   3568   2885
   962   3565   3107
   980   3563   3302
   999   3557   3470
   1018   3554   3616
   1037   3553   3706
   1057   3549   3776
   1078   3546   3835
   1099   3544   3886
   995   3750   1016
   1003   3748   1235
   1014   3745   1488
   1028   3743   1757
   1042   3742   2032
   1059   3738   2305
   1076   3737   2569
   1094   3735   2817
   1114   3734   3047
   1133   3730   3249
   1152   3729   3424
   1172   3726   3578
   1193   3723   3681
   1214   3720   3754
   1234   3718   3814
   1257   3713   3868
   1280   3711   3912
   118   0   0
   118   0   0
   117   0   523
   116   0   974
   116   0   1468
   117   0   1938
   122   0   2376
   129   6   2767
   140   15   3112
   155   29   3391
   174   45   3592
   197   65   3700
   220   88   3780
   235   103   3846
   246   113   3896
   257   123   3937
   267   133   3971
   122   131   0
   122   131   0
   122   130   492
   123   129   927
   124   129   1407
   128   132   1870
   133   136   2299
   143   144   2688
   155   156   3034
   173   171   3321
   193   190   3544
   215   211   3668
   233   228   3758
   247   239   3829
   257   248   3883
   267   257   3927
   277   265   3961
   128   299   0
   129   298   0
   131   298   469
   133   298   885
   136   299   1350
   142   302   1801
   150   307   2223
   162   314   2607
   177   324   2950
   196   336   3242
   217   350   3476
   236   364   3633
   250   374   3733
   260   382   3810
   271   389   3868
   281   396   3914
   290   404   3952
   141   479   0
   143   479   0
   146   479   448
   151   480   844
   157   482   1287
   165   485   1724
   177   489   2133
   192   496   2509
   210   504   2846
   230   514   3141
   246   524   3390
   258   532   3590
   269   539   3700
   279   545   3782
   289   552   3847
   298   559   3897
   308   565   3939
   167   673   12
   168   673   12
   174   673   436
   181   675   806
   191   678   1222
   203   681   1640
   217   686   2033
   234   693   2397
   249   700   2731
   262   708   3040
   272   715   3302
   282   722   3517
   292   729   3658
   302   735   3747
   311   742   3819
   321   748   3874
   330   755   3919
   211   893   42
   213   893   42
   221   894   436
   230   897   778
   241   900   1161
   252   905   1558
   262   911   1938
   272   918   2300
   282   925   2632
   292   932   2936
   301   939   3201
   311   946   3419
   320   953   3598
   329   959   3701
   338   965   3778
   347   972   3841
   356   978   3891
   263   1148   79
   265   1148   79
   270   1151   446
   276   1155   762
   283   1159   1120
   291   1164   1497
   299   1171   1861
   308   1177   2207
   317   1184   2527
   326   1191   2819
   335   1197   3080
   344   1204   3302
   353   1211   3488
   362   1217   3635
   370   1224   3724
   379   1231   3795
   388   1237   3855
   304   1443   104
   306   1442   146
   311   1445   456
   317   1449   749
   324   1454   1082
   331   1459   1438
   339   1465   1782
   347   1472   2112
   355   1479   2423
   364   1487   2706
   372   1494   2961
   381   1502   3188
   389   1509   3381
   400   1515   3545
   411   1522   3668
   422   1529   3746
   434   1537   3810
   346   1765   134
   349   1765   206
   354   1767   475
   360   1771   751
   366   1775   1063
   373   1780   1397
   381   1786   1724
   391   1793   2035
   401   1799   2328
   412   1806   2596
   423   1812   2836
   435   1818   3054
   447   1824   3246
   458   1831   3411
   470   1837   3554
   482   1843   3668
   495   1849   3743
   403   2099   188
   407   2098   276
   413   2100   507
   421   2103   761
   429   2106   1047
   438   2110   1352
   448   2115   1652
   459   2121   1941
   469   2126   2219
   480   2129   2477
   492   2133   2710
   503   2135   2934
   513   2135   3141
   524   2136   3324
   536   2137   3487
   548   2137   3629
   561   2139   3725
   469   2398   257
   474   2395   363
   480   2395   573
   487   2395   822
   494   2394   1106
   503   2394   1410
   513   2394   1712
   522   2394   2004
   533   2395   2286
   545   2396   2549
   556   2397   2789
   568   2398   3010
   581   2398   3211
   593   2398   3388
   606   2400   3543
   620   2400   3671
   634   2400   3751
   533   2652   326
   539   2651   455
   545   2649   667
   553   2648   925
   562   2648   1214
   571   2648   1518
   582   2647   1817
   594   2647   2108
   606   2647   2385
   619   2647   2641
   632   2647   2877
   645   2648   3093
   659   2647   3286
   673   2647   3453
   688   2648   3603
   703   2648   3705
   719   2647   3778
   609   2901   403
   615   2899   561
   623   2897   783
   632   2895   1048
   642   2895   1343
   653   2894   1643
   665   2893   1938
   678   2893   2226
   692   2893   2497
   706   2891   2746
   721   2890   2974
   736   2890   3184
   751   2889   3365
   767   2889   3523
   783   2888   3657
   800   2887   3739
   818   2887   3805
   701   3148   491
   709   3145   691
   718   3144   924
   728   3142   1199
   739   3140   1493
   752   3137   1788
   766   3137   2077
   780   3135   2358
   796   3134   2621
   811   3133   2863
   828   3132   3083
   844   3131   3279
   861   3129   3449
   879   3126   3599
   897   3125   3700
   915   3123   3773
   934   3122   3834
   815   3381   651
   823   3380   851
   833   3374   1095
   844   3372   1376
   857   3371   1665
   871   3370   1953
   886   3365   2237
   903   3364   2507
   919   3362   2760
   937   3361   2992
   955   3360   3200
   973   3355   3382
   992   3354   3539
   1011   3352   3662
   1030   3351   3742
   1050   3345   3807
   1070   3344   3864
   948   3588   836
   957   3586   1044
   968   3580   1299
   981   3578   1575
   995   3575   1858
   1011   3573   2140
   1028   3570   2413
   1046   3570   2671
   1065   3567   2912
   1083   3564   3131
   1103   3561   3322
   1123   3556   3486
   1143   3553   3629
   1163   3552   3713
   1185   3548   3782
   1207   3546   3839
   1230   3541   3889
   1105   3750   1048
   1115   3747   1272
   1127   3745   1528
   1141   3742   1797
   1157   3740   2072
   1175   3737   2344
   1193   3736   2604
   1212   3734   2850
   1233   3731   3077
   1253   3729   3274
   1274   3726   3447
   1294   3723   3594
   1316   3721   3689
   1337   3718   3762
   1359   3715   3820
   1381   3712   3872
   1404   3709   3915
   249   0   0
   250   0   0
   249   0   510
   249   0   955
   249   0   1444
   251   0   1913
   255   1   2348
   262   8   2738
   273   18   3084
   286   32   3367
   302   49   3578
   320   69   3690
   338   91   3772
   351   106   3839
   361   116   3892
   371   126   3933
   381   136   3967
   257   131   0
   258   131   0
   259   130   482
   260   130   912
   261   131   1387
   265   134   1846
   271   139   2274
   279   148   2661
   290   160   3007
   304   176   3297
   321   195   3524
   339   216   3657
   354   231   3749
   365   242   3822
   375   251   3877
   385   260   3922
