Resources/LUT/Jake.3dl
# 17x17x17 .3dl lookup table from LUT Buddy
0 256 512 768 1023
   0   0   0
   0   0   1509
   13   13   3153
   84   84   3793
   127   130   3976
   9   669   9
   23   673   1235
   73   694   2758
   110   723   3672
   141   750   3925
   128   1753   128
   137   1762   1054
   160   1785   2341
   197   1811   3275
   234   1835   3761
   392   2900   392
   406   2894   1295
   457   2890   2457
   516   2888   3343
   577   2887   3800
   918   3753   993
   955   3743   1996
   1012   3734   3019
   1086   3725   3671
   1165   3713   3909
   387   0   0
   389   0   1420
   409   22   3052
   463   96   3762
   504   139   3963
   459   681   21
   478   688   1199
   520   713   2690
   559   741   3634
   598   766   3907
   645   1789   146
   669   1799   1069
   709   1823   2302
   759   1848   3198
   813   1872   3719
   896   2906   420
   935   2901   1400
   990   2897   2541
   1055   2895   3392
   1127   2891   3813
   1364   3749   1125
   1424   3740   2160
   1502   3731   3139
   1588   3719   3710
   1680   3706   3923
   987   0   0
   991   9   1309
   1011   52   2893
   1056   123   3711
   1107   161   3942
   1112   715   62
   1135   729   1148
   1183   753   2582
   1238   779   3542
   1296   802   3869
   1406   1862   196
   1442   1873   1073
   1489   1892   2233
   1533   1903   3143
   1578   1912   3720
   1590   2931   514
   1634   2926   1536
   1689   2923   2647
   1753   2922   3454
   1824   2918   3828
   1939   3755   1326
   2004   3744   2369
   2083   3735   3279
   2169   3721   3751
   2263   3704   3938
   1728   32   19
   1737   55   1195
   1759   124   2692
   1817   165   3637
   1878   196   3907
   1909   779   120
   1941   791   1101
   1996   813   2437
   2053   839   3391
   2111   864   3812
   2196   1937   271
   2218   1940   1141
   2245   1948   2297
   2279   1957   3200
   2317   1967   3737
   2270   2976   670
   2308   2971   1697
   2359   2971   2768
   2416   2969   3523
   2482   2965   3844
   2500   3768   1587
   2564   3757   2613
   2638   3744   3431
   2718   3728   3795
   2806   3706   3953
   2489   142   114
   2512   162   1102
   2567   191   2509
   2630   220   3480
   2693   245   3846
   2722   865   178
   2751   877   1059
   2798   900   2300
   2849   932   3208
   2901   966   3716
   2862   2008   359
   2878   2012   1254
   2898   2023   2386
   2924   2036   3257
   2955   2050   3751
   2862   3046   912
   2894   3039   1882
   2935   3040   2903
   2983   3039   3591
   3036   3035   3861
   2986   3788   1967
   3042   3773   2909
   3106   3758   3598
   3177   3734   3845
   3259   3694   3968
