Resources/LUT/MC.3dl
# 17x17x17 .3dl lookup table from LUT Buddy
   0   64   128   192   256   320   384   448   512   576   640   704   768   832   896   960   1023
   10   11   8
   10   11   4
   14   1   5
   1   3   4
   3   6   78
   5   9   186
   6   13   286
   8   2   383
   9   6   477
   11   11   568
   13   1   654
   0   4   739
   2   10   820
   5   1   899
   7   6   976
   10   12   1053
   12   2   1126
   13   8   6
   13   8   6
   3   13   0
   5   6   11
   6   13   125
   8   6   235
   10   12   339
   13   5   440
   2   12   539
   4   4   635
   6   10   727
   9   2   816
   12   7   901
   1   10   982
   4   4   1064
   7   10   1142
   9   0   1218
   4   1   6
   4   1   6
   6   7   11
   8   9   31
   10   6   151
   12   3   263
   3   8   369
   6   2   473
   7   10   574
   11   9   673
   1   16   768
   5   22   858
   6   28   947
   10   33   1031
   12   39   1114
   10   44   1191
   12   50   1271
   5   91   5
   5   91   5
   9   97   10
   11   100   58
   2   105   177
   5   115   290
   6   125   399
   9   134   506
   9   143   609
   11   152   711
   13   160   808
   17   168   900
   21   175   990
   25   182   1075
   28   189   1159
   32   195   1239
   36   203   1319
   9   236   5
   9   235   5
   8   241   11
   10   245   90
   12   248   208
   13   253   318
   17   264   429
   21   274   539
   25   284   644
   30   294   748
   34   303   847
   38   311   942
   42   320   1032
   46   328   1120
   51   335   1205
   55   343   1288
   58   350   1368
   22   379   4
   22   379   4
   26   386   4
   29   390   123
   31   393   243
   33   396   353
   36   402   461
   40   414   573
   45   426   681
   50   436   787
   55   447   888
   59   457   984
   64   466   1076
   68   475   1164
   72   484   1251
   76   492   1334
   81   501   1415
   43   529   4
   43   529   4
   48   537   25
   50   541   159
   53   545   280
   54   548   392
   56   550   500
   59   557   608
   64   570   718
   70   583   826
   75   595   928
   80   605   1026
   84   616   1119
   89   627   1209
   94   637   1296
   98   647   1381
   102   657   1467
   65   686   4
   65   686   4
   70   695   61
   73   699   198
   75   703   320
   77   707   435
   79   709   545
   81   711   652
   84   718   757
   89   733   866
   95   747   970
   100   759   1070
   105   773   1164
   110   785   1255
   115   796   1344
   119   808   1431
   124   819   1516
   88   853   5
   89   854   11
   93   862   102
   96   868   240
   99   872   363
   101   875   480
   103   879   592
   104   882   701
   106   885   805
   109   891   910
   115   906   1015
   120   922   1115
   125   937   1211
   131   950   1303
   136   966   1393
   140   980   1482
   145   993   1569
   112   1030   6
   114   1033   9
   117   1042   148
   120   1048   286
   123   1051   410
   125   1055   528
   127   1060   643
   129   1063   754
   130   1065   860
   132   1069   961
   134   1074   1060
   140   1092   1161
   146   1109   1258
   151   1127   1352
   156   1142   1444
   161   1159   1534
   167   1176   1625
   135   1218   7
   138   1225   29
   142   1233   197
   145   1239   334
   147   1244   460
   149   1249   581
   151   1252   697
   153   1256   809
   155   1257   917
   156   1261   1021
   158   1262   1118
   160   1266   1211
   165   1287   1308
   182   1312   1407
   216   1348   1513
   250   1383   1616
   279   1418   1722
   160   1420   8
   163   1430   87
   167   1437   250
   169   1445   386
   172   1451   514
   174   1454   637
   176   1459   755
   178   1462   868
   180   1466   979
   189   1472   1086
   213   1488   1191
   244   1507   1294
   270   1524   1393
   297   1560   1498
   321   1595   1603
   343   1629   1707
   364   1664   1815
   184   1643   10
   189   1657   150
   192   1664   307
   195   1673   445
   197   1678   575
   206   1687   699
   221   1700   823
   255   1725   949
   283   1746   1071
   307   1763   1185
   327   1778   1291
   345   1790   1392
   361   1801   1489
   376   1810   1583
   396   1841   1690
   415   1878   1800
   435   1908   1907
   216   1897   2
   243   1930   224
   270   1956   383
   293   1978   527
   314   1994   665
   332   2010   798
   347   2021   927
   363   2035   1051
   381   2048   1172
   397   2058   1286
   413   2070   1395
   427   2078   1497
   440   2084   1596
   453   2091   1694
   466   2098   1789
   484   2124   1896
   505   2157   2007
   340   2196   31
   370   2265   319
   386   2283   478
   401   2297   624
   414   2307   765
   427   2319   901
   440   2327   1033
   451   2334   1160
   465   2345   1283
   479   2350   1398
   493   2358   1509
   506   2365   1616
   520   2373   1722
   534   2377   1821
   548   2383   1919
   563   2390   2010
   583   2408   2115
   451   2554   231
   466   2572   420
   479   2583   579
   491   2592   731
   504   2603   876
   515   2609   1018
   526   2615   1153
   537   2620   1283
   549   2625   1408
   565   2636   1530
   580   2640   1644
   595   2644   1754
   612   2651   1859
   628   2656   1960
   645   2658   2059
   662   2666   2153
   679   2668   2244
   544   2839   353
   558   2849   534
   571   2861   696
   584   2867   854
   596   2876   1005
   610   2881   1153
   622   2885   1292
   635   2890   1428
   647   2892   1555
   664   2896   1676
   681   2902   1794
   701   2907   1903
   720   2911   2008
   739   2913   2109
   759   2920   2210
   779   2922   2301
   801   2925   2393
   14   11   8
   3   11   8
   11   3   3
   1   5   5
   5   9   78
   9   12   186
   4   3   288
   5   6   385
   9   10   480
   1   3   572
   6   8   660
   11   9   747
   10   6   828
   15   11   909
   21   3   986
   27   8   1065
   33   0   1139
   4   11   9
   7   11   9
   13   7   6
   11   13   16
   16   7   131
   21   4   243
   27   7   348
   34   1   450
   40   9   550
   46   2   649
   52   9   744
   59   1   833
   65   8   920
   72   0   1005
   78   6   1087
   85   11   1167
   91   4   1245
   28   7   9
   31   7   10
   37   2   4
   42   7   38
   48   3   160
   54   10   273
   61   7   381
   68   10   487
   75   17   591
   82   24   691
   89   31   789
   97   38   881
   103   45   971
   110   51   1057
   118   59   1141
   125   65   1223
   132   72   1302
   58   99   9
   60   98   9
   69   110   7
   74   114   70
   79   120   189
   87   131   304
   93   141   416
   102   151   524
   109   162   631
   117   171   734
   125   180   833
   133   189   929
   142   198   1020
   150   206   1108
   159   214   1194
   167   222   1278
   176   230   1359
   90   244   9
   92   245   9
   102   259   11
   108   263   105
   113   267   224
   118   273   337
   127   285   450
   136   296   562
   146   308   671
   155   319   777
   164   330   879
   174   339   976
   183   349   1069
   191   358   1158
   200   368   1247
   209   377   1333
   218   386   1416
   123   391   9
   126   391   9
   138   410   12
   145   415   142
   151   418   263
   156   423   375
   163   430   487
   173   443   601
   183   456   713
   194   469   821
   203   481   925
   213   493   1025
   222   504   1120
   232   514   1210
   241   525   1300
   251   536   1388
   260   546   1475
   161   545   10
   164   544   10
   179   568   46
   185   574   183
   191   578   305
   197   582   421
   203   586   531
   210   594   643
   221   610   756
   232   624   866
   242   638   972
   252   652   1074
   262   665   1171
   272   678   1264
   282   690   1356
   292   703   1445
   302   716   1534
   199   705   10
   205   710   7
   220   737   88
   226   742   227
   233   747   351
   239   752   469
   245   756   582
   251   760   692
   258   769   801
   270   786   914
   281   802   1021
   291   819   1124
   302   835   1224
   313   851   1318
   324   866   1412
   335   882   1505
   347   898   1598
   239   877   4
   248   893   8
   262   919   135
   269   925   275
   275   931   401
   282   937   521
   288   942   636
   294   946   748
   300   949   855
   308   959   964
   320   980   1073
   332   1000   1178
   344   1020   1279
   357   1039   1378
   369   1058   1474
   381   1078   1570
   393   1098   1667
   279   1062   7
   293   1093   7
   306   1117   186
   313   1124   326
   320   1131   454
   327   1138   577
   334   1143   694
   341   1149   808
   348   1155   920
   354   1158   1026
   363   1169   1129
   376   1193   1235
   389   1218   1339
   402   1241   1439
   416   1264   1539
   429   1289   1639
   443   1313   1740
   320   1259   10
   340   1310   69
   351   1333   242
   360   1342   381
   367   1351   511
   375   1358   637
   383   1366   758
   390   1373   875
   398   1379   988
   405   1385   1097
   413   1389   1198
   422   1400   1296
   437   1428   1403
   451   1456   1505
   467   1485   1610
   482   1514   1714
   498   1541   1819
   364   1474   4
   389   1551   135
   401   1573   301
   409   1583   442
   418   1594   575
   426   1602   703
   435   1610   827
   444   1619   947
   452   1626   1064
   461   1631   1174
   470   1638   1278
   478   1644   1376
   488   1654   1472
   504   1683   1580
   521   1715   1687
   539   1746   1795
   556   1776   1903
   410   1711   6
   443   1819   207
   454   1837   367
   464   1848   510
   474   1859   647
   483   1868   777
   493   1876   905
   503   1884   1029
   513   1892   1147
   523   1900   1260
   533   1905   1366
   543   1911   1467
   553   1919   1567
   564   1925   1662
   582   1954   1774
   601   1987   1885
   621   2020   1996
   463   1973   10
   503   2104   285
   515   2117   444
   526   2130   590
   538   2141   729
   548   2149   865
   559   2158   997
   570   2164   1124
   582   2175   1246
   593   2179   1361
   604   2183   1471
   616   2194   1577
   628   2195   1679
   640   2202   1780
   653   2208   1877
   672   2232   1984
   696   2263   2095
   531   2285   119
   571   2396   373
   585   2405   533
   597   2418   684
   610   2425   829
   622   2434   968
   635   2445   1106
   649   2451   1236
   662   2457   1361
   674   2463   1481
   688   2470   1595
   702   2474   1705
   715   2480   1809
   729   2484   1911
   745   2488   2009
   760   2491   2103
   783   2510   2205
   617   2613   275
   651   2674   475
   665   2687   639
   680   2697   794
   695   2703   945
   709   2713   1093
   724   2716   1232
   740   2724   1368
   755   2729   1497
   771   2732   1620
   788   2737   1735
   804   2744   1847
   821   2748   1953
   839   2752   2054
   857   2755   2151
   875   2760   2243
   894   2762   2336
   710   2893   398
   742   2938   594
   761   2944   763
   779   2952   926
   796   2961   1085
   814   2966   1235
   833   2971   1379
   852   2976   1519
   871   2982   1650
   891   2985   1775
   911   2988   1892
   932   2994   2002
   952   2995   2106
   974   2997   2206
   998   3000   2299
   1019   3000   2392
   1043   3002   2482
   189   11   8
   190   11   8
   122   12   10
   125   2   2
   129   4   89
   132   8   198
   136   4   300
   141   5   398
   145   11   495
   150   4   589
   155   8   678
   159   2   765
   164   6   846
   169   12   929
   174   3   1008
   179   9   1086
   184   3   1161
   155   8   4
   156   8   4
   199   3   7
   192   13   87
   190   1   207
   191   4   312
   194   7   409
   197   12   500
   202   5   588
   207   10   679
   213   5   776
   220   10   867
   226   4   955
   232   9   1041
   238   3   1125
   245   7   1206
   251   13   1285
   180   8   6
   181   8   6
   210   38   0
   212   39   112
   215   35   243
   219   36   356
   224   39   460
   230   42   560
   237   46   654
   243   52   745
   249   57   832
   256   64   919
   263   71   1010
   270   79   1098
   277   86   1182
   284   94   1264
   291   102   1348
   208   113   8
   209   114   8
   228   188   4
   232   194   124
   236   194   265
   244   193   385
   251   194   495
   259   197   600
   267   202   698
   275   208   793
   283   213   883
   290   219   968
   298   228   1059
   306   236   1149
   314   245   1236
   322   252   1320
   330   261   1404
   237   259   7
   238   259   7
   254   335   4
   259   346   146
   262   349   287
   268   349   415
   278   349   531
   288   352   639
   298   357   742
   308   362   841
   316   367   933
   325   374   1023
   334   381   1109
   343   391   1201
   352   401   1289
   361   410   1377
   369   420   1464
   269   407   7
   270   407   7
   286   485   26
   291   500   177
   295   504   315
   299   508   444
   306   509   567
   318   512   680
   330   515   788
   341   521   890
   352   527   986
   362   534   1078
   372   542   1165
   382   551   1254
   391   563   1345
   401   574   1434
   411   586   1525
   302   562   7
   304   562   7
   322   644   62
   327   662   214
   331   667   350
   336   672   479
   340   676   605
   349   678   723
   362   683   835
   375   688   942
   387   696   1040
   399   704   1135
   411   713   1225
   422   722   1312
   433   735   1403
   444   748   1494
   456   763   1587
   337   723   7
   344   732   7
   362   813   107
   367   834   257
   372   841   391
   377   846   521
   382   853   646
   387   858   769
   396   861   884
   411   868   994
   425   878   1099
   438   888   1194
   451   898   1287
   464   911   1380
   477   923   1468
   489   937   1559
   502   955   1656
   375   899   8
   387   918   5
   405   1002   157
   410   1025   304
   416   1034   440
   422   1042   569
   428   1046   696
   433   1055   819
   439   1062   939
   449   1065   1051
   465   1077   1159
   479   1090   1260
   494   1105   1356
   509   1118   1450
   523   1134   1543
   538   1143   1627
   552   1167   1730
   416   1087   4
   432   1120   27
   452   1215   212
   458   1237   357
   465   1245   493
   470   1254   624
   477   1263   751
   483   1271   876
   490   1279   999
   495   1285   1114
   506   1294   1223
   523   1309   1328
   540   1327   1429
   556   1346   1528
   573   1366   1625
   590   1366   1702
   606   1394   1808
   458   1288   7
   481   1347   92
   501   1449   269
   509   1469   415
   516   1481   553
   524   1492   685
   531   1503   815
   538   1515   943
   545   1524   1066
   552   1533   1186
   559   1543   1298
   569   1548   1401
   588   1571   1507
   606   1590   1612
   626   1600   1705
   646   1599   1781
   664   1630   1892
   504   1507   11
   534   1592   160
   556   1707   333
   564   1723   479
   572   1734   619
   580   1748   754
   588   1762   887
   596   1773   1017
   604   1784   1143
   613   1797   1264
   621   1807   1380
   629   1816   1490
   641   1826   1595
   661   1845   1705
   685   1838   1787
   708   1840   1871
   728   1873   1979
   553   1748   4
   592   1862   233
   615   1976   403
   625   1993   552
   634   2006   694
   643   2019   834
   653   2036   972
   662   2048   1104
   671   2060   1233
   681   2072   1357
   691   2085   1478
   701   2095   1592
   711   2106   1704
   724   2105   1805
   752   2080   1876
   778   2083   1961
   801   2115   2073
   608   2012   17
   660   2154   315
   686   2223   488
   699   2238   638
   711   2251   782
   721   2263   923
   733   2274   1060
   744   2284   1192
   756   2295   1320
   767   2303   1442
   780   2315   1559
   791   2319   1673
   803   2330   1782
   816   2339   1890
   833   2328   1977
   860   2329   2065
   887   2356   2174
   691   2345   180
   739   2453   409
   769   2503   586
   784   2514   740
   797   2523   889
   810   2531   1033
   824   2537   1172
   839   2542   1307
   853   2549   1436
   867   2554   1558
   882   2561   1674
   897   2564   1786
   912   2568   1891
   928   2571   1990
   944   2573   2087
   962   2577   2179
   990   2600   2287
   784   2654   314
   835   2742   522
   866   2775   699
   883   2784   861
   899   2791   1015
   916   2796   1167
   933   2803   1309
   950   2811   1449
   967   2813   1578
   985   2817   1703
   1003   2820   1820
   1023   2826   1931
   1041   2828   2037
   1060   2832   2136
   1082   2833   2232
   1103   2833   2323
   1124   2835   2413
   892   2934   442
   954   3006   656
   985   3029   837
   1005   3033   1005
   1026   3041   1167
   1046   3045   1321
   1068   3050   1467
   1089   3055   1608
   1110   3058   1740
   1133   3060   1864
   1156   3061   1978
   1180   3064   2090
   1204   3066   2191
   1228   3068   2290
   1253   3068   2384
   1277   3072   2473
   1304   3074   2563
   334   12   9
   335   12   9
   223   3   4
   226   6   4
   231   11   95
   236   3   205
   241   9   308
   247   4   408
   252   6   504
   258   7   599
   263   5   689
   269   11   777
   274   3   860
   280   9   942
   285   4   1023
   291   7   1099
   297   2   1176
   323   9   3
   324   10   3
   336   4   2
   321   4   91
   313   7   214
   310   10   319
   310   4   417
   311   7   510
   314   6   599
   319   5   690
   326   8   787
   333   6   880
   340   9   970
   347   5   1055
   354   10   1140
   360   5   1219
