Resources/LUT/MC.3dl
# 17x17x17 .3dl lookup table from LUT Buddy
0 128 256 384 512 640 768 896 1023
   10   11   8
   14   1   5
   3   6   78
   6   13   286
   9   6   477
   13   1   654
   2   10   820
   7   6   976
   12   2   1126
   4   1   6
   6   7   11
   10   6   151
   3   8   369
   7   10   574
   1   16   768
   6   28   947
   12   39   1114
   12   50   1271
   9   236   5
   8   241   11
   12   248   208
   17   264   429
   25   284   644
   34   303   847
   42   320   1032
   51   335   1205
   58   350   1368
   43   529   4
   48   537   25
   53   545   280
   56   550   500
   64   570   718
   75   595   928
   84   616   1119
   94   637   1296
   102   657   1467
   88   853   5
   93   862   102
   99   872   363
   103   879   592
   106   885   805
   115   906   1015
   125   937   1211
   136   966   1393
   145   993   1569
   135   1218   7
   142   1233   197
   147   1244   460
   151   1252   697
   155   1257   917
   158   1262   1118
   165   1287   1308
   216   1348   1513
   279   1418   1722
   184   1643   10
   192   1664   307
   197   1678   575
   221   1700   823
   283   1746   1071
   327   1778   1291
   361   1801   1489
   396   1841   1690
   435   1908   1907
   340   2196   31
   386   2283   478
   414   2307   765
   440   2327   1033
   465   2345   1283
   493   2358   1509
   520   2373   1722
   548   2383   1919
   583   2408   2115
   544   2839   353
   571   2861   696
   596   2876   1005
   622   2885   1292
   647   2892   1555
   681   2902   1794
   720   2911   2008
   759   2920   2210
   801   2925   2393
   189   11   8
   122   12   10
   129   4   89
   136   4   300
   145   11   495
   155   8   678
   164   6   846
   174   3   1008
   184   3   1161
   180   8   6
   210   38   0
   215   35   243
   224   39   460
   237   46   654
   249   57   832
   263   71   1010
   277   86   1182
   291   102   1348
   237   259   7
   254   335   4
   262   349   287
   278   349   531
   298   357   742
   316   367   933
   334   381   1109
   352   401   1289
   369   420   1464
   302   562   7
   322   644   62
   331   667   350
   340   676   605
   362   683   835
   387   696   1040
   411   713   1225
   433   735   1403
   456   763   1587
   375   899   8
   405   1002   157
   416   1034   440
   428   1046   696
   439   1062   939
   465   1077   1159
   494   1105   1356
   523   1134   1543
   552   1167   1730
   458   1288   7
   501   1449   269
   516   1481   553
   531   1503   815
   545   1524   1066
   559   1543   1298
   588   1571   1507
   626   1600   1705
   664   1630   1892
   553   1748   4
   615   1976   403
   634   2006   694
   653   2036   972
   671   2060   1233
   691   2085   1478
   711   2106   1704
   752   2080   1876
   801   2115   2073
   691   2345   180
   769   2503   586
   797   2523   889
   824   2537   1172
   853   2549   1436
   882   2561   1674
   912   2568   1891
   944   2573   2087
   990   2600   2287
   892   2934   442
   985   3029   837
   1026   3041   1167
   1068   3050   1467
   1110   3058   1740
   1156   3061   1978
   1204   3066   2191
   1253   3068   2384
   1304   3074   2563
   477   3   10
   318   11   9
   324   6   101
   337   3   314
   349   6   512
   363   5   699
   375   4   871
   388   2   1035
   400   11   1190
   415   8   2
   531   80   11
   498   72   294
   491   78   540
   495   89   753
   502   100   944
   512   112   1111
   522   123   1262
   532   133   1394
   461   293   7
   503   358   9
   574   460   370
   582   459   667
   597   467   924
   614   479   1152
   631   492   1348
   634   483   1456
   640   479   1547
   528   595   7
   569   673   85
   634   836   428
   643   843   731
   664   850   1009
   691   868   1255
   715   883   1463
   729   866   1585
   743   852   1689
   611   936   4
   659   1050   187
   722   1288   518
   735   1301   821
   749   1314   1111
   778   1334   1371
   812   1348   1589
   836   1321   1730
   861   1299   1848
   707   1339   7
   772   1526   306
   837   1828   640
   856   1848   952
   874   1865   1248
   894   1880   1523
   928   1860   1740
   968   1822   1895
   1007   1792   2023
   815   1809   8
   913   2097   452
   987   2294   798
   1013   2313   1106
   1040   2330   1397
   1068   2347   1666
   1097   2363   1914
   1138   2310   2073
   1195   2282   2213
   999   2434   265
   1118   2600   661
   1204   2684   1011
   1241   2694   1308
   1278   2709   1581
   1317   2724   1830
   1357   2743   2056
   1400   2758   2265
   1456   2747   2435
   1269   3000   529
   1434   3121   962
   1524   3166   1327
   1571   3173   1633
   1619   3179   1907
   1667   3181   2141
   1715   3181   2345
   1765   3182   2532
   1818   3182   2703
   772   5   13
   506   5   7
   511   12   119
   519   8   328
   536   9   528
   553   8   718
   569   8   893
   584   7   1057
   600   7   1215
   844   93   4
   849   77   4
   738   77   290
   733   91   553
   727   104   771
   730   117   965
   737   130   1134
   747   143   1289
   754   154   1421
   677   294   9
   754   364   16
   933   518   400
   903   513   727
   910   523   1004
   923   537   1248
   924   540   1427
   911   532   1537
   894   520   1601
   772   644   9
   820   720   103
   932   882   453
   1017   998   836
   1037   1012   1154
   1062   1030   1425
   1071   1024   1624
   1071   1004   1761
   1058   967   1828
   843   993   9
   910   1104   213
   1032   1364   553
   1129   1548   937
   1146   1555   1264
   1175   1557   1549
   1202   1547   1769
   1215   1512   1921
   1215   1456   2000
   949   1405   8
   1042   1597   340
   1181   1936   690
   1281   2096   1073
   1308   2112   1401
   1337   2124   1707
   1368   2093   1935
   1400   2046   2092
   1413   1972   2179
   1075   1885   25
   1223   2175   498
   1370   2411   870
   1483   2546   1251
   1519   2562   1569
   1556   2577   1861
   1594   2590   2122
   1623   2529   2276
   1646   2444   2362
   1318   2510   333
   1473   2662   729
   1620   2793   1114
   1721   2886   1466
   1767   2904   1760
   1813   2922   2021
   1861   2937   2256
   1912   2953   2471
   1931   2869   2562
   1652   3058   621
   1827   3169   1059
   1983   3252   1467
   2054   3272   1794
   2100   3276   2060
   2145   3276   2285
   2189   3275   2483
   2236   3272   2660
   2286   3271   2823
   1087   5   2
   702   6   1
   704   5   138
   708   3   348
   720   8   544
   740   8   735
   759   8   912
   778   8   1079
   797   1   1236
   1188   92   2
   1195   92   6
   966   84   280
   962   106   557
   958   119   789
   957   134   986
   962   148   1158
   971   162   1314
   973   173   1446
   1035   388   5
   1281   533   18
   1319   523   414
   1204   521   734
   1199   541   1022
   1209   557   1271
   1203   564   1454
   1175   557   1567
   1139   546   1633
   990   621   9
   1080   711   114
   1270   893   458
   1482   1120   894
   1456   1123   1241
   1471   1136   1524
   1465   1130   1736
   1441   1104   1875
   1397   1060   1938
   1137   1075   6
   1206   1198   236
   1365   1445   578
   1541   1651   992
   1671   1782   1414
   1696   1779   1731
   1716   1766   1970
   1709   1724   2126
   1671   1653   2199
   1213   1502   9
   1334   1699   370
   1537   2001   728
   1730   2218   1152
   1866   2351   1571
   1902   2363   1906
   1918   2323   2141
   1926   2268   2302
   1904   2184   2382
   1374   2017   127
   1561   2261   544
   1746   2471   927
   1950   2679   1360
   2070   2781   1758
   2113   2794   2064
   2156   2808   2335
   2162   2738   2486
   2151   2643   2562
   1661   2599   398
   1825   2721   800
   1991   2855   1194
   2179   3026   1608
   2272   3089   1954
   2322   3103   2220
   2373   3122   2462
   2424   3136   2681
   2411   3036   2748
   2024   3117   717
   2197   3216   1164
   2340   3289   1567
   2467   3348   1940
   2516   3356   2200
   2558   3355   2419
   2598   3352   2609
   2644   3348   2778
   2689   3345   2933
   1427   8   6
   955   7   10
   905   8   156
   908   9   371
   912   5   566
   928   9   754
   950   10   932
   973   9   1099
   995   7   1258
   1557   85   1
   1605   117   5
   1219   99   281
   1186   121   560
   1185   137   798
   1184   151   1005
   1187   166   1179
   1194   181   1337
   1193   193   1469
   1619   528   9
   1814   558   24
   1826   569   437
   1522   527   724
   1507   560   1037
   1506   578   1292
   1492   587   1480
   1449   583   1598
   1393   573   1662
   1271   669   5
   1526   846   125
   2031   1192   515
   2052   1150   923
   1878   1148   1261
   1854   1172   1554
   1836   1171   1772
   1791   1146   1911
   1721   1107   1981
   1350   1000   8
   1498   1157   244
   1786   1427   583
   2026   1672   998
   2295   1974   1527
   2244   1947   1873
   2234   1925   2115
   2190   1870   2264
   2116   1785   2327
   1628   1640   6
   1759   1850   402
   1977   2122   765
   2153   2296   1198
   2373   2486   1691
   2512   2598   2126
   2510   2560   2368
   2488   2500   2531
   2432   2403   2603
   1751   2157   207
   1937   2378   590
   2127   2552   984
   2335   2732   1424
   2556   2924   1905
   2669   3006   2284
   2711   3018   2562
   2691   2946   2708
   2648   2844   2777
   2024   2702   465
   2176   2800   874
   2339   2916   1276
   2531   3077   1694
   2723   3237   2128
   2802   3283   2433
   2851   3300   2675
   2905   3315   2896
   2864   3208   2950
   2374   3188   822
   2526   3262   1270
   2657   3330   1673
   2770   3381   2032
   2862   3421   2334
   2908   3426   2547
   2960   3445   2750
   3023   3470   2948
   3084   3490   3127
   1859   8   10
   1262   5   8
   1115   9   170
   1118   9   394
   1122   10   596
   1127   6   779
   1143   9   952
   1167   8   1121
   1193   8   1280
   2052   85   4
   2168   147   2
   1574   123   296
   1419   138   566
   1413   158   805
   1413   172   1020
   1415   184   1201
   1425   200   1361
   1416   213   1489
   2386   603   3
   2390   547   31
   2442   625   462
   1896   541   712
   1860   577   1044
   1841   603   1308
   1807   612   1506
   1746   611   1629
   1665   603   1698
   1888   843   3
   2428   1164   125
   2644   1217   536
   2660   1266   971
   2283   1143   1230
   2249   1204   1574
   2208   1213   1806
   2144   1193   1949
   2056   1156   2020
   1702   1052   7
   1918   1234   277
   2457   1674   629
   2836   2076   1128
   2856   2028   1586
   2665   1970   1901
   2613   1971   2151
   2554   1923   2303
   2459   1845   2373
   1824   1476   13
   2098   1762   409
   2400   2060   772
   2607   2281   1205
   2814   2507   1698
   3062   2785   2283
   2988   2719   2532
   2933   2647   2680
   2844   2538   2733
   2287   2328   283
   2444   2525   645
   2577   2677   1048
   2726   2828   1490
   2909   2984   1968
   3096   3140   2439
   3209   3225   2800
   3174   3153   2942
   3107   3048   3004
   2423   2817   537
   2528   2898   954
   2671   3001   1359
   2845   3139   1783
   3020   3278   2206
   3193   3422   2616
   3275   3474   2902
   3327   3492   3123
   3267   3379   3165
   2709   3268   943
   2827   3324   1384
   2935   3373   1782
   3028   3413   2129
   3111   3450   2416
   3248   3560   2740
   3318   3593   2963
   3377   3620   3163
   3420   3621   3319
   2460   1   0
   1628   2   6
   1335   9   181
   1339   5   417
   1341   2   624
   1345   2   813
   1352   11   982
   1365   8   1141
   1394   10   1303
   2649   93   7
   2794   181   7
   2067   159   319
   1680   157   567
   1669   179   816
   1665   197   1033
   1664   209   1221
   1668   220   1386
   1650   234   1511
   2968   612   2
   2952   549   42
   3019   690   489
   2344   569   715
   2144   582   1016
   2120   613   1275
   2108   635   1497
   2064   640   1661
   1961   634   1733
   2732   1098   11
   3155   1362   133
   3151   1209   554
   3182   1394   1023
   2602   1135   1180
   2563   1198   1542
   2540   1242   1806
   2489   1243   1990
   2378   1209   2065
   2206   1180   10
   2730   1605   283
   3210   2109   702
   3304   2106   1171
   3321   2170   1673
   2962   1930   1821
   2936   1987   2158
   2886   1980   2347
   2777   1905   2416
   2300   1597   123
   2552   1842   449
   2786   2107   814
   3139   2513   1304
   3440   2873   1934
   3456   2836   2353
   3277   2714   2532
   3226   2694   2721
   3129   2590   2775
   2494   2178   336
   2717   2413   657
   2903   2618   1063
   3078   2803   1506
   3239   2978   1978
   3396   3149   2443
   3590   3362   2955
   3505   3272   3084
   3417   3149   3119
   2890   2954   650
   2937   3009   1052
   3033   3106   1458
   3158   3225   1872
   3293   3344   2282
   3437   3465   2678
   3585   3589   3064
   3679   3663   3357
   3622   3556   3399
   3023   3351   1077
   3102   3394   1510
   3182   3430   1898
   3254   3457   2228
   3330   3495   2513
   3468   3606   2837
   3616   3727   3172
   3693   3778   3403
   3716   3755   3531
   3083   10   5
   2186   9   9
   1572   10   192
   1576   3   440
   1576   7   652
   1580   8   847
   1584   7   1019
   1589   3   1177
   1601   13   1323
   3221   107   10
   3333   218   20
   2623   203   344
   1927   176   555
   1910   200   810
   1898   220   1022
   1896   235   1209
   1895   247   1376
   1905   256   1533
   3439   616   2
   3429   567   53
   3483   771   517
   2789   621   737
   2352   586   965
   2324   619   1223
   2308   645   1433
   2296   664   1623
   2273   673   1778
   3418   1364   11
   3566   1400   152
   3557   1243   580
   3582   1530   1083
   2957   1188   1181
   2765   1178   1471
   2742   1226   1734
   2724   1259   1948
   2703   1273   2121
   2950   1487   2
   3421   2046   302
   3651   2276   758
   3651   2116   1218
   3670   2310   1764
   3145   1873   1715
   3114   1927   2072
   3095   1969   2298
   3080   1982   2476
   2762   1776   216
   2996   2044   499
   3371   2496   911
   3694   2921   1520
   3738   2890   1993
   3753   2942   2442
   3426   2619   2385
   3408   2651   2665
   3387   2655   2833
   2880   2255   423
   2988   2394   724
   3149   2595   1114
   3319   2813   1545
   3618   3181   2135
   3818   3428   2708
   3831   3406   3015
   3654   3215   3014
   3629   3197   3168
   3114   2908   750
   3173   2974   1101
   3285   3095   1508
   3406   3218   1918
   3533   3345   2320
   3646   3458   2689
   3786   3613   3089
   3913   3744   3480
   3822   3615   3482
   3343   3443   1284
   3383   3473   1665
   3425   3493   2030
   3467   3511   2337
   3539   3559   2620
   3665   3663   2940
   3795   3772   3267
   3930   3889   3611
   3935   3847   3713
