Resources/LUT/MC.3dl
# 17x17x17 .3dl lookup table from LUT Buddy
0 256 512 768 1023
   10   11   8
   3   6   78
   9   6   477
   2   10   820
   12   2   1126
   9   236   5
   12   248   208
   25   284   644
   42   320   1032
   58   350   1368
   88   853   5
   99   872   363
   106   885   805
   125   937   1211
   145   993   1569
   184   1643   10
   197   1678   575
   283   1746   1071
   361   1801   1489
   435   1908   1907
   544   2839   353
   596   2876   1005
   647   2892   1555
   720   2911   2008
   801   2925   2393
   477   3   10
   324   6   101
   349   6   512
   375   4   871
   400   11   1190
   461   293   7
   574   460   370
   597   467   924
   631   492   1348
   640   479   1547
   611   936   4
   722   1288   518
   749   1314   1111
   812   1348   1589
   861   1299   1848
   815   1809   8
   987   2294   798
   1040   2330   1397
   1097   2363   1914
   1195   2282   2213
   1269   3000   529
   1524   3166   1327
   1619   3179   1907
   1715   3181   2345
   1818   3182   2703
   1087   5   2
   704   5   138
   720   8   544
   759   8   912
   797   1   1236
   1035   388   5
   1319   523   414
   1199   541   1022
   1203   564   1454
   1139   546   1633
   1137   1075   6
   1365   1445   578
   1671   1782   1414
   1716   1766   1970
   1671   1653   2199
   1374   2017   127
   1746   2471   927
   2070   2781   1758
   2156   2808   2335
   2151   2643   2562
   2024   3117   717
   2340   3289   1567
   2516   3356   2200
   2598   3352   2609
   2689   3345   2933
   1859   8   10
   1115   9   170
   1122   10   596
   1143   9   952
   1193   8   1280
   2386   603   3
   2442   625   462
   1860   577   1044
   1807   612   1506
   1665   603   1698
   1702   1052   7
   2457   1674   629
   2856   2028   1586
   2613   1971   2151
   2459   1845   2373
   2287   2328   283
   2577   2677   1048
   2909   2984   1968
   3209   3225   2800
   3107   3048   3004
   2709   3268   943
   2935   3373   1782
   3111   3450   2416
   3318   3593   2963
   3420   3621   3319
   3083   10   5
   1572   10   192
   1576   7   652
   1584   7   1019
   1601   13   1323
   3439   616   2
   3483   771   517
   2352   586   965
   2308   645   1433
   2273   673   1778
   2950   1487   2
   3651   2276   758
   3670   2310   1764
   3114   1927   2072
   3080   1982   2476
   2880   2255   423
   3149   2595   1114
   3618   3181   2135
   3831   3406   3015
   3629   3197   3168
   3343   3443   1284
   3425   3493   2030
   3539   3559   2620
   3795   3772   3267
   3935   3847   3713
