Resources/LUT/Mojito.3dl
# 17x17x17 .3dl lookup table from LUT Buddy
0 256 512 768 1023
   0   0   0
   0   0   769
   0   0   1911
   0   0   2626
   0   0   3463
   0   912   0
   0   920   837
   0   920   1973
   0   921   2706
   0   919   3497
   0   2071   0
   0   2075   951
   0   2074   2027
   0   2069   2770
   0   2062   3533
   0   3215   0
   0   3206   1210
   0   3204   2135
   0   3190   2922
   0   3171   3615
   0   3961   52
   1   3948   1641
   7   3934   2379
   26   3919   3184
   70   3899   3743
   273   0   0
   285   0   767
   295   0   1920
   305   0   2636
   318   0   3463
   380   949   0
   404   958   879
   425   960   1998
   448   961   2732
   477   960   3510
   489   2098   0
   530   2104   1039
   569   2103   2066
   617   2098   2818
   671   2092   3553
   660   3234   0
   729   3229   1348
   799   3216   2193
   879   3197   2978
   971   3174   3635
   953   3951   230
   1057   3938   1771
   1169   3923   2484
   1290   3905   3261
   1416   3881   3770
   1455   0   0
   1470   0   761
   1483   0   1921
   1495   0   2632
   1510   0   3451
   1578   970   0
   1599   979   907
   1618   983   2009
   1636   983   2740
   1661   984   3503
   1665   2114   0
   1698   2120   1107
   1727   2118   2087
   1762   2113   2838
   1802   2106   3554
   1786   3249   0
   1833   3237   1458
   1880   3220   2242
   1933   3200   3021
   1990   3175   3646
   1972   3947   501
   2034   3931   1898
   2108   3913   2594
   2202   3895   3336
   2319   3865   3792
   2310   0   0
   2325   0   767
   2340   0   1925
   2356   0   2629
   2375   0   3442
   2439   999   0
   2469   1010   934
   2491   1014   2016
   2518   1015   2741
   2552   1017   3494
   2533   2138   0
   2574   2142   1171
   2612   2140   2109
   2658   2135   2851
   2709   2127   3550
   2661   3268   31
   2719   3256   1561
   2783   3237   2295
   2859   3217   3060
   2941   3191   3650
   2867   3947   857
   2958   3929   2031
   3064   3906   2723
   3185   3881   3409
   3312   3849   3812
   3393   0   0
   3405   0   775
   3413   0   1929
   3425   0   2629
   3439   0   3427
   3459   1042   0
   3474   1055   959
   3489   1062   2023
   3505   1065   2734
   3531   1069   3478
   3493   2172   0
   3518   2179   1238
   3545   2174   2126
   3574   2170   2858
   3607   2166   3537
   3546   3303   260
   3579   3291   1661
   3620   3273   2353
   3663   3253   3094
   3711   3224   3650
   3629   3949   1358
   3679   3930   2178
   3735   3902   2896
   3796   3867   3502
   3861   3817   3841
