Resources/LUT/Mojito.3dl
# 17x17x17 .3dl lookup table from LUT Buddy
0 128 256 384 512 640 768 896 1023
   0   0   0
   0   0   64
   0   0   769
   0   0   1487
   0   0   1911
   0   0   2224
   0   0   2626
   0   0   3066
   0   0   3463
   0   177   0
   0   180   67
   0   181   814
   0   182   1538
   0   182   1955
   0   182   2273
   0   183   2684
   0   184   3116
   0   184   3493
   0   912   0
   0   918   72
   0   920   837
   0   921   1559
   0   920   1973
   0   921   2294
   0   921   2706
   0   921   3134
   0   919   3497
   0   1586   0
   0   1589   89
   0   1592   881
   0   1591   1592
   0   1590   1996
   0   1590   2321
   0   1589   2731
   0   1589   3157
   0   1587   3513
   0   2071   0
   0   2075   130
   0   2075   951
   0   2075   1635
   0   2074   2027
   0   2071   2356
   0   2069   2770
   0   2066   3192
   0   2062   3533
   0   2622   0
   0   2625   212
   0   2622   1058
   0   2621   1698
   0   2616   2069
   0   2608   2412
   0   2604   2826
   0   2605   3244
   0   2604   3570
   0   3215   0
   0   3214   349
   0   3206   1210
   0   3203   1787
   0   3204   2135
   0   3194   2502
   0   3190   2922
   0   3181   3318
   0   3171   3615
   0   3681   0
   0   3677   577
   0   3673   1419
   0   3668   1906
   0   3661   2234
   0   3651   2623
   0   3644   3036
   3   3634   3406
   9   3625   3672
   0   3961   52
   0   3953   904
   1   3948   1641
   4   3942   2047
   7   3934   2379
   15   3927   2785
   26   3919   3184
   44   3909   3508
   70   3899   3743
   2   0   0
   2   0   60
   3   0   772
   3   0   1494
   3   0   1920
   4   0   2233
   4   0   2635
   4   0   3073
   5   0   3468
   5   189   0
   6   192   69
   7   194   829
   7   196   1552
   8   197   1968
   9   197   2288
   10   197   2700
   11   198   3132
   13   199   3497
   10   936   0
   11   943   79
   12   944   864
   14   947   1581
   15   947   1991
   17   948   2314
   19   948   2726
   21   948   3152
   24   947   3511
   16   1607   0
   18   1611   105
   21   1614   920
   23   1614   1619
   26   1613   2018
   30   1613   2346
   34   1612   2760
   39   1611   3181
   45   1609   3525
   26   2091   0
   31   2095   161
   35   2096   1004
   40   2095   1669
   46   2095   2052
   53   2092   2388
   61   2091   2804
   71   2089   3216
   82   2086   3549
   45   2648   0
   53   2650   263
   61   2650   1125
   71   2646   1739
   83   2640   2099
   97   2636   2452
   113   2631   2866
   133   2625   3271
   157   2620   3581
   79   3229   0
   94   3229   425
   111   3227   1290
   130   3220   1831
   154   3214   2168
   180   3204   2541
   211   3197   2954
   244   3187   3339
   282   3174   3627
   146   3683   0
   175   3679   674
   205   3671   1492
   238   3668   1951
   275   3658   2273
   315   3650   2665
   358   3642   3070
   408   3630   3427
   461   3619   3686
   267   3953   119
   307   3949   1026
   351   3944   1705
   399   3935   2088
   452   3928   2431
   511   3921   2834
   575   3911   3223
   645   3901   3530
   720   3894   3757
   273   0   0
   280   0   56
   285   0   767
   290   0   1493
   295   0   1920
   299   0   2233
   305   0   2636
   311   0   3071
   318   0   3463
   336   195   0
   345   199   70
   353   201   835
   360   203   1559
   368   204   1973
   375   205   2292
   385   206   2703
   394   206   3131
   404   207   3497
   380   949   0
   394   955   85
   404   958   879
   413   958   1593
   425   960   1998
   436   960   2323
   448   961   2732
   462   961   3157
   477   960   3510
   430   1617   0
   446   1622   120
   460   1623   944
   475   1623   1634
   489   1623   2030
   506   1623   2358
   524   1620   2770
   544   1620   3190
   564   1618   3529
   489   2098   0
   510   2106   189
   530   2104   1039
   550   2105   1690
   569   2103   2066
   592   2100   2405
   617   2098   2818
   643   2094   3226
   671   2092   3553
   564   2655   0
   591   2659   307
   617   2658   1173
   644   2653   1765
   672   2649   2118
   701   2643   2473
   734   2637   2887
   767   2631   3283
   806   2624   3586
   660   3234   0
   695   3234   491
   729   3229   1348
   762   3222   1863
   799   3216   2193
   838   3206   2569
   879   3197   2978
   924   3186   3353
   971   3174   3635
   789   3684   13
   830   3677   770
   872   3671   1554
   916   3665   1988
   963   3655   2309
   1012   3647   2703
   1065   3636   3101
   1121   3626   3444
   1177   3615   3698
   953   3951   230
   1006   3947   1150
   1057   3938   1771
   1114   3932   2129
   1169   3923   2484
   1228   3915   2883
   1290   3905   3261
   1352   3896   3556
   1416   3881   3770
   880   0   0
   889   0   53
   897   0   763
   902   0   1490
   908   0   1919
   916   0   2232
   925   0   2634
   933   0   3070
   944   0   3461
   975   202   0
   987   205   71
   996   208   840
   1007   210   1562
   1014   211   1975
   1025   212   2295
   1036   213   2704
   1046   214   3129
   1059   215   3495
   1033   959   0
   1047   965   92
   1060   969   893
   1072   970   1600
   1085   971   2004
   1096   972   2327
   1112   972   2737
   1126   971   3158
   1142   971   3507
   1092   1625   0
   1109   1630   135
   1123   1631   968
   1139   1631   1647
   1156   1631   2037
   1173   1630   2365
   1192   1629   2777
   1212   1627   3192
   1233   1626   3529
   1152   2108   0
   1175   2112   218
   1195   2111   1073
   1214   2112   1708
   1236   2108   2078
   1258   2107   2419
   1281   2105   2829
   1305   2102   3234
   1331   2097   3554
   1228   2663   0
   1255   2665   353
   1278   2665   1219
   1303   2660   1789
   1328   2654   2133
   1355   2649   2493
   1382   2643   2902
   1412   2635   3293
   1441   2628   3591
   1315   3239   0
   1347   3238   561
   1376   3234   1404
   1404   3226   1895
   1435   3217   2217
   1465   3207   2597
   1497   3197   2999
   1528   3187   3368
   1564   3174   3642
   1425   3684   42
   1456   3676   869
   1489   3671   1613
   1522   3665   2023
   1556   3654   2346
   1591   3644   2739
   1628   3634   3135
   1668   3623   3466
   1711   3609   3705
   1548   3949   356
   1585   3943   1272
   1622   3935   1834
   1661   3926   2173
   1703   3918   2538
   1746   3908   2931
   1793   3897   3298
   1842   3884   3577
   1892   3875   3781
   1455   0   0
   1464   0   52
   1470   0   761
   1475   0   1492
   1483   0   1921
   1488   0   2232
   1495   0   2632
   1502   0   3065
   1510   0   3451
   1534   209   0
   1545   213   73
   1551   216   845
   1558   217   1565
   1565   219   1978
   1573   221   2295
   1581   221   2703
   1589   222   3126
   1598   223   3489
   1578   970   0
   1589   976   99
   1599   979   907
   1608   983   1609
   1618   983   2009
   1627   983   2331
   1636   983   2740
   1648   984   3156
   1661   984   3503
   1620   1632   0
   1635   1637   153
   1646   1639   990
   1658   1640   1660
   1670   1640   2045
   1682   1638   2372
   1696   1637   2781
   1711   1636   3194
   1726   1634   3524
   1665   2114   0
   1682   2120   249
   1698   2120   1107
   1713   2118   1725
   1727   2118   2087
   1744   2115   2429
   1762   2113   2838
   1781   2108   3239
   1802   2106   3554
   1718   2670   0
   1740   2675   401
   1759   2671   1263
   1778   2668   1813
   1797   2661   2148
   1818   2655   2509
   1840   2650   2916
   1865   2644   3299
   1888   2636   3593
   1786   3249   0
   1809   3242   636
   1833   3237   1458
   1855   3228   1925
   1880   3220   2242
   1906   3210   2622
   1933   3200   3021
   1961   3188   3381
   1990   3175   3646
   1869   3685   93
   1895   3677   973
   1923   3670   1669
   1951   3662   2058
   1979   3654   2382
   2011   3643   2775
   2043   3630   3162
   2080   3617   3479
   2122   3605   3713
   1972   3947   501
   2003   3940   1391
   2034   3931   1898
   2069   3923   2223
   2108   3913   2594
   2153   3904   2981
   2202   3895   3336
   2255   3879   3598
   2319   3865   3792
   1875   0   0
   1883   0   51
   1889   0   764
   1897   0   1494
   1900   0   1922
   1907   0   2233
   1913   0   2629
   1920   0   3060
   1926   0   3449
   1949   216   0
   1959   221   75
   1965   224   850
   1972   226   1569
   1976   228   1979
   1983   230   2294
   1991   232   2701
   1999   233   3123
   2008   233   3483
   1988   982   0
   1998   989   107
   2007   993   920
   2014   994   1615
   2023   996   2013
   2032   997   2334
   2041   998   2738
   2054   998   3155
   2065   998   3501
   2023   1642   0
   2037   1648   172
   2049   1649   1012
   2059   1650   1671
   2072   1650   2050
   2083   1648   2380
   2097   1648   2785
   2113   1646   3193
   2131   1644   3523
   2063   2125   0
   2079   2128   280
   2094   2129   1139
   2110   2127   1743
   2127   2125   2097
   2144   2125   2441
   2161   2120   2845
   2183   2119   3242
   2206   2116   3554
   2111   2682   0
   2134   2684   452
   2154   2681   1307
   2172   2677   1835
   2198   2670   2165
   2220   2665   2526
   2244   2660   2928
   2275   2652   3305
   2303   2643   3593
   2180   3256   4
   2204   3251   714
   2228   3245   1510
   2256   3235   1954
   2285   3227   2267
   2316   3218   2648
   2353   3206   3038
   2392   3197   3389
   2434   3181   3649
   2265   3686   177
   2296   3679   1079
   2331   3671   1724
   2369   3664   2091
   2408   3654   2425
   2450   3642   2811
   2499   3631   3190
   2551   3617   3493
   2603   3601   3719
   2385   3947   669
   2428   3938   1510
   2476   3930   1965
   2524   3919   2281
   2576   3910   2654
   2632   3897   3035
   2693   3883   3371
   2761   3873   3618
   2831   3859   3802
   2310   0   0
   2320   0   52
   2325   0   767
   2334   0   1496
   2340   0   1925
   2348   0   2235
   2356   0   2629
   2366   0   3058
   2375   0   3442
   2395   228   0
   2408   233   78
   2414   236   857
   2424   238   1571
   2434   240   1981
   2442   242   2295
   2452   244   2699
   2465   246   3116
   2477   248   3475
   2439   999   0
   2456   1006   116
   2469   1010   934
   2481   1013   1623
   2491   1014   2016
   2505   1015   2336
   2518   1015   2741
   2533   1016   3150
   2552   1017   3494
   2486   1655   0
   2504   1659   190
   2517   1661   1034
   2533   1662   1682
   2550   1662   2056
   2567   1661   2386
   2584   1660   2787
   2604   1659   3191
   2625   1658   3517
   2533   2138   0
   2555   2143   314
   2574   2142   1171
   2594   2141   1759
   2612   2140   2109
   2636   2137   2452
   2658   2135   2851
   2685   2131   3242
   2709   2127   3550
   2587   2696   0
   2614   2699   506
   2639   2694   1351
   2662   2693   1859
   2690   2687   2181
   2718   2680   2544
   2746   2673   2938
   2779   2664   3310
   2814   2658   3592
   2661   3268   31
   2689   3262   797
   2719   3256   1561
   2752   3249   1984
   2783   3237   2295
   2820   3227   2674
   2859   3217   3060
   2900   3205   3398
   2941   3191   3650
   2752   3693   287
   2785   3685   1190
   2822   3675   1782
   2862   3668   2127
   2905   3656   2469
   2953   3645   2852
   3000   3632   3219
   3052   3622   3510
   3104   3605   3725
   2867   3947   857
   2913   3938   1621
   2958   3929   2031
   3011   3919   2347
   3064   3906   2723
   3122   3895   3093
   3185   3881   3409
   3248   3865   3641
   3312   3849   3812
   2866   0   0
   2875   0   52
   2880   0   771
   2888   0   1500
   2895   0   1927
   2901   0   2238
   2909   0   2629
   2920   0   3054
   2932   0   3433
   2938   240   0
   2946   246   81
   2958   250   864
   2966   254   1575
   2975   256   1982
   2985   259   2295
   2994   260   2695
   3005   262   3107
   3020   265   3469
   2976   1017   0
   2989   1026   125
   3002   1030   946
   3014   1033   1631
   3026   1036   2020
   3036   1037   2339
   3051   1038   2738
   3066   1039   3145
   3080   1040   3486
   3013   1670   0
   3028   1675   210
   3044   1677   1056
   3058   1678   1694
   3072   1678   2063
   3090   1677   2391
   3109   1677   2789
   3127   1677   3185
   3148   1675   3509
   3049   2154   0
   3070   2158   348
   3086   2158   1205
   3108   2158   1775
   3128   2156   2117
   3147   2154   2462
   3172   2151   2855
   3198   2148   3242
   3221   2144   3544
   3097   2719   2
   3121   2716   563
   3141   2714   1394
   3166   2711   1881
   3192   2704   2198
   3217   2698   2561
   3245   2692   2951
   3274   2684   3312
   3304   2677   3590
   3151   3286   106
   3182   3279   884
   3207   3273   1612
   3236   3262   2013
   3267   3255   2323
   3297   3242   2700
   3330   3228   3080
   3365   3221   3407
   3400   3204   3650
   3225   3700   462
   3254   3693   1306
   3289   3683   1842
   3323   3673   2169
   3360   3665   2518
   3396   3650   2894
   3432   3638   3252
   3471   3624   3522
   3512   3608   3729
   3313   3947   1062
   3351   3938   1729
   3387   3929   2099
   3430   3918   2427
   3471   3905   2802
   3511   3893   3159
   3557   3876   3452
   3604   3859   3667
   3650   3837   3824
   3393   0   0
   3401   0   53
   3405   0   775
   3407   0   1504
   3413   0   1929
   3419   0   2238
   3425   0   2629
   3431   0   3045
   3439   0   3427
   3437   258   0
   3443   265   84
   3451   269   870
   3458   272   1578
   3461   275   1985
   3469   279   2295
   3475   281   2692
   3483   283   3101
   3492   285   3461
   3459   1042   0
   3469   1052   134
   3474   1055   959
   3482   1059   1636
   3489   1062   2023
   3498   1064   2339
   3505   1065   2734
   3518   1067   3137
   3531   1069   3478
   3475   1687   0
   3485   1693   230
   3495   1697   1078
   3505   1699   1704
   3515   1698   2069
   3528   1698   2395
   3541   1698   2787
   3552   1697   3179
   3567   1697   3501
   3493   2172   0
   3505   2178   384
   3518   2179   1238
   3531   2178   1791
   3545   2174   2126
   3558   2174   2469
   3574   2170   2858
   3589   2167   3238
   3607   2166   3537
   3516   2743   32
   3532   2741   624
   3546   2738   1439
   3561   2734   1905
   3578   2730   2216
   3595   2724   2575
   3614   2716   2961
   3634   2708   3313
   3656   2700   3583
   3546   3303   260
   3563   3297   976
   3579   3291   1661
   3599   3284   2044
   3620   3273   2353
   3642   3261   2726
   3663   3253   3094
   3684   3239   3415
   3711   3224   3650
   3582   3712   721
   3602   3704   1425
   3624   3694   1905
   3648   3683   2218
   3669   3670   2572
   3697   3659   2941
   3723   3646   3282
   3749   3630   3541
   3775   3612   3731
   3629   3949   1358
   3655   3940   1847
   3679   3930   2178
   3709   3917   2527
   3735   3902   2896
   3766   3883   3238
   3796   3867   3502
   3828   3845   3700
   3861   3817   3841
