Resources/LUT/Mojito.3dl
# 17x17x17 .3dl lookup table from LUT Buddy
   0   64   128   192   256   320   384   448   512   576   640   704   768   832   896   960   1023
   0   0   0
   0   0   0
   0   0   64
   0   0   375
   0   0   769
   0   0   1159
   0   0   1487
   0   0   1722
   0   0   1911
   0   0   2069
   0   0   2224
   0   0   2414
   0   0   2626
   0   0   2844
   0   0   3066
   0   0   3279
   0   0   3463
   0   13   0
   0   13   0
   0   13   68
   0   13   398
   0   13   805
   0   14   1202
   0   14   1527
   0   14   1756
   0   14   1944
   0   14   2098
   0   14   2260
   0   14   2456
   0   14   2668
   0   14   2889
   0   14   3108
   0   14   3314
   0   14   3487
   0   177   0
   0   177   0
   0   180   67
   0   180   401
   0   181   814
   0   181   1212
   0   182   1538
   0   182   1767
   0   182   1955
   0   183   2107
   0   182   2273
   0   183   2471
   0   183   2684
   0   183   2900
   0   184   3116
   0   184   3320
   0   184   3493
   0   519   0
   0   517   0
   0   522   68
   0   523   407
   0   525   825
   0   525   1224
   0   526   1547
   0   526   1776
   0   526   1964
   0   526   2115
   0   527   2283
   0   526   2483
   0   526   2693
   0   526   2909
   0   527   3125
   0   526   3323
   0   527   3495
   0   912   0
   0   912   0
   0   918   72
   0   919   416
   0   920   837
   0   920   1238
   0   921   1559
   0   921   1785
   0   920   1973
   0   921   2123
   0   921   2294
   0   920   2493
   0   921   2706
   0   920   2919
   0   921   3134
   0   921   3334
   0   919   3497
   0   1286   0
   0   1285   0
   0   1291   78
   0   1293   433
   0   1294   855
   0   1293   1255
   0   1294   1573
   0   1294   1798
   0   1294   1984
   0   1294   2133
   0   1294   2304
   0   1294   2506
   0   1294   2716
   0   1292   2932
   0   1292   3147
   0   1291   3344
   0   1291   3505
   0   1586   0
   0   1585   0
   0   1589   89
   0   1591   453
   0   1592   881
   0   1592   1278
   0   1591   1592
   0   1591   1812
   0   1590   1996
   0   1590   2145
   0   1590   2321
   0   1589   2520
   0   1589   2731
   0   1589   2945
   0   1589   3157
   0   1587   3352
   0   1587   3513
   0   1841   0
   0   1841   0
   0   1846   105
   0   1847   482
   0   1847   913
   0   1847   1307
   0   1847   1611
   0   1846   1829
   0   1847   2011
   0   1846   2160
   0   1844   2336
   0   1843   2539
   0   1842   2750
   0   1842   2963
   0   1841   3173
   0   1841   3361
   0   1838   3521
   0   2071   0
   0   2070   0
   0   2075   130
   0   2076   519
   0   2075   951
   0   2073   1342
   0   2075   1635
   0   2072   1849
   0   2074   2027
   0   2071   2176
   0   2071   2356
   0   2069   2558
   0   2069   2770
   0   2066   2983
   0   2066   3192
   0   2064   3375
   0   2062   3533
   0   2328   0
   0   2329   0
   0   2330   164
   0   2332   566
   0   2334   1000
   0   2329   1383
   0   2329   1664
   0   2328   1875
   0   2326   2046
   0   2324   2199
   0   2323   2383
   0   2319   2585
   0   2318   2794
   0   2316   3005
   0   2314   3213
   0   2310   3393
   0   2307   3548
   0   2622   0
   0   2624   2
   0   2625   212
   0   2625   626
   0   2622   1058
   0   2622   1430
   0   2621   1698
   0   2619   1904
   0   2616   2069
   0   2613   2223
   0   2608   2412
   0   2608   2616
   0   2604   2826
   0   2604   3036
   0   2605   3244
   0   2606   3420
   0   2604   3570
   0   2919   0
   0   2921   11
   0   2921   272
   0   2919   698
   0   2917   1127
   0   2913   1486
   0   2912   1737
   0   2909   1937
   0   2906   2095
   0   2906   2258
   0   2905   2454
   0   2904   2663
   0   2903   2874
   0   2899   3079
   0   2896   3280
   0   2894   3448
   0   2891   3593
   0   3215   0
   0   3215   31
   0   3214   349
   0   3211   787
   0   3206   1210
   0   3203   1548
   0   3203   1787
   0   3205   1980
   0   3204   2135
   0   3199   2306
   0   3194   2502
   0   3193   2712
   0   3190   2922
   0   3187   3127
   0   3181   3318
   0   3179   3478
   0   3171   3615
   0   3473   0
   0   3474   71
   0   3474   450
   0   3472   901
   0   3470   1313
   0   3469   1623
   0   3462   1845
   0   3460   2028
   0   3457   2179
   0   3453   2359
   0   3448   2559
   0   3444   2766
   0   3441   2974
   0   3436   3175
   0   3433   3358
   0   3428   3510
   1   3423   3645
   0   3681   0
   0   3681   152
   0   3677   577
   0   3676   1029
   0   3673   1419
   0   3671   1697
   0   3668   1906
   0   3665   2077
   0   3661   2234
   0   3656   2421
   0   3651   2623
   0   3648   2831
   0   3644   3036
   2   3640   3232
   3   3634   3406
   6   3629   3549
   9   3625   3672
   0   3838   5
   0   3837   277
   0   3834   728
   0   3831   1173
   0   3828   1529
   0   3825   1776
   0   3821   1974
   0   3820   2131
   0   3814   2299
   1   3811   2495
   3   3807   2699
   5   3803   2904
   8   3799   3102
   12   3795   3293
   16   3791   3454
   21   3786   3590
   28   3781   3708
   0   3961   52
   0   3954   436
   0   3953   904
   0   3949   1328
   1   3948   1641
   2   3945   1864
   4   3942   2047
   5   3937   2199
   7   3934   2379
   10   3931   2581
   15   3927   2785
   20   3923   2988
   26   3919   3184
   34   3913   3359
   44   3909   3508
   56   3905   3633
   70   3899   3743
   0   0   0
   0   0   0
   0   0   60
   0   0   371
   0   0   766
   0   0   1156
   0   0   1486
   0   0   1723
   0   0   1912
   0   0   2070
   0   0   2226
   0   0   2415
   0   0   2629
   0   0   2849
   0   0   3070
   0   0   3284
   0   0   3463
   0   13   0
   0   13   0
   0   14   66
   0   14   397
   0   14   807
   0   14   1205
   0   14   1530
   0   15   1760
   0   15   1949
   0   15   2101
   0   15   2265
   0   15   2464
   0   15   2676
   0   15   2893
   0   15   3112
   0   15   3314
   0   15   3491
   0   181   0
   0   181   0
   0   184   68
   0   185   405
   0   186   820
   0   188   1219
   0   188   1544
   0   188   1773
   0   189   1961
   0   189   2113
   0   190   2282
   0   190   2478
   0   191   2692
   0   192   2909
   0   191   3125
   0   191   3322
   0   193   3495
   0   527   0
   0   526   0
   0   532   70
   0   533   413
   0   535   833
   0   536   1234
   0   537   1557
   0   536   1784
   0   537   1972
   0   537   2123
   0   537   2294
   0   539   2492
   0   539   2705
   0   539   2919
   0   540   3136
   0   540   3337
   0   540   3502
   0   924   0
   0   923   0
   0   930   75
   0   933   427
   0   934   852
   0   935   1252
   0   935   1571
   0   935   1797
   0   936   1984
   0   937   2133
   0   937   2306
   0   937   2507
   0   937   2718
   0   937   2932
   0   938   3147
   0   938   3345
   0   938   3507
   0   1300   0
   0   1298   0
   0   1306   84
   0   1307   446
   0   1308   874
   0   1310   1275
   0   1311   1587
   0   1311   1812
   0   1311   1996
   0   1310   2145
   0   1311   2321
   0   1309   2521
   0   1310   2732
   0   1309   2947
   0   1310   3161
   0   1309   3353
   0   1311   3513
   0   1598   0
   0   1597   0
   0   1604   98
   0   1604   471
   0   1605   903
   0   1606   1301
   0   1606   1608
   0   1605   1828
   0   1605   2009
   0   1605   2160
   0   1605   2337
   0   1605   2539
   0   1605   2752
   0   1604   2964
   0   1604   3174
   0   1604   3362
   0   1604   3523
   0   1855   0
   0   1856   0
   0   1861   118
   0   1862   505
   0   1861   940
   0   1862   1332
   0   1862   1632
   0   1862   1847
   0   1862   2027
   0   1861   2174
   0   1860   2355
   0   1859   2559
   0   1859   2770
   0   1858   2983
   0   1857   3192
   0   1857   3376
   0   1855   3534
   0   2084   0
   0   2087   0
   0   2088   147
   0   2089   547
   0   2089   983
   0   2090   1371
   0   2089   1657
   0   2089   1869
   0   2089   2044
   0   2088   2197
   0   2086   2379
   0   2086   2583
   0   2085   2792
   0   2084   3004
   1   2082   3210
   1   2081   3392
   2   2079   3546
   0   2346   0
   0   2349   0
   0   2351   187
   0   2351   599
   0   2351   1034
   0   2351   1415
   0   2350   1688
   0   2348   1895
   0   2347   2066
   0   2345   2219
   1   2341   2406
   1   2341   2611
   2   2339   2821
   3   2337   3030
   4   2336   3234
   5   2333   3410
   6   2329   3560
   0   2640   0
   0   2643   5
   0   2644   241
   0   2644   664
   0   2643   1099
   0   2641   1466
   1   2642   1724
   1   2638   1927
   2   2636   2089
   3   2635   2249
   4   2632   2440
   5   2628   2645
   6   2627   2854
   8   2625   3061
   9   2622   3260
   11   2618   3432
   14   2615   3576
   0   2935   0
   0   2940   18
   0   2938   308
   1   2938   743
   2   2936   1173
   2   2934   1523
   3   2931   1766
   5   2928   1963
   6   2927   2119
   7   2923   2284
   9   2920   2478
   11   2914   2685
   13   2912   2892
   16   2909   3098
   19   2906   3293
   23   2903   3457
   27   2898   3598
   1   3227   0
   2   3229   44
   3   3228   391
   4   3227   838
   5   3223   1258
   7   3221   1585
   9   3218   1815
   11   3215   2003
   13   3209   2154
   16   3206   2327
   18   3204   2528
   22   3197   2732
   26   3193   2939
   30   3187   3142
   36   3187   3332
   42   3181   3488
   48   3174   3623
   5   3483   0
   6   3483   95
   8   3480   496
   10   3478   950
   12   3473   1353
   15   3472   1652
   18   3470   1868
   21   3462   2046
   25   3460   2199
   29   3454   2380
   35   3450   2580
   40   3446   2787
   47   3441   2993
   54   3438   3193
   63   3431   3372
   73   3426   3519
   85   3422   3650
   11   3685   0
   14   3681   192
   17   3679   626
   20   3677   1077
   24   3673   1458
   28   3671   1723
   33   3668   1931
   39   3665   2095
   45   3660   2254
   53   3655   2444
   61   3651   2647
   71   3648   2852
   83   3643   3052
   95   3638   3249
   110   3632   3414
   127   3627   3559
   146   3623   3677
   23   3838   15
   27   3835   324
   32   3832   781
   37   3830   1221
   44   3826   1566
   51   3824   1803
   59   3821   1998
   69   3819   2152
   80   3813   2321
   93   3809   2519
   107   3805   2721
   124   3801   2926
   142   3797   3125
   164   3791   3309
   187   3788   3466
   211   3783   3598
   238   3778   3714
   42   3954   80
   49   3953   496
   57   3950   966
   67   3949   1380
   78   3947   1674
   90   3943   1892
   104   3938   2069
   120   3935   2223
   139   3932   2405
   160   3928   2607
   183   3923   2810
   208   3920   3011
   233   3915   3208
   261   3911   3378
   290   3905   3520
   321   3900   3645
   354   3897   3749
   2   0   0
   2   0   0
   2   0   60
   2   0   372
   3   0   772
   3   0   1164
   3   0   1494
   3   0   1729
   3   0   1920
   3   0   2076
   4   0   2233
   4   0   2426
   4   0   2635
   4   0   2855
   4   0   3073
   5   0   3286
   5   0   3468
   4   14   0
   4   14   0
   4   15   67
   5   15   400
   5   15   815
   5   15   1214
   5   16   1538
   6   16   1768
   6   16   1955
   6   16   2107
   7   16   2273
   7   16   2471
   7   16   2685
   8   16   2900
   8   16   3116
   8   16   3320
   9   16   3493
   5   189   0
   6   189   0
   6   192   69
   6   193   410
   7   194   829
   7   195   1231
   7   196   1552
   8   196   1780
   8   197   1968
   9   196   2120
   9   197   2288
   10   197   2487
   10   197   2700
   11   197   2916
   11   198   3132
   12   198   3330
   13   199   3497
   7   538   0
   8   538   0
   8   543   73
   9   545   423
   9   546   845
   10   546   1247
   10   547   1566
   11   547   1793
   11   548   1979
   12   547   2130
   12   549   2302
   13   548   2500
   14   549   2714
   15   549   2927
   16   549   3140
   17   550   3340
   18   550   3503
   10   936   0
   10   936   0
   11   943   79
   11   943   438
   12   944   864
   13   945   1267
   14   947   1581
   14   947   1805
   15   947   1991
   16   948   2140
   17   948   2314
   18   947   2515
   19   948   2726
   20   948   2941
   21   948   3152
   23   947   3348
   24   947   3511
   12   1311   0
   13   1311   0
   14   1318   90
   15   1318   458
   16   1320   888
   17   1320   1288
   18   1321   1599
   19   1321   1820
   20   1321   2003
   21   1321   2153
   22   1321   2330
   24   1321   2530
   25   1320   2743
   27   1319   2954
   29   1318   3168
   31   1318   3354
   33   1318   3518
   16   1607   0
   17   1607   0
   18   1611   105
   19   1613   486
   21   1614   920
   22   1613   1316
   23   1614   1619
   25   1613   1837
   26   1613   2018
   28   1613   2168
   30   1613   2346
   32   1612   2548
   34   1612   2760
   36   1612   2972
   39   1611   3181
   42   1609   3368
   45   1609   3525
   21   1862   0
   22   1864   0
   24   1868   128
   25   1869   522
   27   1869   957
   29   1868   1349
   31   1869   1642
   32   1869   1857
   35   1868   2034
   37   1867   2186
   40   1867   2365
   43   1865   2570
   45   1865   2781
   49   1865   2991
   52   1863   3198
   56   1862   3380
   60   1862   3537
   26   2091   0
   28   2093   0
   31   2095   161
   33   2096   566
   35   2096   1004
   38   2095   1389
   40   2095   1669
   43   2096   1880
   46   2095   2052
   49   2093   2205
   53   2092   2388
   57   2091   2593
   61   2091   2804
   66   2089   3013
   71   2089   3216
   77   2086   3397
   82   2086   3549
   34   2354   0
   37   2356   0
   40   2359   206
   43   2358   622
   46   2358   1058
   49   2356   1434
   53   2355   1702
   57   2353   1908
   61   2352   2074
   66   2351   2230
   71   2351   2418
   77   2346   2622
   83   2344   2833
   89   2344   3039
   97   2340   3242
   105   2337   3417
   113   2336   3565
   45   2648   0
   49   2650   8
   53   2650   263
   57   2650   692
   61   2650   1125
   66   2649   1486
   71   2646   1739
   77   2644   1939
   83   2640   2099
   89   2638   2261
   97   2636   2452
   104   2633   2657
   113   2631   2866
   122   2628   3074
   133   2625   3271
   145   2622   3438
   157   2620   3581
   59   2941   0
   65   2946   25
   70   2945   335
   76   2943   775
   82   2941   1202
   88   2938   1544
   96   2935   1782
   104   2934   1976
   112   2932   2130
   122   2928   2298
   132   2923   2494
   143   2920   2700
   156   2914   2907
   169   2912   3110
   183   2908   3301
   198   2904   3466
   214   2901   3604
   79   3229   0
   87   3234   58
   94   3229   425
   102   3229   874
   111   3227   1290
   120   3223   1607
   130   3220   1831
   142   3218   2016
   154   3214   2168
   167   3209   2343
   180   3204   2541
   195   3199   2748
   211   3197   2954
   227   3191   3154
   244   3187   3339
   263   3181   3494
   282   3174   3627
   106   3484   0
   117   3484   122
   127   3481   535
   139   3479   988
   151   3475   1387
   164   3472   1674
   178   3470   1888
   193   3462   2061
   209   3459   2214
   225   3454   2398
   242   3452   2598
   260   3446   2804
   279   3441   3008
   298   3436   3205
   318   3432   3380
   340   3428   3528
   363   3422   3656
   146   3683   0
   161   3681   231
   175   3679   674
   190   3675   1123
   205   3671   1492
   222   3670   1747
   238   3668   1951
   256   3665   2110
   275   3658   2273
   294   3654   2463
   315   3650   2665
   336   3647   2869
   358   3642   3070
   381   3635   3261
   408   3630   3427
   433   3625   3567
   461   3619   3686
   200   3837   29
   217   3834   375
   234   3831   839
   251   3829   1270
   271   3825   1599
   290   3822   1829
   311   3821   2018
   332   3814   2169
   354   3812   2344
   378   3807   2543
   403   3803   2744
   429   3799   2945
   456   3793   3145
   484   3791   3325
   516   3784   3478
   547   3779   3610
   579   3775   3722
   267   3953   119
   287   3952   560
   307   3949   1026
   329   3947   1425
   351   3944   1705
   375   3940   1920
   399   3935   2088
   424   3932   2245
   452   3928   2431
   481   3924   2633
   511   3921   2834
   543   3916   3035
   575   3911   3223
   609   3906   3389
   645   3901   3530
   682   3897   3655
   720   3894   3757
   64   0   0
   64   0   0
   66   0   58
   68   0   370
   68   0   770
   69   0   1162
   71   0   1494
   72   0   1729
   73   0   1920
   74   0   2076
   76   0   2234
   77   0   2424
   78   0   2637
   80   0   2854
   81   0   3073
   83   0   3285
   85   0   3463
   80   15   0
   81   15   0
   84   16   66
   86   16   401
   87   16   816
   89   16   1215
   90   16   1539
   92   16   1769
   94   16   1957
   96   17   2110
   97   17   2276
   99   17   2472
   101   17   2687
   104   17   2901
   106   17   3116
   109   17   3320
