Resources/LUT/Neo.3dl
# 17x17x17 .3dl lookup table from LUT Buddy
   0   64   128   192   256   320   384   448   512   576   640   704   768   832   896   960   1023
   8   14   4
   9   14   9
   11   16   54
   13   19   136
   16   22   263
   20   25   403
   24   30   555
   29   35   723
   35   42   905
   42   49   1097
   49   57   1292
   57   65   1487
   68   86   1680
   79   102   1858
   90   116   2022
   102   134   2174
   114   150   2319
   56   337   50
   56   336   50
   60   341   125
   64   346   225
   69   353   346
   74   360   480
   82   369   631
   90   379   798
   99   389   979
   109   400   1170
   120   411   1362
   132   423   1557
   144   435   1742
   157   446   1910
   171   458   2068
   185   470   2217
   199   482   2355
   111   599   103
   111   599   103
   116   604   194
   121   608   292
   127   614   408
   135   621   539
   144   629   689
   155   639   856
   166   650   1035
   178   659   1225
   191   670   1418
   204   681   1611
   216   692   1787
   229   705   1953
   242   716   2107
   255   727   2250
   269   739   2388
   194   906   184
   194   906   184
   200   910   276
   205   914   369
   212   920   481
   220   927   611
   229   935   761
   239   944   927
   250   955   1105
   262   963   1293
   274   975   1486
   286   985   1672
   298   996   1843
   310   1007   2003
   322   1018   2152
   335   1030   2295
   347   1041   2427
   289   1251   279
   288   1250   279
   293   1255   367
   299   1259   456
   305   1265   566
   313   1272   697
   322   1278   845
   331   1288   1010
   341   1297   1188
   352   1306   1374
   364   1317   1566
   375   1326   1744
   386   1337   1909
   398   1347   2062
   410   1358   2208
   422   1369   2343
   434   1379   2472
   389   1626   380
   388   1624   379
   393   1628   464
   398   1632   552
   404   1638   662
   411   1643   793
   419   1649   942
   429   1656   1105
   439   1665   1283
   449   1673   1469
   459   1681   1653
   470   1690   1823
   481   1699   1981
   492   1708   2128
   503   1717   2267
   515   1727   2399
   527   1735   2524
   493   1975   484
   493   1975   484
   497   1977   569
   501   1980   658
   507   1983   769
   515   1987   901
   523   1992   1048
   532   1999   1212
   541   2004   1389
   551   2012   1572
   562   2018   1747
   572   2024   1908
   583   2030   2058
   594   2037   2200
   605   2046   2334
   616   2052   2459
   627   2058   2579
   604   2288   595
   604   2288   601
   608   2288   684
   613   2292   774
   618   2293   886
   625   2296   1017
   633   2299   1165
   642   2304   1329
   652   2310   1504
   662   2316   1680
   672   2320   1844
   682   2326   1998
   693   2331   2140
   703   2335   2276
   714   2342   2402
   725   2346   2524
   737   2353   2638
   723   2571   714
   723   2569   730
   727   2571   808
   731   2572   899
   737   2572   1011
   744   2576   1144
   751   2580   1292
   760   2581   1454
   768   2585   1625
   779   2589   1791
   789   2594   1945
   799   2597   2089
   809   2600   2225
   819   2604   2355
   830   2609   2476
   842   2613   2591
   852   2617   2701
   847   2822   838
   848   2822   864
   851   2822   939
   855   2822   1031
   860   2823   1145
   868   2826   1278
   875   2827   1426
   883   2830   1587
   892   2832   1747
   902   2835   1903
   911   2837   2048
   921   2839   2185
   931   2843   2314
   942   2845   2437
   951   2847   2550
   962   2851   2662
   973   2854   2766
   974   3035   966
   976   3033   1001
   978   3033   1075
   983   3033   1170
   988   3033   1285
   995   3035   1419
   1002   3036   1566
   1010   3037   1719
   1018   3038   1869
   1027   3039   2014
   1036   3041   2151
   1045   3043   2280
   1056   3045   2402
   1080   3048   2519
   1118   3050   2631
   1146   3053   2738
   1170   3057   2837
   1104   3208   1094
   1105   3208   1140
   1107   3207   1215
   1111   3206   1313
   1117   3207   1429
   1123   3208   1563
   1131   3208   1705
   1138   3208   1847
   1147   3210   1989
   1165   3212   2126
   1199   3213   2256
   1229   3214   2379
   1253   3217   2495
   1275   3218   2607
   1295   3220   2711
   1314   3221   2811
   1335   3223   2904
   1237   3354   1229
   1239   3354   1285
   1242   3354   1363
   1247   3353   1464
   1251   3352   1582
   1264   3352   1709
   1289   3353   1844
   1320   3354   1979
   1344   3356   2114
   1366   3356   2243
   1386   3356   2363
   1404   3356   2479
   1423   3358   2588
   1441   3358   2693
   1459   3358   2791
   1477   3359   2883
   1493   3359   2970
   1387   3477   1371
   1415   3477   1445
   1433   3477   1529
   1448   3477   1631
   1462   3475   1744
   1476   3475   1864
   1491   3475   1989
   1506   3475   2113
   1524   3475   2239
   1541   3475   2359
   1557   3475   2473
   1574   3475   2579
   1589   3475   2682
   1607   3475   2780
   1621   3474   2872
   1637   3474   2956
   1653   3473   3035
   1607   3587   1533
   1616   3586   1616
   1625   3585   1699
   1635   3584   1794
   1646   3584   1900
   1657   3582   2013
   1668   3582   2129
   1680   3581   2246
   1693   3581   2364
   1707   3581   2475
   1722   3580   2582
   1736   3580   2682
   1750   3579   2776
   1765   3578   2866
   1779   3577   2950
   1795   3576   3031
   1811   3576   3103
   1781   3687   1715
   1787   3687   1780
   1794   3685   1859
   1802   3683   1951
   1811   3683   2051
   1820   3682   2158
   1829   3680   2269
   1839   3679   2378
   1849   3679   2486
   1864   3677   2590
   1877   3676   2690
   1890   3675   2782
   1904   3673   2870
   1919   3673   2952
   1934   3671   3029
   1949   3671   3101
   1966   3669   3168
   1938   3777   1873
   1943   3775   1937
   1949   3773   2015
   1957   3771   2103
   1965   3770   2199
   1973   3769   2301
   1983   3767   2404
   1993   3766   2508
   2002   3765   2608
   2014   3765   2705
   2027   3763   2796
   2041   3763   2882
   2054   3761   2962
   2066   3757   3035
   2084   3757   3107
   2098   3755   3170
   2113   3753   3233
   31   17   7
   32   17   8
   37   20   58
   41   22   141
   46   26   267
   53   30   407
   61   35   559
   70   41   727
   80   48   908
   94   65   1104
   107   79   1299
   122   92   1497
   137   106   1687
   153   122   1864
   170   137   2024
   187   155   2179
   204   173   2321
   104   345   56
   106   345   56
   113   350   133
   119   355   234
   128   363   353
   138   370   487
   150   379   637
   163   389   804
   177   400   986
   191   411   1175
   206   423   1369
   221   435   1564
   236   447   1748
   251   459   1915
   267   471   2071
   283   484   2221
   298   496   2360
   184   609   112
   186   609   113
   194   614   205
   202   619   302
   211   625   417
   221   632   548
   233   641   698
   245   651   865
   259   661   1044
   273   672   1233
   287   683   1426
   302   695   1618
   316   706   1794
   331   718   1959
   346   730   2112
   361   742   2256
   378   756   2394
   278   917   197
   280   916   197
   287   921   288
   295   926   381
   304   932   493
   314   940   623
   325   948   773
   337   957   938
   350   968   1117
   364   978   1306
   378   989   1496
   393   1000   1683
   408   1011   1853
   423   1023   2012
   437   1035   2161
   452   1046   2301
   467   1058   2433
   379   1263   293
   381   1264   293
   387   1267   380
   395   1271   470
   404   1279   580
   413   1285   711
   424   1293   860
   437   1302   1024
   451   1312   1202
   464   1322   1390
   478   1333   1580
   492   1343   1756
   506   1354   1920
   521   1364   2074
   535   1375   2217
   550   1388   2352
   565   1399   2482
   485   1637   394
   487   1638   394
   495   1641   479
   503   1646   568
   512   1650   679
   522   1656   810
   533   1665   959
   546   1671   1124
   558   1679   1299
   572   1689   1486
   586   1697   1669
   600   1706   1837
   614   1716   1995
   628   1724   2141
   643   1734   2279
   658   1743   2409
   673   1753   2533
   601   1986   500
   604   1986   500
   611   1989   587
   619   1991   676
   628   1995   788
   638   2001   920
   649   2006   1068
   661   2012   1232
   675   2018   1408
   688   2025   1592
   702   2032   1764
   716   2038   1924
   730   2047   2074
   744   2054   2213
   759   2060   2346
   774   2068   2471
   790   2074   2591
   725   2299   613
   728   2298   623
   736   2301   705
   743   2302   795
   753   2305   908
   762   2307   1039
   773   2313   1188
   786   2318   1351
   799   2323   1527
   812   2328   1701
   826   2334   1864
   840   2338   2016
   855   2344   2156
   870   2351   2292
   885   2356   2417
   900   2360   2537
   916   2365   2651
   856   2580   733
   860   2579   753
   867   2580   830
   875   2582   923
   884   2585   1036
   894   2586   1168
   905   2589   1317
   918   2594   1480
   931   2598   1651
   944   2601   1813
   958   2605   1966
   973   2609   2110
   987   2614   2245
   1003   2618   2371
   1018   2622   2492
   1034   2627   2607
   1050   2631   2715
   993   2831   859
   996   2829   888
   1003   2830   963
   1013   2832   1058
   1021   2832   1172
   1031   2834   1305
   1043   2836   1455
   1055   2839   1615
   1069   2842   1775
   1083   2846   1926
   1098   2849   2071
   1112   2851   2206
   1128   2854   2333
   1144   2857   2455
   1159   2861   2568
   1175   2863   2677
   1192   2866   2782
   1132   3041   988
   1138   3041   1027
   1145   3040   1102
   1153   3041   1198
   1162   3042   1315
   1174   3043   1449
   1186   3045   1597
   1199   3046   1748
   1212   3047   1897
   1227   3049   2040
   1242   3051   2174
   1257   3053   2303
   1273   3056   2424
   1289   3058   2539
   1305   3059   2646
   1322   3062   2750
   1340   3064   2849
   1276   3214   1120
   1282   3214   1168
   1289   3214   1245
   1299   3214   1344
   1309   3214   1462
   1319   3214   1596
   1332   3214   1736
   1346   3216   1876
   1361   3218   2017
   1375   3219   2152
   1391   3220   2278
   1406   3221   2400
   1423   3222   2512
   1440   3223   2621
   1458   3225   2724
   1474   3226   2823
   1491   3227   2913
   1426   3360   1256
   1432   3360   1316
   1441   3358   1398
   1450   3358   1499
   1461   3358   1616
   1473   3358   1744
   1486   3358   1874
   1500   3359   2006
   1516   3360   2137
   1531   3360   2264
   1547   3361   2383
   1563   3361   2498
   1578   3361   2603
   1596   3362   2707
   1612   3362   2804
   1629   3363   2894
   1646   3363   2979
   1585   3482   1401
   1591   3481   1476
   1600   3480   1560
   1609   3479   1659
   1621   3478   1772
   1633   3479   1890
   1646   3478   2013
   1659   3478   2137
   1675   3478   2261
   1689   3477   2378
   1704   3477   2491
   1719   3477   2596
   1734   3477   2698
   1751   3477   2793
   1767   3477   2884
   1784   3476   2966
   1800   3476   3046
   1741   3589   1569
   1748   3588   1640
   1757   3586   1724
   1767   3586   1818
   1778   3584   1925
   1789   3584   2037
   1802   3584   2152
   1815   3584   2269
   1830   3583   2385
   1842   3582   2495
   1858   3582   2599
   1873   3581   2697
   1888   3580   2793
   1904   3580   2882
   1919   3578   2962
   1935   3577   3040
   1952   3577   3113
   1892   3689   1737
   1900   3687   1802
   1908   3687   1882
   1918   3685   1974
   1930   3683   2076
   1940   3683   2181
   1952   3681   2292
   1967   3681   2401
   1980   3680   2509
   1995   3679   2610
   2008   3677   2708
   2023   3676   2799
   2038   3675   2887
   2052   3674   2966
   2066   3673   3042
   2086   3671   3113
   2101   3670   3178
   2038   3777   1891
   2045   3775   1958
   2053   3773   2036
   2063   3771   2125
   2075   3770   2222
   2086   3769   2325
   2098   3767   2428
   2112   3766   2530
   2125   3765   2631
   2138   3765   2725
   2153   3765   2815
   2168   3763   2899
   2182   3761   2976
   2198   3759   3049
   2214   3757   3119
   2229   3755   3182
   2245   3753   3241
   196   31   20
   197   31   20
   204   33   77
   210   36   168
   219   40   292
   228   45   429
   241   58   582
   255   71   752
   268   84   934
   282   96   1125
   296   109   1320
   310   124   1516
   324   139   1705
   339   156   1879
   353   172   2040
   368   191   2191
   383   208   2333
   295   371   76
   296   372   76
   302   377   160
   308   382   260
   316   389   377
   325   397   510
   335   405   659
   346   415   826
   358   426   1006
   371   437   1195
   384   448   1387
   397   460   1582
   410   472   1762
   424   483   1930
   438   496   2087
   451   507   2233
   466   520   2370
   368   633   138
   368   633   138
   375   639   232
   381   644   327
   389   650   441
   398   658   571
   408   666   720
   419   675   886
   431   686   1066
   443   697   1253
   456   708   1447
   469   720   1636
   482   731   1813
   496   743   1975
   509   754   2124
   524   767   2268
   539   779   2402
   450   940   225
   451   941   225
   457   945   314
   464   951   405
   472   957   516
   481   964   646
   491   973   796
   502   981   962
   514   991   1139
   527   1002   1327
   540   1013   1517
   553   1023   1701
   566   1035   1870
   581   1047   2027
   595   1058   2176
   609   1070   2313
   624   1082   2445
   543   1287   319
   545   1287   318
   550   1291   404
   557   1296   494
   566   1302   604
   575   1308   734
   585   1316   884
   597   1325   1047
   609   1335   1226
   622   1345   1413
   635   1356   1599
   649   1365   1774
   663   1376   1938
   677   1388   2087
   691   1398   2231
   707   1409   2364
   722   1420   2493
   645   1658   418
   648   1658   418
   655   1662   503
   661   1666   592
   670   1671   703
   680   1677   835
   690   1683   982
   702   1691   1147
   715   1699   1324
   728   1709   1509
   742   1717   1690
   756   1727   1855
   770   1735   2010
   785   1745   2156
   800   1753   2294
   816   1763   2422
   831   1772   2543
   759   2003   523
   761   2003   523
   768   2006   611
   776   2009   701
   784   2013   813
   795   2018   944
   806   2022   1094
   818   2028   1257
   831   2033   1433
   845   2042   1614
   859   2048   1784
   873   2056   1943
   888   2063   2090
   903   2070   2228
   919   2077   2359
   934   2084   2485
   950   2090   2602
   881   2313   635
   884   2312   650
   891   2314   728
   899   2317   821
   908   2319   933
   919   2323   1065
   930   2328   1214
   942   2330   1376
   956   2337   1551
   970   2341   1724
   984   2346   1884
   1000   2352   2033
   1014   2358   2173
   1030   2363   2306
   1046   2369   2432
   1061   2374   2549
   1079   2379   2663
   1010   2590   756
   1015   2590   779
   1022   2592   855
   1031   2594   948
   1040   2594   1061
   1051   2599   1195
   1063   2602   1344
   1075   2605   1506
   1089   2608   1674
   1105   2614   1837
   1119   2617   1987
   1134   2621   2128
   1150   2625   2260
   1166   2629   2386
   1182   2633   2506
   1199   2637   2618
   1216   2641   2728
   1147   2839   881
   1152   2839   913
   1160   2840   989
   1168   2840   1083
   1178   2842   1199
   1190   2843   1332
   1202   2846   1482
   1216   2849   1640
   1231   2852   1798
   1245   2854   1949
   1261   2857   2090
   1277   2860   2223
   1293   2863   2350
   1309   2866   2471
   1326   2870   2582
   1344   2873   2692
   1361   2876   2793
   1288   3048   1010
   1295   3047   1053
   1302   3047   1128
   1312   3049   1226
   1322   3048   1342
   1334   3051   1478
   1348   3052   1625
   1362   3053   1774
   1377   3056   1921
   1392   3058   2062
   1408   3059   2195
   1425   3061   2321
   1442   3063   2442
   1460   3066   2554
   1476   3067   2662
   1494   3068   2764
   1513   3072   2861
   1433   3221   1143
   1442   3221   1195
   1450   3221   1274
   1460   3221   1373
   1470   3220   1493
   1483   3221   1625
   1497   3221   1763
   1512   3222   1902
   1528   3224   2041
   1543   3225   2172
   1560   3226   2299
   1576   3227   2417
   1593   3228   2530
   1610   3229   2637
   1628   3231   2738
   1647   3232   2836
   1664   3233   2926
   1584   3364   1279
   1592   3364   1343
   1602   3364   1426
   1611   3362   1528
   1623   3363   1646
   1635   3363   1771
   1649   3363   1901
   1663   3364   2033
   1679   3365   2161
   1694   3365   2285
   1709   3365   2403
   1726   3366   2515
   1743   3366   2621
   1759   3366   2722
   1775   3366   2819
   1792   3366   2907
   1810   3367   2991
   1735   3485   1424
   1744   3484   1504
   1752   3483   1589
   1762   3483   1689
   1774   3482   1800
   1786   3482   1918
   1799   3482   2041
   1813   3481   2162
   1827   3481   2284
   1843   3481   2400
   1859   3482   2511
   1874   3481   2615
   1891   3481   2715
   1905   3481   2809
   1922   3480   2899
   1939   3480   2979
   1957   3479   3056
   1883   3592   1600
   1891   3591   1669
   1900   3590   1751
   1910   3589   1848
   1922   3588   1953
   1934   3587   2063
   1947   3586   2179
   1962   3585   2295
   1976   3585   2408
   1991   3584   2517
   2005   3584   2619
   2020   3584   2718
   2036   3584   2810
   2052   3582   2896
   2068   3582   2976
   2085   3580   3053
   2101   3580   3125
   2026   3689   1762
   2035   3689   1828
   2045   3687   1909
   2054   3687   2002
   2065   3687   2104
   2078   3684   2208
   2092   3683   2319
   2105   3683   2426
   2119   3682   2532
   2133   3680   2632
   2147   3679   2728
   2164   3679   2818
   2179   3677   2903
   2195   3675   2982
   2211   3675   3055
   2227   3673   3125
   2243   3671   3190
   2165   3777   1917
   2175   3777   1983
   2183   3773   2062
   2195   3773   2154
   2207   3772   2250
   2218   3770   2351
   2230   3769   2454
   2244   3767   2555
   2258   3766   2654
   2274   3765   2746
   2289   3765   2835
   2304   3764   2917
   2318   3761   2993
   2336   3761   3066
   2351   3757   3131
   2367   3755   3194
   2385   3753   3253
   379   46   34
   380   46   34
   386   49   98
   392   53   194
   402   66   319
   413   78   456
   424   90   608
   435   102   775
   447   113   956
   461   129   1147
   473   144   1341
   487   160   1538
   500   177   1723
   514   192   1895
   529   210   2055
   543   225   2203
   558   243   2346
   470   398   98
   470   398   98
   477   403   188
   483   408   285
   490   415   402
   499   423   533
   509   432   683
   520   441   849
   531   452   1029
   544   463   1217
   557   474   1410
   570   486   1602
   583   498   1781
   597   509   1945
   611   521   2099
   624   534   2244
