Resources/LUT/Neo.3dl
# 17x17x17 .3dl lookup table from LUT Buddy
0 256 512 768 1023
   8   14   4
   16   22   263
   35   42   905
   68   86   1680
   114   150   2319
   289   1251   279
   305   1265   566
   341   1297   1188
   386   1337   1909
   434   1379   2472
   723   2571   714
   737   2572   1011
   768   2585   1625
   809   2600   2225
   852   2617   2701
   1237   3354   1229
   1251   3352   1582
   1344   3356   2114
   1423   3358   2588
   1493   3359   2970
   1938   3777   1873
   1965   3770   2199
   2002   3765   2608
   2054   3761   2962
   2113   3753   3233
   575   67   52
   601   102   351
   645   153   983
   698   217   1745
   757   281   2358
   913   1340   376
   940   1356   660
   986   1390   1280
   1044   1433   1977
   1107   1477   2519
   1388   2619   812
   1423   2626   1126
   1479   2639   1733
   1545   2655   2302
   1616   2670   2754
   1926   3377   1335
   1966   3375   1714
   2020   3376   2215
   2083   3378   2661
   2149   3379   3018
   2438   3783   1977
   2482   3777   2315
   2536   3770   2706
   2597   3765   3030
   2666   3757   3277
   1568   272   209
   1590   299   501
   1633   345   1123
   1682   399   1856
   1735   458   2434
   1858   1493   526
   1884   1509   814
   1926   1544   1428
   1977   1586   2084
   2031   1630   2593
   2217   2700   963
   2249   2706   1292
   2293   2719   1874
   2345   2735   2402
   2400   2751   2826
   2589   3408   1506
   2627   3408   1875
   2674   3410   2343
   2730   3411   2756
   2788   3411   3081
   2961   3798   2123
   3003   3792   2461
   3051   3785   2824
   3104   3777   3112
   3160   3767   3329
   2496   498   417
   2510   522   694
   2534   565   1307
   2567   616   1995
   2601   672   2529
   2668   1682   717
   2686   1699   1010
   2716   1732   1615
   2752   1772   2211
   2790   1812   2682
   2896   2800   1154
   2920   2808   1498
   2951   2822   2036
   2989   2837   2517
   3029   2852   2906
   3129   3451   1712
   3155   3450   2055
   3190   3451   2486
   3228   3452   2859
   3268   3452   3146
   3350   3820   2296
   3381   3813   2625
   3414   3805   2950
   3450   3795   3198
   3490   3782   3382
   3151   753   646
   3159   777   920
   3174   820   1521
   3192   872   2144
   3211   925   2631
   3240   1889   942
   3251   1907   1236
   3267   1938   1809
   3288   1974   2346
   3309   2011   2776
   3357   2916   1379
   3371   2921   1720
   3390   2934   2202
   3410   2950   2636
   3434   2963   2984
   3477   3501   1938
   3493   3499   2241
   3513   3500   2632
   3538   3501   2961
   3565   3501   3211
   3601   3845   2497
   3623   3837   2802
   3650   3826   3080
   3680   3809   3284
   3711   3785   3431
