Resources/LUT/Neo.3dl
# 17x17x17 .3dl lookup table from LUT Buddy
0 128 256 384 512 640 768 896 1023
   8   14   4
   11   16   54
   16   22   263
   24   30   555
   35   42   905
   49   57   1292
   68   86   1680
   90   116   2022
   114   150   2319
   111   599   103
   116   604   194
   127   614   408
   144   629   689
   166   650   1035
   191   670   1418
   216   692   1787
   242   716   2107
   269   739   2388
   289   1251   279
   293   1255   367
   305   1265   566
   322   1278   845
   341   1297   1188
   364   1317   1566
   386   1337   1909
   410   1358   2208
   434   1379   2472
   493   1975   484
   497   1977   569
   507   1983   769
   523   1992   1048
   541   2004   1389
   562   2018   1747
   583   2030   2058
   605   2046   2334
   627   2058   2579
   723   2571   714
   727   2571   808
   737   2572   1011
   751   2580   1292
   768   2585   1625
   789   2594   1945
   809   2600   2225
   830   2609   2476
   852   2617   2701
   974   3035   966
   978   3033   1075
   988   3033   1285
   1002   3036   1566
   1018   3038   1869
   1036   3041   2151
   1056   3045   2402
   1118   3050   2631
   1170   3057   2837
   1237   3354   1229
   1242   3354   1363
   1251   3352   1582
   1289   3353   1844
   1344   3356   2114
   1386   3356   2363
   1423   3358   2588
   1459   3358   2791
   1493   3359   2970
   1607   3587   1533
   1625   3585   1699
   1646   3584   1900
   1668   3582   2129
   1693   3581   2364
   1722   3580   2582
   1750   3579   2776
   1779   3577   2950
   1811   3576   3103
   1938   3777   1873
   1949   3773   2015
   1965   3770   2199
   1983   3767   2404
   2002   3765   2608
   2027   3763   2796
   2054   3761   2962
   2084   3757   3107
   2113   3753   3233
   196   31   20
   204   33   77
   219   40   292
   241   58   582
   268   84   934
   296   109   1320
   324   139   1705
   353   172   2040
   383   208   2333
   368   633   138
   375   639   232
   389   650   441
   408   666   720
   431   686   1066
   456   708   1447
   482   731   1813
   509   754   2124
   539   779   2402
   543   1287   319
   550   1291   404
   566   1302   604
   585   1316   884
   609   1335   1226
   635   1356   1599
   663   1376   1938
   691   1398   2231
   722   1420   2493
   759   2003   523
   768   2006   611
   784   2013   813
   806   2022   1094
   831   2033   1433
   859   2048   1784
   888   2063   2090
   919   2077   2359
   950   2090   2602
   1010   2590   756
   1022   2592   855
   1040   2594   1061
   1063   2602   1344
   1089   2608   1674
   1119   2617   1987
   1150   2625   2260
   1182   2633   2506
   1216   2641   2728
   1288   3048   1010
   1302   3047   1128
   1322   3048   1342
   1348   3052   1625
   1377   3056   1921
   1408   3059   2195
   1442   3063   2442
   1476   3067   2662
   1513   3072   2861
   1584   3364   1279
   1602   3364   1426
   1623   3363   1646
   1649   3363   1901
   1679   3365   2161
   1709   3365   2403
   1743   3366   2621
   1775   3366   2819
   1810   3367   2991
   1883   3592   1600
   1900   3590   1751
   1922   3588   1953
   1947   3586   2179
   1976   3585   2408
   2005   3584   2619
   2036   3584   2810
   2068   3582   2976
   2101   3580   3125
   2165   3777   1917
   2183   3773   2062
   2207   3772   2250
   2230   3769   2454
   2258   3766   2654
   2289   3765   2835
   2318   3761   2993
   2351   3757   3131
   2385   3753   3253
   575   67   52
   586   86   130
   601   102   351
   620   124   635
   645   153   983
   671   185   1366
   698   217   1745
   727   249   2071
   757   281   2358
   735   689   200
   743   694   290
   758   706   494
   778   722   773
   802   742   1116
   829   764   1495
   856   788   1851
   886   812   2156
   917   837   2433
   913   1340   376
   923   1346   462
   940   1356   660
   961   1372   939
   986   1390   1280
   1014   1412   1649
   1044   1433   1977
   1075   1454   2263
   1107   1477   2519
   1133   2043   579
   1144   2046   670
   1163   2054   873
   1186   2063   1154
   1214   2076   1491
   1244   2090   1833
   1276   2104   2131
   1309   2117   2393
   1343   2131   2629
   1388   2619   812
   1402   2621   917
   1423   2626   1126
   1448   2630   1408
   1479   2639   1733
   1511   2645   2035
   1545   2655   2302
   1580   2663   2540
   1616   2670   2754
   1663   3067   1067
   1680   3068   1194
   1702   3070   1411
   1728   3072   1690
   1757   3075   1976
   1788   3079   2242
   1821   3083   2481
   1855   3087   2695
   1889   3091   2888
   1926   3377   1335
   1943   3375   1495
   1966   3375   1714
   1992   3375   1963
   2020   3376   2215
   2051   3376   2451
   2083   3378   2661
   2115   3379   2852
   2149   3379   3018
   2185   3599   1667
   2205   3598   1818
   2227   3596   2017
   2253   3594   2239
   2283   3593   2463
   2313   3592   2666
   2343   3590   2849
   2376   3589   3009
   2411   3586   3149
   2438   3783   1977
   2458   3779   2128
   2482   3777   2315
   2509   3773   2512
   2536   3770   2706
   2567   3767   2879
   2597   3765   3030
   2631   3761   3162
   2666   3757   3277
   1039   164   116
   1047   176   209
   1062   195   421
   1082   217   702
   1106   245   1047
   1132   275   1429
   1160   304   1796
   1189   334   2114
   1220   366   2393
   1192   759   276
   1201   764   362
   1216   776   561
   1237   793   840
   1262   813   1181
   1289   836   1557
   1318   860   1901
   1349   884   2199
   1380   909   2465
   1369   1410   445
   1381   1415   531
   1398   1427   731
   1421   1442   1010
   1447   1462   1348
   1478   1483   1711
   1509   1504   2027
   1540   1527   2306
   1574   1548   2554
   1588   2094   648
   1599   2097   742
   1619   2105   947
   1643   2115   1227
   1670   2126   1563
   1700   2141   1892
   1730   2155   2179
   1762   2169   2435
   1795   2181   2664
   1819   2657   882
   1833   2658   992
   1853   2663   1203
   1876   2667   1485
   1902   2675   1800
   1932   2683   2090
   1962   2692   2350
   1993   2700   2580
   2024   2708   2788
   2047   3093   1138
   2063   3093   1273
   2084   3094   1493
   2105   3096   1764
   2133   3099   2040
   2163   3104   2297
   2192   3108   2527
   2223   3111   2734
   2255   3115   2920
   2268   3391   1406
   2285   3390   1577
   2307   3390   1791
   2332   3390   2034
   2359   3392   2278
   2387   3392   2503
   2418   3392   2707
   2448   3394   2889
   2481   3394   3048
   2491   3609   1742
   2510   3607   1893
   2532   3606   2090
   2558   3604   2308
   2585   3603   2521
   2614   3603   2717
   2644   3599   2892
   2674   3598   3045
   2709   3596   3177
   2709   3789   2048
   2730   3787   2201
   2754   3783   2384
   2781   3780   2577
   2809   3777   2763
   2837   3773   2927
   2868   3770   3070
   2900   3765   3194
   2931   3763   3302
   1568   272   209
   1576   282   299
   1590   299   501
   1609   320   781
   1633   345   1123
   1656   371   1501
   1682   399   1856
   1709   428   2163
   1735   458   2434
   1706   842   360
   1714   847   444
   1729   860   642
   1748   877   920
   1770   897   1258
   1795   921   1629
   1820   944   1959
   1847   968   2247
   1874   994   2505
   1858   1493   526
   1868   1497   613
   1884   1509   814
   1904   1525   1092
   1926   1544   1428
   1951   1565   1779
   1977   1586   2084
   2004   1607   2352
   2031   1630   2593
   2033   2154   729
   2044   2157   827
   2060   2164   1033
   2080   2174   1313
   2103   2186   1643
   2128   2199   1958
   2155   2214   2234
   2181   2227   2480
   2210   2242   2701
   2217   2700   963
   2231   2701   1079
   2249   2706   1292
   2271   2713   1574
   2293   2719   1874
   2318   2727   2153
   2345   2735   2402
   2373   2743   2625
   2400   2751   2826
   2406   3120   1218
   2420   3120   1362
   2440   3123   1584
   2461   3125   1845
   2487   3129   2111
   2512   3133   2357
   2538   3136   2577
   2567   3140   2777
   2595   3142   2953
   2589   3408   1506
   2607   3408   1667
   2627   3408   1875
   2650   3409   2108
   2674   3410   2343
   2702   3411   2561
   2730   3411   2756
   2759   3412   2929
   2788   3411   3081
   2780   3621   1822
   2799   3619   1976
   2820   3617   2169
   2843   3615   2378
   2868   3615   2585
   2894   3613   2772
   2921   3611   2936
   2949   3609   3082
   2978   3606   3207
   2961   3798   2123
   2980   3795   2280
   3003   3792   2461
   3026   3788   2648
   3051   3785   2824
   3077   3781   2977
   3104   3777   3112
   3132   3772   3227
   3160   3767   3329
   2069   383   311
   2075   392   396
   2084   407   593
   2102   427   871
   2117   450   1210
   2137   475   1584
   2156   502   1923
   2177   530   2217
   2202   560   2480
   2172   936   452
   2178   942   535
   2190   955   732
   2206   972   1009
   2223   993   1346
   2243   1016   1706
   2264   1040   2024
   2286   1064   2302
   2309   1090   2548
   2291   1584   617
   2299   1590   706
   2312   1601   908
   2329   1617   1185
   2348   1636   1519
   2367   1656   1853
   2390   1676   2145
   2412   1697   2403
   2436   1718   2637
   2429   2219   820
   2439   2223   922
   2454   2231   1129
   2472   2241   1409
   2491   2253   1728
   2513   2266   2028
   2535   2279   2295
   2557   2293   2530
   2584   2306   2744
   2578   2748   1055
   2591   2751   1176
   2607   2756   1391
   2625   2761   1668
   2646   2770   1953
   2667   2776   2220
   2690   2783   2459
   2715   2791   2672
   2740   2801   2866
   2732   3151   1307
   2746   3152   1463
   2764   3155   1683
   2784   3158   1931
   2804   3161   2184
   2827   3164   2419
   2851   3168   2631
   2876   3172   2822
   2901   3175   2990
   2883   3428   1607
   2898   3428   1762
   2917   3428   1965
   2937   3428   2189
   2958   3428   2415
   2981   3429   2620
   3005   3430   2807
   3028   3431   2970
   3054   3431   3112
   3033   3635   1908
   3049   3633   2062
   3068   3631   2252
   3088   3631   2456
   3110   3629   2651
   3132   3627   2829
   3155   3625   2985
   3178   3623   3120
   3203   3620   3237
   3176   3809   2208
   3192   3804   2363
   3211   3801   2540
   3232   3798   2721
   3253   3795   2887
   3274   3790   3030
   3297   3786   3153
   3321   3780   3262
   3346   3774   3355
   2496   498   417
   2501   507   498
   2510   522   694
   2521   542   970
   2534   565   1307
   2550   590   1672
   2567   616   1995
   2584   643   2277
   2601   672   2529
   2575   1040   552
   2580   1047   635
   2590   1060   833
   2603   1078   1108
   2617   1099   1441
   2633   1122   1789
   2651   1147   2091
   2668   1171   2356
   2689   1196   2595
   2668   1682   717
   2675   1688   809
   2686   1699   1010
   2701   1714   1286
   2716   1732   1615
   2733   1751   1931
   2752   1772   2211
   2771   1792   2459
   2790   1812   2682
   2779   2290   921
   2788   2294   1026
   2799   2302   1234
   2814   2311   1511
   2831   2324   1817
   2849   2336   2102
   2868   2350   2354
   2887   2361   2582
   2908   2375   2788
   2896   2800   1154
   2907   2804   1283
   2920   2808   1498
   2934   2814   1764
   2951   2822   2036
   2970   2830   2290
   2989   2837   2517
   3008   2844   2721
   3029   2852   2906
   3013   3187   1411
   3025   3188   1570
   3040   3190   1781
   3056   3192   2019
   3073   3196   2260
   3091   3199   2485
   3110   3203   2687
   3130   3207   2869
   3150   3209   3026
   3129   3451   1712
   3141   3449   1859
   3155   3450   2055
   3172   3451   2272
   3190   3451   2486
   3208   3452   2683
   3228   3452   2859
   3248   3453   3012
   3268   3452   3146
   3241   3653   2000
   3255   3651   2153
   3271   3649   2338
   3288   3648   2533
   3304   3645   2720
   3323   3643   2888
   3342   3641   3032
   3362   3639   3157
   3382   3636   3266
   3350   3820   2296
   3364   3816   2453
   3381   3813   2625
   3398   3809   2798
   3414   3805   2950
   3433   3800   3083
   3450   3795   3198
   3470   3788   3294
   3490   3782   3382
   2861   621   528
   2865   630   608
   2872   646   803
   2881   665   1078
   2892   688   1411
   2903   714   1762
   2915   740   2068
   2929   766   2338
   2944   794   2580
   2919   1155   660
   2923   1162   744
   2931   1175   941
   2941   1192   1214
   2952   1214   1543
   2964   1238   1873
   2978   1262   2159
   2991   1287   2413
   3005   1311   2643
   2989   1785   826
   2993   1790   919
   3001   1802   1120
   3012   1816   1394
   3026   1833   1712
   3038   1852   2012
   3053   1871   2278
   3067   1891   2516
   3083   1910   2729
   3070   2365   1029
   3076   2369   1138
   3086   2376   1345
   3097   2387   1619
   3110   2399   1907
   3124   2412   2178
   3137   2424   2419
   3153   2436   2636
   3168   2450   2831
   3155   2857   1261
   3163   2859   1395
   3172   2863   1610
   3185   2871   1861
   3198   2877   2118
   3213   2885   2360
   3227   2893   2576
   3243   2900   2772
   3258   2907   2945
   3241   3224   1544
   3251   3224   1680
   3262   3226   1881
   3275   3230   2107
   3287   3234   2338
   3301   3237   2551
   3317   3240   2744
   3332   3243   2915
   3349   3247   3064
   3325   3475   1822
   3335   3474   1958
   3346   3474   2147
   3360   3474   2355
   3374   3475   2559
   3389   3476   2746
   3403   3476   2911
   3418   3476   3055
   3434   3476   3179
   3409   3671   2100
   3417   3668   2245
   3430   3666   2427
   3444   3666   2614
   3458   3664   2789
   3472   3662   2945
   3487   3658   3079
   3503   3656   3196
   3519   3652   3296
   3487   3833   2385
   3499   3830   2544
   3513   3825   2711
   3525   3821   2875
   3540   3816   3014
   3557   3810   3135
   3574   3803   3241
   3591   3795   3329
   3609   3787   3406
   3151   753   646
   3153   762   725
   3159   777   920
   3167   797   1191
   3174   820   1521
   3182   845   1852
   3192   872   2144
   3201   898   2400
   3211   925   2631
   3191   1278   777
   3195   1285   861
   3200   1299   1056
   3208   1317   1327
   3216   1338   1649
   3225   1361   1958
   3236   1386   2230
   3245   1411   2474
   3257   1438   2694
   3240   1889   942
   3245   1895   1036
   3251   1907   1236
   3259   1920   1507
   3267   1938   1809
   3279   1955   2092
   3288   1974   2346
   3298   1992   2571
   3309   2011   2776
   3295   2445   1143
   3300   2450   1256
   3308   2457   1462
   3316   2467   1725
   3326   2477   1996
   3337   2490   2253
   3348   2503   2484
   3360   2514   2689
   3372   2527   2876
   3357   2916   1379
   3363   2917   1514
   3371   2921   1720
   3381   2928   1959
   3390   2934   2202
   3401   2941   2430
   3410   2950   2636
   3422   2956   2821
   3434   2963   2984
   3418   3264   1670
   3423   3264   1789
   3432   3266   1982
   3442   3268   2197
   3453   3272   2415
   3463   3275   2616
   3475   3279   2799
   3487   3281   2960
   3500   3285   3099
   3477   3501   1938
   3485   3499   2058
   3493   3499   2241
   3504   3500   2440
   3513   3500   2632
   3526   3501   2809
   3538   3501   2961
   3552   3501   3096
   3565   3501   3211
   3538   3690   2214
   3546   3690   2343
   3558   3686   2516
   3569   3685   2693
   3581   3684   2860
   3594   3680   3002
   3605   3676   3125
   3621   3674   3231
   3635   3670   3323
   3601   3845   2497
   3611   3841   2639
   3623   3837   2802
   3637   3831   2951
   3650   3826   3080
   3664   3819   3191
   3680   3809   3284
   3694   3799   3365
   3711   3785   3431
