Resources/LUT/Night Vision.3dl
# 17x17x17 .3dl lookup table from LUT Buddy
   0   64   128   192   256   320   384   448   512   576   640   704   768   832   896   960   1023
   0   0   0
   24   111   35
   473   1083   586
   674   1460   821
   816   1725   985
   925   1929   1112
   1019   2106   1223
   1124   2301   1343
   1238   2515   1476
   1359   2742   1617
   1483   2974   1762
   1607   3141   1906
   1736   3288   2056
   1865   3420   2205
   1990   3533   2352
   2111   3631   2494
   2235   3715   2635
   288   737   372
   288   736   372
   708   1523   860
   886   1857   1067
   1013   2094   1215
   1114   2283   1332
   1199   2444   1432
   1296   2624   1544
   1401   2821   1666
   1515   3026   1799
   1632   3171   1935
   1751   3304   2072
   1873   3427   2214
   1995   3536   2355
   2114   3631   2496
   2234   3714   2634
   2350   3783   2770
   438   1016   546
   438   1016   546
   811   1716   980
   982   2035   1178
   1104   2264   1321
   1201   2446   1434
   1284   2602   1531
   1377   2777   1638
   1478   2965   1756
   1589   3119   1885
   1703   3252   2018
   1820   3375   2153
   1937   3486   2289
   2058   3589   2430
   2175   3675   2568
   2290   3749   2700
   2406   3813   2834
   525   1180   648
   525   1180   648
   877   1840   1057
   1043   2150   1250
   1162   2374   1389
   1257   2552   1500
   1338   2703   1593
   1429   2873   1698
   1528   3043   1813
   1635   3176   1939
   1749   3301   2070
   1863   3417   2202
   1979   3523   2338
   2096   3619   2475
   2214   3701   2612
   2329   3771   2745
   2442   3831   2876
   589   1301   722
   589   1301   722
   928   1935   1116
   1090   2238   1305
   1207   2458   1441
   1301   2633   1550
   1380   2781   1641
   1469   2948   1745
   1567   3093   1859
   1673   3219   1983
   1784   3339   2111
   1896   3449   2242
   2013   3552   2376
   2127   3642   2512
   2243   3721   2647
   2357   3787   2777
   2470   3844   2909
   634   1384   774
   633   1382   773
   966   2007   1160
   1125   2303   1345
   1240   2520   1479
   1332   2692   1587
   1410   2838   1677
   1498   3000   1779
   1595   3127   1892
   1701   3250   2015
   1810   3366   2141
   1922   3473   2271
   2036   3571   2404
   2151   3658   2539
   2266   3734   2672
   2379   3800   2804
   2489   3853   2933
   681   1472   829
   681   1472   829
   1012   2092   1214
   1166   2380   1392
   1278   2590   1523
   1369   2760   1628
   1446   2904   1718
   1533   3050   1820
   1629   3167   1931
   1733   3285   2052
   1841   3397   2178
   1952   3500   2306
   2064   3593   2437
   2178   3678   2571
   2294   3750   2703
   2404   3813   2832
   2515   3864   2961
   741   1585   899
   765   1629   926
   1072   2204   1283
   1220   2481   1455
   1328   2684   1581
   1415   2848   1683
   1491   2989   1771
   1579   3106   1872
   1673   3219   1983
   1775   3329   2101
   1883   3437   2225
   1993   3535   2354
   2102   3623   2482
   2215   3703   2614
   2329   3771   2745
   2439   3829   2873
   2548   3878   2999
   814   1723   984
   889   1863   1071
   1145   2341   1368
   1285   2603   1531
   1390   2800   1653
   1474   2959   1752
   1549   3070   1838
   1634   3173   1937
   1728   3279   2046
   1830   3386   2164
   1935   3484   2285
   2042   3576   2412
   2151   3659   2539
   2263   3733   2670
   2374   3796   2798
   2483   3850   2924
   2588   3895   3035
   897   1877   1080
   1008   2085   1209
   1231   2501   1468
   1362   2747   1620
   1463   2937   1738
   1543   3063   1832
   1617   3153   1917
   1701   3250   2015
   1792   3347   2121
   1894   3447   2239
   1997   3538   2358
   2102   3623   2481
   2210   3698   2607
   2320   3766   2734
   2428   3824   2862
   2535   3873   2985
   2641   3915   3078
   989   2049   1187
   1131   2315   1353
   1327   2682   1580
   1449   2911   1722
   1545   3065   1834
   1621   3159   1923
   1695   3242   2007
   1777   3332   2104
   1868   3423   2209
   1966   3512   2323
   2069   3597   2442
   2171   3672   2563
   2278   3741   2687
   2390   3804   2816
   2501   3859   2947
   2611   3903   3053
   2717   3940   3135
   1087   2232   1301
   1260   2557   1502
   1433   2881   1703
   1546   3065   1834
   1636   3175   1939
   1707   3257   2023
   1780   3335   2107
   1861   3417   2201
   1952   3500   2306
   2051   3583   2421
   2155   3660   2541
   2262   3731   2668
   2370   3795   2792
   2481   3849   2922
   2587   3895   3034
   2691   3932   3115
   2796   3965   3192
   1194   2431   1424
   1394   2807   1658
   1547   3068   1836
   1652   3194   1958
   1736   3288   2056
   1805   3360   2136
   1882   3435   2224
   1969   3515   2326
   2062   3592   2435
   2160   3665   2549
   2260   3730   2665
   2362   3789   2784
   2467   3843   2906
   2572   3889   3024
   2676   3928   3104
   2778   3959   3180
   2878   3985   3251
   1306   2642   1555
   1540   3057   1827
   1680   3225   1990
   1779   3335   2106
   1860   3414   2199
   1928   3478   2278
   2002   3543   2365
   2083   3608   2460
   2175   3675   2567
   2269   3736   2676
   2368   3793   2790
   2468   3843   2906
   2567   3888   3020
   2671   3925   3099
   2771   3957   3175
   2869   3983   3244
   2966   4006   3310
   1448   2907   1721
   1698   3246   2012
   1818   3374   2151
   1910   3461   2257
   1983   3527   2341
   2046   3578   2416
   2119   3635   2501
   2201   3693   2597
   2289   3749   2700
   2382   3801   2806
   2478   3847   2918
   2576   3890   3024
   2673   3927   3103
   2773   3958   3175
   2870   3983   3246
   2968   4006   3310
   3045   4024   3371
   1689   3237   2002
   1851   3406   2190
   1955   3502   2309
   2037   3572   2405
   2103   3623   2481
   2167   3669   2557
   2239   3718   2641
   2322   3767   2736
   2406   3813   2837
   2498   3857   2942
   2592   3896   3038
   2687   3930   3112
   2784   3961   3184
   2880   3987   3252
   2976   4006   3316
   3049   4024   3375
   3112   4039   3432
   1864   3419   2203
   1999   3540   2359
   2089   3611   2466
   2164   3667   2552
   2223   3707   2623
   2288   3748   2699
   2363   3790   2784
   2443   3831   2878
   2528   3870   2978
   2619   3907   3059
   2710   3938   3129
   2804   3967   3198
   2897   3991   3264
   2992   4010   3326
   3059   4028   3385
   3120   4040   3438
   3177   4051   3491
   6   30   9
   7   32   10
   487   1109   603
   689   1489   839
   831   1753   1004
   942   1960   1131
   1036   2136   1241
   1139   2331   1362
   1252   2543   1493
   1376   2773   1636
   1500   3002   1781
   1626   3164   1928
   1754   3308   2076
   1882   3436   2225
   2007   3548   2370
   2132   3644   2516
   2250   3724   2654
   318   793   407
   320   796   409
   728   1560   883
   906   1893   1089
   1034   2132   1239
   1134   2320   1355
   1219   2480   1455
   1315   2659   1567
   1421   2859   1689
   1534   3049   1820
   1652   3195   1958
   1770   3325   2095
   1892   3445   2236
   2013   3552   2377
   2133   3646   2517
   2251   3725   2654
   2369   3794   2790
   470   1077   583
   471   1079   585
   836   1762   1009
   1006   2081   1207
   1128   2309   1349
   1226   2491   1462
   1308   2646   1558
   1400   2818   1665
   1502   3004   1784
   1612   3146   1911
   1725   3276   2043
   1842   3397   2178
   1959   3505   2314
   2078   3605   2454
   2198   3690   2592
   2314   3763   2728
   2426   3824   2860
   562   1249   690
   563   1251   691
   907   1895   1091
   1071   2203   1282
   1191   2428   1421
   1285   2605   1532
   1366   2754   1625
   1457   2924   1731
   1556   3078   1846
   1664   3207   1972
   1774   3328   2100
   1889   3443   2233
   2005   3545   2368
   2123   3637   2506
   2240   3718   2642
   2354   3785   2774
   2468   3844   2906
   629   1375   768
   630   1378   770
   963   2000   1156
   1123   2300   1343
   1240   2519   1479
   1332   2692   1587
   1412   2840   1678
   1501   3004   1782
   1598   3130   1895
   1705   3254   2020
   1815   3370   2147
   1928   3478   2278
   2042   3575   2411
   2160   3664   2548
   2274   3740   2682
   2386   3803   2814
   2499   3858   2943
   677   1465   824
   678   1466   825
   1006   2080   1206
   1163   2375   1389
   1277   2588   1522
   1369   2761   1630
   1447   2907   1720
   1536   3052   1822
   1632   3170   1934
   1737   3290   2057
   1846   3401   2183
   1957   3504   2312
   2070   3598   2444
   2187   3683   2580
   2302   3756   2714
   2414   3817   2844
   2521   3868   2971
   729   1563   885
   731   1566   887
   1057   2176   1267
   1208   2461   1442
   1320   2669   1572
   1410   2838   1677
   1487   2982   1766
   1573   3100   1866
   1669   3214   1978
   1773   3328   2099
   1881   3435   2223
   1991   3534   2352
   2103   3623   2483
   2217   3703   2615
   2330   3773   2748
   2442   3830   2877
   2552   3880   3005
   794   1683   960
   838   1767   1012
   1123   2298   1342
   1266   2568   1510
   1374   2772   1635
   1461   2932   1736
   1537   3054   1824
   1623   3160   1924
   1718   3269   2034
   1821   3376   2153
   1928   3478   2278
   2036   3571   2404
   2146   3655   2533
   2259   3729   2663
   2371   3794   2794
   2480   3849   2921
   2589   3895   3036
   870   1825   1047
   957   1990   1150
   1199   2443   1432
   1336   2699   1591
   1440   2894   1712
   1523   3037   1808
   1598   3131   1896
   1683   3229   1994
   1777   3331   2102
   1878   3431   2220
   1983   3527   2343
   2089   3613   2468
   2200   3691   2595
   2309   3760   2723
   2419   3820   2852
   2529   3871   2978
   2634   3912   3072
   955   1987   1147
   1077   2213   1289
   1289   2611   1536
   1417   2851   1685
   1517   3026   1801
   1596   3128   1893
   1670   3215   1979
   1754   3307   2076
   1846   3401   2183
   1945   3493   2298
   2049   3581   2419
   2154   3660   2541
   2260   3730   2666
   2372   3794   2796
   2479   3849   2920
   2586   3894   3034
   2692   3933   3115
   1049   2161   1257
   1202   2447   1435
   1389   2797   1652
   1507   3014   1790
   1602   3135   1900
   1678   3223   1988
   1751   3304   2073
   1834   3390   2170
   1926   3476   2275
   2024   3560   2390
   2125   3638   2508
   2227   3709   2628
   2333   3775   2751
   2442   3831   2877
   2548   3879   2998
   2652   3919   3086
   2754   3953   3162
   1149   2348   1373
   1331   2689   1585
   1497   2997   1779
   1608   3143   1907
   1697   3245   2010
   1768   3322   2092
   1841   3396   2177
   1923   3473   2272
   2013   3552   2377
   2110   3628   2491
   2209   3697   2605
   2310   3761   2724
   2415   3818   2845
   2520   3866   2968
   2625   3909   3064
   2727   3944   3142
   2827   3973   3215
   1259   2555   1501
   1466   2944   1742
   1615   3151   1915
   1717   3268   2034
   1800   3356   2131
   1869   3424   2210
   1941   3489   2294
   2022   3559   2387
   2112   3629   2492
   2206   3696   2603
   2303   3756   2716
   2403   3812   2832
   2505   3861   2949
   2609   3903   3053
   2710   3938   3129
   2810   3968   3202
   2908   3993   3270
   1372   2768   1633
   1608   3141   1906
   1738   3291   2058
   1833   3388   2168
   1910   3463   2258
   1976   3520   2333
   2048   3580   2418
   2128   3642   2513
   2217   3703   2615
   2310   3760   2724
   2405   3813   2836
   2505   3860   2950
   2604   3901   3048
   2704   3936   3126
   2803   3965   3197
   2900   3991   3265
   2995   4012   3330
   1549   3070   1838
   1752   3305   2073
   1866   3421   2206
   1954   3501   2308
   2023   3560   2389
   2087   3611   2464
   2161   3664   2549
   2241   3717   2642
   2329   3771   2745
   2419   3820   2851
   2514   3864   2961
   2609   3903   3052
   2708   3938   3128
   2806   3967   3199
   2901   3991   3265
   2993   4010   3328
   3063   4028   3387
   1745   3297   2065
   1896   3449   2241
   1995   3538   2357
   2075   3602   2450
   2139   3649   2524
   2204   3694   2599
   2277   3741   2686
   2358   3787   2779
   2445   3833   2880
   2534   3872   2984
   2626   3910   3065
   2720   3942   3136
   2815   3969   3206
   2909   3993   3271
   3004   4012   3336
   3067   4028   3391
   3126   4042   3446
   1910   3463   2258
   2037   3571   2405
   2124   3639   2508
   2196   3691   2593
   2255   3728   2662
   2323   3768   2739
   2396   3807   2822
   2477   3848   2917
   2564   3885   3016
   2651   3919   3085
   2742   3948   3153
   2834   3975   3220
   2928   3997   3284
   3015   4016   3344
   3077   4031   3401
   3136   4043   3454
   3191   4053   3503
   90   343   130
   90   344   130
   572   1269   702
   766   1631   927
   901   1885   1085
   1007   2083   1208
   1099   2256   1315
   1201   2446   1434
   1311   2653   1562
   1430   2875   1700
   1552   3073   1842
   1675   3219   1984
   1799   3354   2129
   1926   3476   2275
   2050   3582   2419
   2170   3672   2562
   2290   3749   2700
   421   985   526
   421   987   527
   799   1694   966
   971   2015   1166
   1095   2246   1309
   1192   2430   1424
   1275   2586   1520
   1369   2760   1629
   1471   2953   1747
   1581   3110   1876
   1696   3244   2010
   1814   3369   2145
   1932   3482   2283
   2051   3584   2422
   2171   3672   2561
   2287   3747   2697
   2401   3810   2829
   556   1238   684
   557   1239   684
   902   1885   1085
   1066   2194   1277
   1186   2416   1415
   1280   2594   1525
   1360   2744   1618
   1450   2912   1723
   1549   3070   1839
   1657   3200   1964
   1768   3322   2093
   1882   3436   2225
   1999   3540   2361
   2116   3633   2499
   2233   3714   2633
   2347   3781   2767
   2459   3840   2898
   639   1394   781
   640   1396   781
   968   2011   1163
   1129   2312   1349
   1245   2528   1484
   1338   2701   1592
   1416   2849   1684
   1504   3009   1786
   1601   3134   1899
   1707   3257   2022
   1817   3372   2149
   1928   3479   2279
   2043   3576   2412
   2160   3664   2549
   2275   3739   2682
   2387   3803   2814
   2499   3858   2943
   701   1510   852
   702   1511   853
   1022   2111   1225
   1178   2404   1406
   1292   2615   1539
   1382   2786   1644
   1459   2930   1734
   1547   3067   1835
   1642   3182   1947
   1747   3299   2068
   1855   3410   2194
   1965   3511   2321
   2079   3605   2454
   2193   3687   2586
   2308   3760   2720
   2419   3821   2850
   2529   3870   2978
   744   1591   902
   745   1591   903
   1063   2188   1273
   1216   2474   1450
   1327   2682   1580
   1416   2850   1684
   1493   2993   1773
   1579   3106   1873
   1674   3220   1984
   1777   3331   2104
   1884   3438   2227
   1993   3536   2354
   2105   3624   2484
   2221   3706   2619
   2332   3774   2750
   2444   3832   2879
   2553   3880   3005
   792   1680   958
   793   1682   958
   1112   2279   1330
   1258   2553   1501
   1368   2758   1627
   1455   2922   1729
   1531   3047   1817
   1615   3151   1916
   1710   3260   2025
   1812   3368   2144
   1918   3470   2266
   2027   3564   2394
   2137   3647   2522
   2250   3724   2653
   2362   3790   2785
   2472   3846   2911
   2580   3892   3028
   852   1792   1027
   911   1904   1096
   1174   2395   1402
   1314   2659   1566
   1420   2856   1688
   1504   3009   1787
   1579   3107   1873
   1664   3208   1972
   1757   3310   2079
   1859   3414   2198
   1964   3511   2320
   2070   3598   2445
   2180   3678   2572
   2290   3748   2700
   2401   3811   2830
   2509   3862   2955
   2617   3906   3058
   923   1925   1110
   1021   2109   1224
   1250   2538   1490
   1382   2786   1644
   1484   2976   1762
   1565   3090   1857
   1639   3179   1943
   1722   3273   2040
   1815   3370   2147
   1915   3466   2263
   2019   3556   2384
   2124   3638   2507
   2231   3712   2632
   2341   3778   2760
   2450   3835   2887
   2556   3883   3008
   2662   3922   3093
   1004   2078   1205
   1134   2321   1356
   1337   2701   1592
   1461   2934   1736
   1558   3081   1849
   1635   3174   1938
   1709   3259   2024
   1792   3347   2120
   1883   3436   2225
   1982   3525   2341
   2083   3608   2459
   2187   3682   2579
   2292   3751   2703
   2401   3811   2830
   2508   3862   2953
   2613   3904   3055
   2718   3941   3136
   1095   2247   1310
   1257   2551   1499
   1434   2883   1705
   1551   3072   1840
   1642   3183   1947
   1716   3266   2032
   1789   3344   2117
   1871   3425   2212
   1961   3508   2317
   2058   3588   2430
   2157   3662   2546
   2260   3730   2666
   2364   3791   2787
   2472   3845   2910
   2575   3889   3025
   2679   3928   3105
   2779   3960   3180
   1192   2429   1423
   1382   2786   1644
   1541   3060   1830
   1649   3190   1954
   1734   3287   2054
   1803   3360   2134
   1876   3430   2219
   1958   3505   2313
   2047   3580   2417
   2142   3651   2528
   2241   3719   2642
   2341   3779   2760
   2444   3832   2880
   2548   3878   2998
   2651   3919   3085
   2751   3951   3159
   2850   3979   3231
   1297   2627   1545
   1514   3023   1798
   1657   3200   1964
   1756   3309   2079
   1837   3392   2172
   1902   3455   2248
   1975   3520   2333
   2055   3586   2426
   2144   3653   2530
   2237   3716   2638
   2334   3774   2750
   2433   3826   2866
   2533   3872   2981
   2635   3913   3071
   2735   3946   3149
   2833   3975   3219
   2930   3998   3286
   1409   2835   1675
   1653   3195   1959
   1777   3331   2103
   1870   3424   2210
   1944   3493   2297
   2008   3548   2371
   2080   3605   2456
   2160   3664   2549
   2248   3723   2651
   2341   3778   2759
   2434   3828   2867
   2532   3871   2979
   2630   3911   3068
   2728   3944   3142
   2826   3973   3214
   2921   3996   3281
   3014   4016   3342
   1615   3150   1914
   1794   3350   2123
   1903   3455   2249
   1987   3530   2346
   2054   3585   2425
   2118   3634   2500
   2191   3686   2584
   2270   3737   2677
   2357   3787   2780
   2449   3834   2885
   2541   3876   2992
   2636   3913   3074
   2732   3946   3146
   2828   3973   3216
   2923   3996   3281
   3014   4016   3343
   3077   4031   3401
   1792   3347   2121
   1934   3484   2286
   2030   3566   2397
   2107   3626   2487
   2168   3671   2560
   2233   3713   2634
   2307   3758   2720
   2386   3803   2812
   2473   3846   2913
   2562   3884   3013
   2652   3919   3085
   2746   3950   3156
   2841   3977   3225
   2934   3998   3289
   3020   4016   3348
   3081   4032   3405
   3140   4045   3458
   1954   3502   2308
   2073   3599   2446
   2158   3663   2545
   2227   3709   2627
   2285   3746   2694
   2351   3784   2770
   2425   3823   2857
   2507   3861   2952
   2592   3896   3038
   2678   3929   3106
   2769   3957   3173
   2860   3981   3238
   2951   4002   3300
   3033   4020   3359
   3093   4034   3414
   3148   4046   3464
   3201   4055   3513
   165   507   229
   166   508   230
   620   1360   758
   809   1712   977
   944   1965   1134
   1049   2162   1257
   1140   2331   1362
   1238   2517   1477
   1346   2719   1603
   1463   2938   1738
   1584   3113   1879
   1706   3256   2021
   1829   3384   2163
   1953   3501   2307
   2076   3603   2452
   2194   3688   2589
   2316   3763   2730
   480   1096   594
   480   1096   595
   841   1773   1015
   1010   2089   1212
   1132   2318   1353
   1229   2499   1466
   1311   2652   1561
   1403   2823   1668
   1504   3007   1785
   1612   3147   1911
   1726   3277   2044
   1841   3396   2177
   1958   3505   2313
   2077   3604   2452
   2195   3688   2589
   2311   3761   2725
