Resources/LUT/Night Vision.3dl
# 17x17x17 .3dl lookup table from LUT Buddy
0 256 512 768 1023
   0   0   0
   816   1725   985
   1238   2515   1476
   1736   3288   2056
   2235   3715   2635
   589   1301   722
   1207   2458   1441
   1567   3093   1859
   2013   3552   2376
   2470   3844   2909
   814   1723   984
   1390   2800   1653
   1728   3279   2046
   2151   3659   2539
   2588   3895   3035
   1194   2431   1424
   1736   3288   2056
   2062   3592   2435
   2467   3843   2906
   2878   3985   3251
   1864   3419   2203
   2223   3707   2623
   2528   3870   2978
   2897   3991   3264
   3177   4051   3491
   227   621   300
   979   2030   1175
   1375   2771   1636
   1852   3407   2189
   2331   3773   2748
   784   1665   949
   1355   2735   1612
   1697   3245   2011
   2124   3638   2506
   2567   3886   3019
   993   2056   1191
   1544   3063   1832
   1867   3422   2208
   2277   3741   2685
   2698   3935   3121
   1352   2729   1609
   1890   3443   2234
   2194   3688   2588
   2576   3890   3026
   2965   4006   3309
   2027   3564   2395
   2334   3774   2753
   2640   3915   3076
   2993   4010   3328
   3223   4059   3530
   422   987   527
   1092   2242   1307
   1468   2947   1744
   1926   3476   2276
   2394   3807   2822
   900   1882   1083
   1448   2909   1721
   1778   3334   2105
   2192   3687   2587
   2626   3910   3065
   1097   2251   1313
   1639   3179   1944
   1954   3502   2308
   2351   3784   2772
   2762   3954   3168
   1518   3029   1802
   1985   3528   2345
   2287   3747   2697
   2660   3922   3091
   3027   4018   3354
   2164   3667   2553
   2439   3829   2874
   2749   3951   3158
   3064   4028   3389
   3271   4065   3572
   647   1408   789
   1248   2533   1488
   1603   3136   1900
   2038   3573   2406
   2489   3854   2933
   1057   2176   1266
   1579   3106   1873
   1896   3448   2241
   2293   3751   2704
   2711   3939   3131
   1243   2524   1482
   1772   3327   2097
   2075   3602   2451
   2459   3839   2896
   2853   3980   3233
   1741   3293   2062
   2118   3635   2500
   2417   3819   2849
   2776   3959   3179
   3094   4034   3415
   2332   3773   2749
   2588   3895   3036
   2898   3990   3264
   3154   4046   3469
   3334   4073   3624
   914   1909   1100
   1451   2915   1724
   1781   3335   2107
   2192   3686   2585
   2621   3907   3061
   1257   2551   1499
   1749   3303   2070
   2048   3581   2418
   2428   3824   2860
   2824   3973   3214
   1445   2904   1717
   1941   3490   2293
   2229   3711   2630
   2593   3897   3039
   2967   4005   3309
   2005   3544   2367
   2282   3745   2692
   2577   3890   3026
   2917   3994   3277
   3168   4050   3482
   2539   3875   2991
   2774   3958   3177
   3057   4026   3382
   3248   4063   3552
   3397   4079   3677
