Resources/LUT/Night Vision.3dl
# 17x17x17 .3dl lookup table from LUT Buddy
0 128 256 384 512 640 768 896 1023
   0   0   0
   473   1083   586
   816   1725   985
   1019   2106   1223
   1238   2515   1476
   1483   2974   1762
   1736   3288   2056
   1990   3533   2352
   2235   3715   2635
   438   1016   546
   811   1716   980
   1104   2264   1321
   1284   2602   1531
   1478   2965   1756
   1703   3252   2018
   1937   3486   2289
   2175   3675   2568
   2406   3813   2834
   589   1301   722
   928   1935   1116
   1207   2458   1441
   1380   2781   1641
   1567   3093   1859
   1784   3339   2111
   2013   3552   2376
   2243   3721   2647
   2470   3844   2909
   681   1472   829
   1012   2092   1214
   1278   2590   1523
   1446   2904   1718
   1629   3167   1931
   1841   3397   2178
   2064   3593   2437
   2294   3750   2703
   2515   3864   2961
   814   1723   984
   1145   2341   1368
   1390   2800   1653
   1549   3070   1838
   1728   3279   2046
   1935   3484   2285
   2151   3659   2539
   2374   3796   2798
   2588   3895   3035
   989   2049   1187
   1327   2682   1580
   1545   3065   1834
   1695   3242   2007
   1868   3423   2209
   2069   3597   2442
   2278   3741   2687
   2501   3859   2947
   2717   3940   3135
   1194   2431   1424
   1547   3068   1836
   1736   3288   2056
   1882   3435   2224
   2062   3592   2435
   2260   3730   2665
   2467   3843   2906
   2676   3928   3104
   2878   3985   3251
   1448   2907   1721
   1818   3374   2151
   1983   3527   2341
   2119   3635   2501
   2289   3749   2700
   2478   3847   2918
   2673   3927   3103
   2870   3983   3246
   3045   4024   3371
   1864   3419   2203
   2089   3611   2466
   2223   3707   2623
   2363   3790   2784
   2528   3870   2978
   2710   3938   3129
   2897   3991   3264
   3059   4028   3385
   3177   4051   3491
   90   343   130
   572   1269   702
   901   1885   1085
   1099   2256   1315
   1311   2653   1562
   1552   3073   1842
   1799   3354   2129
   2050   3582   2419
   2290   3749   2700
   556   1238   684
   902   1885   1085
   1186   2416   1415
   1360   2744   1618
   1549   3070   1839
   1768   3322   2093
   1999   3540   2361
   2233   3714   2633
   2459   3840   2898
   701   1510   852
   1022   2111   1225
   1292   2615   1539
   1459   2930   1734
   1642   3182   1947
   1855   3410   2194
   2079   3605   2454
   2308   3760   2720
   2529   3870   2978
   792   1680   958
   1112   2279   1330
   1368   2758   1627
   1531   3047   1817
   1710   3260   2025
   1918   3470   2266
   2137   3647   2522
   2362   3790   2785
   2580   3892   3028
   923   1925   1110
   1250   2538   1490
   1484   2976   1762
   1639   3179   1943
   1815   3370   2147
   2019   3556   2384
   2231   3712   2632
   2450   3835   2887
   2662   3922   3093
   1095   2247   1310
   1434   2883   1705
   1642   3183   1947
   1789   3344   2117
   1961   3508   2317
   2157   3662   2546
   2364   3791   2787
   2575   3889   3025
   2779   3960   3180
   1297   2627   1545
   1657   3200   1964
   1837   3392   2172
   1975   3520   2333
   2144   3653   2530
   2334   3774   2750
   2533   3872   2981
   2735   3946   3149
   2930   3998   3286
   1615   3150   1914
   1903   3455   2249
   2054   3585   2425
   2191   3686   2584
   2357   3787   2780
   2541   3876   2992
   2732   3946   3146
   2923   3996   3281
   3077   4031   3401
   1954   3502   2308
   2158   3663   2545
   2285   3746   2694
   2425   3823   2857
   2592   3896   3038
   2769   3957   3173
   2951   4002   3300
   3093   4034   3414
   3201   4055   3513
   227   621   300
   661   1435   805
   979   2030   1175
   1170   2389   1398
   1375   2771   1636
   1609   3143   1908
   1852   3407   2189
   2097   3619   2476
   2331   3773   2748
   649   1413   792
   975   2024   1171
   1251   2539   1491
   1421   2858   1689
   1605   3140   1905
   1820   3376   2154
   2045   3579   2415
   2276   3740   2684
   2499   3858   2944
   784   1665   949
   1094   2246   1309
   1355   2735   1612
   1518   3029   1802
   1697   3245   2011
   1906   3458   2252
   2124   3638   2506
   2350   3783   2770
   2567   3886   3019
   869   1824   1047
   1183   2413   1413
   1430   2875   1699
   1588   3119   1884
   1764   3317   2087
   1969   3514   2325
   2183   3680   2576
   2404   3813   2833
   2617   3906   3058
   993   2056   1191
   1319   2668   1572
   1544   3063   1832
   1694   3243   2008
   1867   3422   2208
   2067   3596   2440
   2277   3741   2685
   2491   3854   2935
   2698   3935   3121
   1156   2363   1382
   1502   3004   1783
   1700   3248   2014
   1842   3398   2178
   2012   3550   2376
   2206   3696   2603
   2408   3814   2838
   2615   3906   3057
   2816   3970   3208
   1352   2729   1609
   1718   3269   2035
   1890   3443   2234
   2027   3563   2393
   2194   3688   2588
   2380   3799   2805
   2576   3890   3026
   2775   3958   3177
   2965   4006   3309
   1708   3257   2024
   1961   3507   2316
   2104   3624   2482
   2241   3718   2642
   2407   3814   2837
   2587   3894   3035
   2776   3958   3178
   2962   4005   3307
   3099   4036   3420
   2027   3564   2395
   2212   3701   2609
   2334   3774   2753
   2476   3847   2917
   2640   3915   3076
   2814   3969   3206
   2993   4010   3328
   3116   4040   3435
   3223   4059   3530
   330   816   421
   727   1558   882
   1036   2137   1241
   1222   2486   1459
   1423   2862   1691
   1651   3193   1957
   1889   3442   2232
   2131   3643   2515
   2363   3791   2785
   713   1533   866
   1027   2121   1231
   1297   2626   1545
   1465   2940   1740
   1646   3187   1950
   1856   3412   2195
   2077   3604   2453
   2306   3758   2719
   2527   3870   2975
   842   1774   1016
   1146   2344   1370
   1401   2821   1666
   1562   3085   1853
   1737   3290   2057
   1942   3491   2295
   2157   3662   2546
   2380   3799   2805
   2596   3898   3042
   923   1927   1111
   1237   2513   1476
   1476   2962   1753
   1631   3170   1934
   1804   3359   2135
   2006   3546   2369
   2217   3704   2615
   2435   3827   2869
   2647   3917   3082
   1043   2151   1250
   1373   2769   1634
   1590   3120   1885
   1738   3290   2057
   1909   3461   2256
   2104   3625   2485
   2312   3762   2726
   2523   3868   2971
   2729   3945   3143
   1203   2450   1436
   1554   3076   1844
   1745   3298   2066
   1885   3439   2228
   2053   3584   2424
   2246   3720   2648
   2445   3832   2880
   2648   3918   3082
   2847   3978   3229
   1400   2819   1665
   1770   3324   2095
   1934   3484   2285
   2070   3598   2444
   2237   3715   2638
   2421   3821   2852
   2614   3905   3055
   2809   3968   3202
   2995   4012   3329
   1780   3335   2106
   2011   3550   2375
   2148   3655   2535
   2286   3746   2696
   2452   3836   2889
   2630   3911   3069
   2815   3969   3207
   2997   4012   3331
   3120   4040   3440
   2092   3615   2470
   2261   3731   2666
   2382   3801   2807
   2524   3869   2974
   2689   3933   3114
   2861   3982   3239
   3030   4020   3357
   3142   4045   3458
   3246   4063   3550
   422   987   527
   791   1678   957
   1092   2242   1307
   1275   2585   1519
   1468   2947   1744
   1693   3240   2006
   1926   3476   2276
   2166   3668   2554
   2394   3807   2822
   775   1649   938
   1080   2220   1293
   1344   2715   1600
   1509   3016   1792
   1686   3233   1998
   1895   3448   2239
   2112   3630   2493
   2337   3776   2756
   2556   3882   3008
   900   1882   1083
   1201   2445   1433
   1448   2909   1721
   1605   3139   1904
   1778   3334   2105
   1981   3525   2340
   2192   3687   2587
   2412   3816   2842
   2626   3910   3065
   979   2031   1175
   1294   2618   1541
   1525   3039   1810
   1677   3223   1987
   1848   3403   2185
   2047   3579   2416
   2255   3727   2660
   2469   3844   2908
   2678   3928   3105
   1097   2251   1313
   1431   2876   1700
   1639   3179   1944
   1785   3340   2112
   1954   3502   2308
   2148   3656   2535
   2351   3784   2772
   2560   3884   3011
   2762   3954   3168
   1254   2545   1495
   1611   3147   1911
   1795   3351   2125
   1934   3484   2286
   2102   3622   2482
   2291   3749   2701
   2487   3853   2929
   2686   3932   3112
   2881   3986   3252
   1518   3029   1802
   1828   3383   2162
   1985   3528   2345
   2121   3637   2503
   2287   3747   2697
   2469   3844   2910
   2660   3922   3091
   2851   3979   3231
   3027   4018   3354
   1856   3411   2195
   2069   3597   2442
   2200   3692   2596
   2340   3778   2759
   2506   3861   2951
   2683   3929   3109
   2865   3983   3241
   3032   4019   3359
   3147   4046   3464
   2164   3667   2553
   2319   3766   2734
   2439   3829   2874
   2586   3894   3032
   2749   3951   3158
   2919   3996   3278
   3064   4028   3389
   3173   4051   3487
   3271   4065   3572
   528   1185   650
   872   1830   1050
   1162   2374   1389
   1340   2708   1596
   1528   3043   1814
   1748   3302   2069
   1976   3521   2334
   2210   3698   2607
   2436   3829   2870
   851   1791   1027
   1147   2346   1371
   1404   2827   1670
   1565   3090   1857
   1739   3292   2060
   1942   3492   2295
   2158   3663   2546
   2379   3799   2804
   2593   3898   3039
   971   2016   1166
   1267   2570   1511
   1507   3014   1790
   1662   3206   1970
   1832   3387   2167
   2028   3565   2397
   2238   3716   2640
   2454   3837   2891
   2664   3924   3095
   1048   2161   1256
   1361   2746   1620
   1585   3114   1879
   1734   3286   2052
   1902   3455   2248
   2097   3619   2476
   2302   3756   2714
   2513   3864   2960
   2717   3941   3135
   1163   2375   1390
   1500   3001   1781
   1701   3249   2015
   1843   3399   2179
   2010   3550   2374
   2200   3692   2597
   2401   3810   2829
   2605   3902   3049
   2804   3966   3198
   1317   2664   1569
   1680   3226   1991
   1858   3412   2197
   1994   3536   2356
   2160   3663   2547
   2345   3780   2764
   2540   3874   2989
   2736   3947   3149
   2925   3997   3283
   1625   3162   1928
   1896   3450   2242
   2047   3580   2416
   2183   3680   2575
   2349   3781   2768
   2528   3870   2976
   2714   3940   3132
   2901   3992   3267
   3057   4026   3382
   1944   3492   2296
   2138   3649   2523
   2264   3733   2671
   2407   3813   2835
   2571   3888   3022
   2745   3950   3155
   2923   3996   3282
   3069   4029   3394
   3179   4052   3491
   2244   3722   2647
   2387   3804   2814
   2509   3862   2954
   2656   3921   3088
   2819   3971   3210
   2987   4010   3325
   3106   4037   3427
   3208   4056   3518
   3301   4069   3597
   647   1408   789
   968   2010   1162
   1248   2533   1488
   1420   2856   1688
   1603   3136   1900
   1815   3370   2147
   2038   3573   2406
   2267   3735   2674
   2489   3854   2933
   943   1963   1133
   1228   2498   1466
   1478   2964   1755
   1634   3173   1937
   1804   3359   2134
   2003   3543   2365
   2213   3700   2610
   2429   3825   2863
   2641   3915   3077
   1057   2176   1266
   1346   2718   1602
   1579   3106   1873
   1730   3281   2048
   1896   3448   2241
   2089   3612   2466
   2293   3751   2704
   2505   3861   2950
   2711   3939   3131
   1131   2315   1352
   1442   2897   1714
   1656   3199   1963
   1801   3357   2132
   1967   3513   2323
   2157   3662   2546
   2358   3788   2779
   2565   3886   3016
   2766   3955   3171
   1243   2524   1482
   1580   3108   1874
   1772   3327   2097
   1912   3464   2259
   2075   3602   2451
   2263   3731   2668
   2459   3839   2896
   2658   3921   3090
   2853   3980   3233
   1407   2832   1673
   1759   3314   2083
   1929   3479   2279
   2063   3592   2436
   2227   3709   2627
   2409   3815   2838
   2599   3899   3043
   2793   3963   3190
   2975   4007   3317
   1741   3293   2062
   1975   3521   2333
   2118   3635   2500
   2254   3726   2658
   2417   3819   2849
   2595   3898   3041
   2776   3959   3179
   2958   4004   3305
   3094   4034   3415
   2039   3574   2407
   2216   3702   2615
   2339   3777   2757
   2481   3850   2923
   2645   3916   3079
   2814   3969   3206
   2989   4010   3325
   3110   4038   3430
   3212   4058   3522
   2332   3773   2749
   2464   3842   2902
   2588   3895   3036
   2738   3948   3151
   2898   3990   3264
   3046   4023   3372
   3154   4046   3469
   3248   4064   3552
   3334   4073   3624
   778   1654   941
   1078   2215   1290
   1346   2718   1602
   1512   3023   1796
   1688   3235   2000
   1895   3448   2240
   2112   3629   2493
   2336   3774   2753
   2552   3880   3004
   1046   2156   1254
   1321   2671   1573
   1562   3085   1853
   1714   3263   2030
   1879   3433   2221
   2072   3600   2446
   2278   3741   2685
   2490   3854   2933
   2697   3935   3119
   1154   2358   1379
   1437   2889   1708
   1661   3204   1969
   1808   3363   2138
   1969   3514   2327
   2158   3663   2547
   2357   3787   2779
   2565   3886   3017
   2767   3955   3171
   1225   2491   1461
   1532   3047   1818
   1738   3290   2058
   1879   3434   2222
   2041   3574   2409
   2227   3710   2627
   2422   3821   2855
   2624   3909   3064
   2821   3971   3211
   1333   2693   1588
   1669   3214   1978
   1854   3410   2192
   1990   3533   2350
   2151   3658   2538
   2334   3774   2751
   2525   3869   2973
   2719   3942   3137
   2908   3993   3272
   1594   3125   1890
   1848   3403   2185
   2010   3550   2374
   2142   3651   2528
   2302   3756   2715
   2481   3849   2922
   2666   3924   3096
   2852   3980   3233
   3025   4019   3353
   1870   3424   2211
   2062   3592   2435
   2198   3690   2592
   2335   3774   2752
   2496   3856   2939
   2667   3925   3097
   2847   3979   3229
   3018   4017   3347
   3132   4042   3449
   2152   3658   2539
   2302   3755   2715
   2422   3821   2853
   2565   3886   3016
   2725   3944   3141
   2891   3989   3260
   3044   4023   3371
   3152   4046   3467
   3248   4064   3551
   2427   3824   2861
   2549   3879   3002
   2677   3928   3105
   2829   3973   3216
   2986   4010   3323
   3101   4036   3422
   3201   4056   3511
   3287   4068   3587
   3366   4077   3652
   914   1909   1100
   1194   2432   1425
   1451   2915   1724
   1611   3146   1911
   1781   3335   2107
   1980   3524   2339
   2192   3686   2585
   2409   3815   2839
   2621   3907   3061
   1156   2363   1382
   1422   2859   1690
   1653   3195   1959
   1802   3357   2131
   1961   3508   2316
   2149   3657   2535
   2348   3782   2767
   2554   3882   3007
   2760   3953   3166
   1257   2551   1499
   1533   3050   1820
   1749   3303   2070
   1891   3445   2235
   2048   3581   2418
   2232   3713   2633
   2428   3824   2860
   2629   3910   3066
   2824   3973   3214
   1324   2677   1577
   1627   3165   1929
   1826   3381   2160
   1963   3510   2319
   2119   3634   2501
   2300   3754   2713
   2491   3854   2934
   2688   3932   3113
   2880   3987   3251
   1445   2904   1717
   1764   3317   2087
   1941   3490   2293
   2072   3599   2447
   2229   3711   2630
   2408   3814   2837
   2593   3897   3039
   2782   3960   3183
   2967   4005   3309
   1740   3292   2061
   1941   3490   2294
   2094   3616   2473
   2224   3707   2624
   2382   3800   2808
   2556   3882   3006
   2735   3947   3149
   2917   3995   3277
   3064   4028   3389
   2005   3544   2367
   2154   3661   2543
   2282   3745   2692
   2418   3819   2850
   2577   3890   3026
   2744   3950   3154
   2917   3994   3277
   3063   4027   3387
   3168   4050   3482
   2272   3738   2678
   2393   3806   2819
   2509   3862   2955
   2652   3919   3085
   2809   3967   3202
   2971   4006   3313
   3095   4035   3416
   3193   4054   3504
   3283   4068   3581
   2539   3875   2991
   2641   3915   3078
   2774   3958   3177
   2924   3996   3282
   3057   4026   3382
   3158   4048   3474
   3248   4063   3552
   3327   4073   3619
   3397   4079   3677
