Resources/LUT/Ohio.3dl
# 17x17x17 .3dl lookup table from LUT Buddy
0 256 512 768 1023
   0   3   68
   0   7   1285
   3   16   2594
   10   22   3069
   11   27   3230
   35   626   65
   28   638   1320
   37   570   2517
   60   679   2923
   106   949   3038
   142   1729   464
   184   1786   1656
   232   1860   2553
   270   1976   2880
   308   2108   3026
   376   2725   1045
   421   2737   2100
   506   2729   2733
   558   2757   2955
   599   2799   3075
   646   3210   1785
   685   3180   2524
   712   3170   2876
   819   3181   3039
   1524   3264   3209
   378   26   61
   355   16   1348
   284   26   2616
   292   34   3067
   342   43   3199
   490   688   193
   469   701   1440
   338   637   2539
   369   772   2907
   656   1074   3014
   742   1829   698
   660   1872   1803
   555   1917   2594
   597   2023   2884
   656   2140   3019
   711   2750   1199
   759   2748   2215
   788   2730   2755
   816   2763   2950
   1459   2877   3118
   1320   3238   2007
   1534   3238   2672
   1885   3277   2990
   2154   3318   3163
   2376   3352   3291
   990   85   236
   1019   49   1503
   1064   68   2552
   1213   84   2922
   1418   101   3051
   1206   821   514
   1269   841   1643
   1319   823   2540
   1521   1028   2862
   1766   1315   3007
   1627   2006   1052
   1686   2056   2025
   1689   2090   2684
   1821   2191   2933
   1994   2302   3069
   1910   2882   1581
   1833   2842   2406
   2029   2873   2861
   2301   2955   3072
   2515   3028   3213
   2371   3336   2322
   2526   3352   2857
   2696   3384   3104
   2842   3412   3252
   3052   3494   3418
   1915   83   612
   1961   104   1685
   2028   134   2554
   2135   154   2861
   2241   169   2990
   2105   991   911
   2156   1008   1862
   2223   1026   2594
   2347   1227   2868
   2458   1427   3007
   2408   2178   1368
   2439   2194   2213
   2457   2205   2745
   2537   2287   2949
   2634   2387   3073
   2647   2964   1907
   2709   2973   2613
   2832   3029   2973
   2953   3093   3155
   3057   3146   3283
   2982   3418   2597
   3139   3486   3034
   3311   3577   3294
   3439   3646   3466
   3550   3703   3609
   2597   151   1007
   2612   176   1872
   2632   204   2578
   2667   217   2832
   2699   223   2951
   2731   1186   1274
   2749   1195   2060
   2748   1141   2634
   2800   1327   2863
   2863   1542   2994
   2926   2309   1601
   2907   2284   2350
   2898   2295   2764
   2998   2463   2987
   3102   2617   3142
   3126   3070   2282
   3174   3100   2783
   3247   3156   3062
   3313   3202   3219
   3413   3284   3369
   3484   3622   2969
   3613   3714   3290
   3708   3775   3492
   3777   3809   3629
   3837   3831   3738
