Resources/LUT/Ohio.3dl
# 17x17x17 .3dl lookup table from LUT Buddy
0 128 256 384 512 640 768 896 1023
   0   3   68
   0   10   325
   0   7   1285
   0   12   2075
   3   16   2594
   8   19   2911
   10   22   3069
   11   25   3161
   11   27   3230
   1   327   54
   8   337   350
   1   306   1264
   0   228   2096
   3   233   2600
   9   235   2912
   10   237   3066
   11   237   3158
   27   327   3158
   35   626   65
   37   639   465
   28   638   1320
   34   612   2024
   37   570   2517
   44   583   2804
   60   679   2923
   82   808   2988
   106   949   3038
   89   1108   210
   75   1127   675
   82   1158   1455
   103   1185   2066
   122   1214   2497
   141   1275   2747
   162   1376   2869
   184   1482   2950
   204   1585   3011
   142   1729   464
   158   1750   973
   184   1786   1656
   210   1824   2181
   232   1860   2553
   252   1913   2768
   270   1976   2880
   289   2041   2963
   308   2108   3026
   256   2285   778
   275   2302   1309
   304   2330   1883
   331   2350   2333
   351   2367   2645
   368   2400   2819
   383   2439   2919
   429   2476   2994
   473   2515   3052
   376   2725   1045
   398   2733   1613
   421   2737   2100
   455   2732   2484
   506   2729   2733
   536   2742   2867
   558   2757   2955
   579   2775   3020
   599   2799   3075
   537   3029   1317
   569   3023   1900
   594   3006   2317
   613   2990   2626
   630   2988   2811
   647   2997   2918
   663   3005   2996
   678   3014   3055
   693   3023   3107
   646   3210   1785
   666   3196   2189
   685   3180   2524
   700   3171   2748
   712   3170   2876
   725   3170   2965
   819   3181   3039
   1292   3235   3136
   1524   3264   3209
   171   10   61
   179   17   340
   157   7   1306
   157   13   2084
   162   20   2595
   168   25   2911
   171   28   3067
   173   31   3158
   175   34   3227
   205   341   57
   213   350   388
   174   314   1298
   163   229   2115
   168   233   2610
   175   236   2915
   178   237   3066
   181   237   3156
   204   368   3137
   259   647   96
   263   659   526
   204   655   1365
   208   628   2049
   213   594   2524
   223   614   2800
   243   713   2917
   267   845   2982
   294   983   3032
   343   1144   277
   333   1164   758
   265   1184   1509
   288   1214   2097
   311   1244   2511
   333   1308   2751
   357   1408   2869
   380   1509   2949
   405   1613   3009
   406   1763   549
   360   1776   1060
   379   1811   1713
   407   1845   2217
   432   1883   2573
   456   1935   2775
   477   1996   2883
   500   2060   2962
   523   2122   3023
   458   2305   854
   482   2323   1396
   514   2349   1940
   543   2365   2370
   566   2382   2663
   586   2412   2824
   606   2449   2920
   623   2483   2991
   641   2517   3047
   591   2736   1118
   617   2743   1694
   644   2744   2157
   664   2733   2518
   680   2732   2746
   693   2742   2868
   706   2756   2952
   722   2779   3017
   738   2801   3071
   699   3030   1489
   721   3020   1968
   739   2999   2367
   756   2986   2653
   770   2988   2820
   783   2995   2921
   796   3004   2996
   1114   3048   3081
   1481   3099   3165
   774   3201   1866
   794   3187   2256
   813   3172   2567
   827   3165   2769
   1130   3198   2913
   1468   3238   3029
   1681   3266   3114
   1845   3288   3185
   1987   3308   3250
   378   26   61
   387   33   413
   355   16   1348
   279   18   2123
   284   26   2616
   290   31   2917
   292   34   3067
   294   37   3157
   342   43   3199
   424   368   74
   433   373   487
   398   335   1357
   286   231   2155
   289   233   2635
   295   236   2924
   298   237   3067
   302   246   3145
   460   441   3085
   490   688   193
   498   700   645
   469   701   1440
   347   666   2086
   338   637   2539
   349   666   2797
   369   772   2907
   434   908   2971
   656   1074   3014
   599   1209   404
   604   1229   893
   563   1257   1596
   424   1261   2143
   437   1293   2534
   458   1359   2757
   481   1457   2868
   633   1574   2947
   858   1694   3012
   742   1829   698
   736   1851   1209
   660   1872   1803
   531   1882   2263
   555   1917   2594
   576   1961   2781
   597   2023   2884
   618   2081   2960
   656   2140   3019
   836   2364   992
   736   2369   1515
   637   2373   2007
   664   2386   2413
   683   2398   2681
   701   2426   2826
   718   2457   2917
   735   2489   2984
   750   2518   3036
   711   2750   1199
   736   2753   1777
   759   2748   2215
   776   2734   2549
   788   2730   2755
   801   2742   2867
   816   2763   2950
   963   2801   3023
   1459   2877   3118
   811   3026   1603
   830   3013   2046
   848   2993   2421
   862   2983   2680
   1003   3003   2839
   1449   3061   2975
   1700   3100   3071
   1884   3133   3147
   2035   3162   3215
   1320   3238   2007
   1387   3232   2379
   1534   3238   2672
   1720   3256   2864
   1885   3277   2990
   2030   3298   3087
   2154   3318   3163
   2268   3334   3229
   2376   3352   3291
   629   57   95
   639   58   539
   630   30   1422
   605   36   2103
   562   42   2582
   573   48   2863
   659   56   2983
   774   64   3051
   900   73   3099
   688   399   184
   700   400   629
   696   360   1441
   639   247   2132
   606   246   2592
   626   250   2857
   718   255   2973
   867   353   3007
   1052   551   3026
   786   746   335
   804   759   800
   811   764   1538
   789   746   2113
   760   725   2528
   813   776   2762
   951   904   2869
   1109   1048   2945
   1272   1201   3005
   948   1297   571
   969   1320   1056
   983   1353   1703
   972   1378   2203
   968   1410   2559
   1055   1487   2765
   1197   1594   2876
   1330   1693   2959
   1447   1779   3025
   1160   1915   872
   1180   1935   1371
   1188   1966   1914
   1166   1988   2342
   1120   2007   2639
   1157   2052   2807
   1266   2116   2910
   1384   2181   2989
   1509   2244   3053
   1341   2441   1151
   1329   2452   1668
   1254   2456   2119
   1064   2437   2475
   888   2424   2701
   1017   2462   2838
   1225   2510   2937
   1413   2556   3013
   1584   2601   3077
   1416   2826   1367
   1332   2815   1913
   1084   2773   2294
   867   2730   2575
   1050   2752   2773
   1471   2818   2914
   1740   2870   3018
   1937   2917   3100
   2093   2958   3170
   1556   3089   1787
   1570   3075   2198
   1638   3068   2542
   1781   3083   2784
   1950   3111   2932
   2094   3140   3039
   2220   3166   3123
   2337   3192   3193
   2445   3217   3258
   1949   3295   2171
   2016   3293   2514
   2112   3299   2771
   2225   3314   2934
   2336   3333   3049
   2442   3350   3138
   2538   3366   3208
   2624   3381   3271
   2706   3395   3331
   990   85   236
   1006   74   696
   1019   49   1503
   1040   58   2117
   1064   68   2552
   1120   76   2804
   1213   84   2922
   1317   93   2997
   1418   101   3051
   1071   430   341
   1091   426   796
   1109   383   1542
   1093   262   2150
   1115   265   2566
   1177   272   2805
   1268   278   2917
   1428   461   2957
   1579   657   3002
   1206   821   514
   1233   832   975
   1269   841   1643
   1292   830   2166
   1319   823   2540
   1400   894   2753
   1521   1028   2862
   1645   1172   2942
   1766   1315   3007
   1404   1401   764
   1434   1425   1236
   1474   1462   1815
   1504   1489   2274
   1547   1528   2596
   1632   1606   2784
   1720   1690   2890
   1808   1768   2971
   1896   1848   3036
   1627   2006   1052
   1658   2028   1534
   1686   2056   2025
   1684   2072   2418
   1689   2090   2684
   1743   2134   2835
   1821   2191   2933
   1908   2247   3008
   1994   2302   3069
   1803   2516   1299
   1810   2526   1805
   1787   2525   2224
   1741   2515   2553
   1742   2520   2763
   1817   2547   2883
   1904   2581   2970
   2028   2624   3043
   2183   2689   3117
   1910   2882   1581
   1886   2870   2039
   1833   2842   2406
   1891   2844   2684
   2029   2873   2861
   2172   2915   2979
   2301   2955   3072
   2415   2993   3147
   2515   3028   3213
   2105   3139   1956
   2145   3134   2343
   2212   3135   2652
   2313   3153   2861
   2421   3178   2993
   2520   3203   3092
   2609   3226   3169
   2691   3248   3236
   2766   3268   3297
   2371   3336   2322
   2439   3340   2633
   2526   3352   2857
   2612   3368   2999
   2696   3384   3104
   2770   3397   3184
   2842   3412   3252
   2945   3449   3334
   3052   3494   3418
   1465   81   415
   1479   64   870
   1510   74   1591
   1545   86   2150
   1582   98   2547
   1643   108   2776
   1718   116   2886
   1796   125   2962
   1873   134   3016
   1549   455   529
   1568   448   969
   1587   394   1643
   1587   279   2186
   1625   289   2564
   1685   297   2777
   1772   340   2877
   1902   563   2935
   2017   765   2991
   1683   903   713
   1709   915   1155
   1744   923   1753
   1775   915   2227
   1815   923   2565
   1888   1013   2758
   1985   1150   2864
   2077   1285   2947
   2155   1389   3010
   1860   1514   959
   1888   1534   1409
   1926   1565   1928
   1962   1593   2347
   2004   1631   2637
   2058   1684   2802
   2127   1754   2902
   2194   1827   2979
   2265   1901   3041
   2048   2098   1228
   2072   2115   1682
   2092   2131   2126
   2098   2137   2485
   2119   2155   2722
   2168   2197   2855
   2231   2246   2947
   2295   2294   3016
   2356   2344   3073
   2194   2582   1426
   2202   2587   1920
   2193   2579   2315
   2181   2564   2609
   2202   2567   2793
   2278   2602   2907
   2386   2660   3005
   2493   2721   3086
   2589   2776   3156
   2294   2921   1735
   2299   2909   2153
   2339   2906   2512
   2413   2924   2765
   2504   2956   2921
   2594   2991   3030
   2679   3027   3116
   2755   3060   3186
   2825   3091   3251
   2509   3183   2115
   2553   3184   2474
   2616   3195   2748
   2691   3215   2928
   2767   3238   3047
   2836   3260   3138
   2900   3280   3211
   2958   3296   3273
   3015   3315   3332
   2720   3378   2466
   2777   3387   2741
   2842   3400   2931
   2906   3413   3056
   3004   3452   3174
   3104   3498   3276
   3186   3534   3362
   3266   3573   3445
   3336   3607   3521
   1915   83   612
   1931   91   1038
   1961   104   1685
   1991   120   2193
   2028   134   2554
   2078   145   2757
   2135   154   2861
   2189   161   2935
   2241   169   2990
   1986   471   725
   2001   458   1145
   2012   386   1741
   2024   305   2230
   2062   317   2568
   2110   326   2759
   2190   435   2851
   2285   672   2922
   2365   860   2984
   2105   991   911
   2125   1002   1329
   2156   1008   1862
   2184   999   2293
   2223   1026   2594
   2287   1127   2766
   2347   1227   2868
   2403   1325   2945
   2458   1427   3007
   2257   1621   1146
   2279   1641   1568
   2312   1666   2034
   2337   1674   2413
   2360   1686   2668
   2402   1735   2812
   2450   1803   2907
   2499   1872   2980
   2549   1948   3039
   2408   2178   1368
   2427   2190   1806
   2439   2194   2213
   2441   2190   2537
   2457   2205   2745
   2495   2245   2865
   2537   2287   2949
   2581   2331   3014
   2634   2387   3073
   2531   2636   1545
   2534   2631   2019
   2521   2612   2385
   2520   2600   2651
   2581   2640   2829
   2662   2698   2951
   2739   2755   3046
   2813   2809   3124
   2877   2855   3191
   2647   2964   1907
   2670   2963   2292
   2709   2973   2613
   2764   2995   2834
   2832   3029   2973
   2896   3061   3076
   2953   3093   3155
   3007   3121   3223
   3057   3146   3283
   2823   3227   2268
   2862   3235   2593
   2914   3250   2831
   2970   3271   2985
   3024   3291   3095
   3075   3310   3180
   3131   3336   3254
   3214   3386   3343
   3286   3428   3422
   2982   3418   2597
   3036   3433   2841
   3139   3486   3034
   3232   3535   3180
   3311   3577   3294
   3380   3615   3386
   3439   3646   3466
   3497   3676   3540
   3550   3703   3609
   2306   116   808
   2319   125   1203
   2338   141   1778
   2358   158   2243
   2381   173   2564
   2411   182   2745
   2445   189   2844
   2478   195   2916
   2508   199   2969
   2353   469   914
   2360   448   1300
   2362   351   1834
   2376   335   2276
   2398   347   2578
   2428   355   2746
   2496   550   2838
   2551   713   2913
   2603   879   2974
   2460   1083   1099
   2475   1090   1485
   2494   1095   1962
   2513   1093   2354
   2533   1109   2619
   2563   1167   2768
   2604   1263   2865
   2647   1369   2940
   2687   1474   3001
   2587   1722   1314
   2602   1733   1707
   2617   1733   2124
   2620   1719   2464
   2630   1729   2688
   2659   1784   2816
   2693   1851   2907
   2728   1925   2976
   2763   1998   3033
   2705   2246   1481
   2712   2251   1908
   2709   2242   2288
   2702   2234   2576
   2709   2247   2758
   2733   2283   2865
   2769   2335   2950
   2831   2417   3030
   2898   2503   3106
   2790   2673   1752
   2785   2661   2106
   2788   2656   2458
   2825   2689   2718
   2880   2740   2880
   2939   2795   2996
   2994   2844   3086
   3046   2889   3159
   3092   2930   3224
   2921   3016   2099
   2941   3021   2420
   2977   3038   2705
   3020   3065   2895
   3069   3095   3020
   3114   3124   3115
   3156   3152   3190
   3195   3174   3253
   3232   3197   3311
   3060   3272   2428
   3093   3283   2699
   3134   3302   2904
   3179   3324   3039
   3252   3371   3165
   3327   3421   3270
   3392   3464   3360
   3448   3501   3438
   3506   3538   3513
   3236   3496   2761
   3330   3557   3004
   3409   3608   3169
   3478   3651   3299
   3535   3685   3399
   3586   3714   3482
   3633   3740   3556
   3675   3761   3622
   3716   3780   3683
   2597   151   1007
   2603   160   1360
   2612   176   1872
   2621   192   2293
   2632   204   2578
   2649   211   2737
   2667   217   2832
   2682   220   2900
   2699   223   2951
   2630   494   1096
   2633   473   1449
   2626   380   1923
   2629   361   2323
   2639   371   2591
   2652   376   2736
   2700   563   2828
   2748   764   2902
   2790   941   2965
   2731   1186   1274
   2740   1195   1630
   2749   1195   2060
   2745   1151   2404
   2748   1141   2634
   2771   1218   2768
   2800   1327   2863
   2832   1436   2935
   2863   1542   2994
   2833   1797   1443
   2839   1798   1814
   2837   1785   2200
   2830   1768   2504
   2832   1783   2700
   2853   1846   2818
   2876   1917   2905
   2902   1987   2970
   2927   2055   3027
   2926   2309   1601
   2922   2302   2000
   2907   2284   2350
   2892   2273   2605
   2898   2295   2764
   2940   2371   2884
   2998   2463   2987
   3053   2546   3069
   3102   2617   3142
   2998   2721   1923
   3005   2726   2233
   3023   2747   2557
   3056   2785   2784
   3099   2834   2928
   3142   2881   3037
   3184   2923   3120
   3223   2960   3190
   3258   2996   3253
   3126   3070   2282
   3145   3080   2537
   3174   3100   2783
   3211   3129   2947
   3247   3156   3062
   3283   3181   3150
   3313   3202   3219
   3351   3231   3286
   3413   3284   3369
   3241   3319   2586
   3271   3335   2794
   3345   3390   2999
   3423   3450   3156
   3485   3497   3274
   3538   3537   3369
   3584   3569   3447
   3629   3598   3519
   3669   3624   3585
   3484   3622   2969
   3552   3672   3145
   3613   3714   3290
   3664   3749   3403
   3708   3775   3492
   3745   3796   3566
   3777   3809   3629
   3808   3822   3687
   3837   3831   3738
