Resources/LUT/Ohio.3dl
# 17x17x17 .3dl lookup table from LUT Buddy
   0   64   128   192   256   320   384   448   512   576   640   704   768   832   896   960   1023
   0   3   68
   0   4   93
   0   10   325
   0   5   766
   0   7   1285
   0   9   1727
   0   12   2075
   0   14   2356
   3   16   2594
   6   18   2778
   8   19   2911
   10   20   3005
   10   22   3069
   11   24   3118
   11   25   3161
   11   26   3198
   11   27   3230
   0   194   57
   0   194   57
   0   203   328
   0   197   757
   0   172   1283
   0   156   1738
   0   158   2083
   0   161   2358
   3   163   2593
   6   164   2777
   8   166   2910
   10   167   3003
   10   167   3068
   11   167   3116
   11   167   3159
   11   167   3195
   11   167   3227
   1   327   54
   1   327   54
   8   337   350
   0   331   771
   1   306   1264
   0   261   1720
   0   228   2096
   0   231   2371
   3   233   2600
   6   234   2782
   9   235   2912
   10   236   3005
   10   237   3066
   11   237   3115
   11   237   3158
   12   238   3192
   27   327   3158
   17   467   57
   17   467   57
   22   476   396
   11   472   816
   13   459   1280
   14   430   1702
   13   386   2046
   7   327   2353
   4   295   2613
   7   297   2789
   9   298   2916
   10   299   3006
   16   327   3039
   28   404   3042
   40   483   3050
   52   559   3063
   64   636   3075
   35   626   65
   35   626   65
   37   639   465
   24   641   882
   28   638   1320
   32   628   1708
   34   612   2024
   36   591   2290
   37   570   2517
   39   564   2686
   44   583   2804
   51   621   2879
   60   679   2923
   71   744   2957
   82   808   2988
   93   878   3015
   106   949   3038
   60   840   119
   60   838   119
   57   856   558
   43   865   965
   50   873   1374
   56   876   1738
   62   875   2034
   68   873   2284
   73   876   2492
   80   891   2649
   88   921   2760
   97   967   2834
   109   1028   2884
   120   1088   2925
   132   1150   2960
   144   1214   2991
   155   1276   3018
   89   1108   210
   89   1108   210
   75   1127   675
   72   1141   1069
   82   1158   1455
   93   1173   1788
   103   1185   2066
   113   1200   2301
   122   1214   2497
   132   1240   2642
   141   1275   2747
   152   1322   2818
   162   1376   2869
   173   1430   2912
   184   1482   2950
   194   1533   2983
   204   1585   3011
   114   1417   325
   113   1417   352
   104   1437   815
   117   1456   1192
   130   1477   1548
   143   1494   1857
   155   1512   2116
   166   1529   2338
   176   1550   2518
   186   1577   2654
   196   1612   2751
   206   1655   2819
   216   1698   2869
   226   1741   2913
   235   1782   2951
   245   1821   2985
   254   1859   3015
   142   1729   464
   144   1729   567
   158   1750   973
   171   1767   1328
   184   1786   1656
   197   1806   1939
   210   1824   2181
   221   1840   2388
   232   1860   2553
   242   1886   2678
   252   1913   2768
   261   1944   2831
   270   1976   2880
   279   2007   2925
   289   2041   2963
   298   2074   2996
   308   2108   3026
   197   2017   620
   201   2023   778
   213   2037   1140
   227   2054   1472
   241   2071   1769
   256   2089   2029
   268   2102   2254
   280   2115   2445
   290   2130   2598
   300   2150   2711
   310   2172   2793
   319   2198   2851
   328   2226   2899
   336   2250   2941
   345   2276   2978
   353   2301   3010
   362   2327   3039
   256   2285   778
   262   2289   979
   275   2302   1309
   290   2318   1612
   304   2330   1883
   319   2342   2122
   331   2350   2333
   341   2358   2508
   351   2367   2645
   360   2382   2747
   368   2400   2819
   375   2420   2873
   383   2439   2919
   400   2459   2959
   429   2476   2994
   453   2494   3024
   473   2515   3052
   319   2524   913
   326   2528   1164
   340   2538   1464
   353   2545   1743
   367   2554   1992
   378   2556   2214
   389   2558   2410
   397   2560   2568
   405   2566   2690
   418   2575   2781
   442   2586   2843
   470   2601   2894
   489   2614   2938
   505   2627   2976
   519   2642   3008
   531   2651   3036
   543   2665   3062
   376   2725   1045
   386   2730   1334
   398   2733   1613
   411   2738   1869
   421   2737   2100
   436   2735   2307
   455   2732   2484
   485   2728   2625
   506   2729   2733
   522   2733   2811
   536   2742   2867
   548   2749   2913
   558   2757   2955
   569   2766   2990
   579   2775   3020
   589   2788   3049
   599   2799   3075
   431   2893   1176
   459   2895   1503
   487   2896   1760
   509   2894   1993
   527   2888   2209
   541   2879   2399
   553   2871   2555
   564   2865   2679
   575   2863   2772
   586   2869   2838
   596   2875   2891
   606   2882   2936
   615   2891   2975
   624   2899   3009
   632   2906   3038
   640   2914   3065
   649   2921   3092
   537   3029   1317
   555   3027   1669
   569   3023   1900
   583   3017   2116
   594   3006   2317
   604   2996   2488
   613   2990   2626
   621   2986   2733
   630   2988   2811
   639   2991   2868
   647   2997   2918
   655   3001   2960
   663   3005   2996
   670   3009   3027
   678   3014   3055
   685   3018   3082
   693   3023   3107
   601   3133   1599
   612   3127   1832
   623   3119   2044
   634   3110   2246
   644   3101   2426
   652   3094   2573
   660   3089   2691
   667   3088   2781
   674   3089   2845
   682   3091   2897
   689   3093   2942
   696   3096   2981
   704   3097   3015
   711   3100   3044
   727   3105   3073
   908   3126   3114
   1165   3157   3161
   646   3210   1785
   656   3203   1991
   666   3196   2189
   676   3187   2370
   685   3180   2524
   693   3175   2649
   700   3171   2748
   706   3169   2820
   712   3170   2876
   718   3170   2924
   725   3170   2965
   732   3171   3001
   819   3181   3039
   1118   3215   3094
   1292   3235   3136
   1415   3249   3174
   1524   3264   3209
   35   5   67
   38   5   67
   40   11   320
   42   5   758
   44   7   1276
   46   9   1720
   48   11   2071
   50   14   2354
   55   16   2588
   60   19   2775
   64   22   2909
   68   24   3004
   70   25   3068
   73   27   3117
   75   28   3160
   76   29   3196
   79   31   3228
   46   195   56
   48   195   56
   54   205   328
   52   198   757
   54   173   1281
   56   156   1740
   57   158   2080
   59   161   2356
   65   163   2593
   70   165   2776
   74   166   2909
   77   167   3003
   79   167   3067
   81   167   3115
   83   168   3158
   85   168   3194
   87   168   3226
   66   330   54
   68   330   54
   76   340   355
   70   334   776
   64   308   1268
   64   261   1728
   66   228   2097
   68   231   2370
   73   232   2601
   78   234   2781
   82   235   2911
   85   236   3004
   88   237   3065
   90   237   3114
   92   237   3157
   96   245   3184
   114   340   3151
   91   471   58
   93   470   58
   100   479   406
   91   475   827
   85   461   1291
   88   434   1704
   88   390   2051
   85   332   2352
   82   295   2616
   87   297   2790
   91   298   2917
   94   299   3007
   105   339   3030
   120   420   3034
   134   495   3045
   147   568   3059
   161   646   3071
   121   631   71
   123   631   71
   127   643   481
   113   646   897
   107   643   1331
   113   632   1717
   118   618   2031
   122   597   2294
   126   579   2517
   130   574   2686
   138   593   2802
   147   633   2876
   159   691   2920
   171   755   2956
   185   823   2986
   199   890   3012
   213   963   3035
   160   847   136
   162   847   137
   160   864   580
   138   871   987
   139   880   1393
   148   882   1751
   157   885   2042
   164   882   2291
   172   885   2496
   181   900   2650
   191   932   2760
   203   980   2834
   217   1041   2883
   231   1103   2923
   245   1165   2959
   258   1228   2990
   271   1289   3016
   207   1119   231
   210   1119   232
   195   1139   703
   170   1151   1093
   182   1167   1474
   194   1182   1803
   206   1195   2078
   218   1207   2312
   230   1224   2502
   242   1253   2646
   254   1289   2749
   267   1336   2819
   279   1389   2869
   292   1441   2912
   304   1494   2950
   316   1545   2981
   329   1597   3011
   245   1432   355
   246   1431   411
   217   1448   848
   224   1467   1222
   239   1489   1572
   254   1505   1875
   267   1523   2129
   280   1540   2349
   293   1562   2525
   305   1590   2658
   317   1625   2754
   329   1665   2820
   341   1710   2870
   353   1753   2914
   365   1793   2952
   377   1830   2985
   388   1867   3014
   262   1738   494
   261   1741   616
   271   1759   1011
   286   1777   1360
   301   1796   1682
   316   1814   1957
   330   1832   2196
   344   1851   2400
   357   1870   2562
   369   1895   2684
   381   1923   2772
   392   1952   2832
   404   1985   2882
   416   2017   2925
   428   2050   2962
   440   2083   2995
   452   2115   3025
   314   2028   652
   320   2033   826
   335   2046   1179
   351   2065   1507
   367   2082   1797
   382   2096   2049
   398   2111   2271
   412   2123   2457
   425   2140   2606
   437   2159   2716
   449   2182   2796
   461   2208   2852
   472   2233   2900
   484   2259   2942
   495   2284   2978
   505   2308   3009
   517   2335   3038
   381   2293   810
   390   2299   1029
   406   2314   1350
   422   2325   1646
   440   2340   1910
   456   2352   2145
   470   2359   2351
   483   2365   2520
   494   2375   2653
   505   2388   2753
   516   2405   2821
   527   2425   2874
   537   2444   2919
   547   2462   2959
   556   2479   2993
   566   2498   3023
   575   2517   3049
   452   2531   947
   463   2536   1211
   479   2544   1506
   494   2552   1777
   510   2559   2022
   524   2562   2238
   537   2563   2428
   548   2565   2581
   558   2571   2699
   567   2578   2785
   576   2591   2845
   585   2604   2896
   594   2615   2937
   602   2629   2974
   610   2640   3006
   618   2653   3035
   626   2663   3060
   518   2729   1078
   531   2733   1382
   546   2738   1652
   560   2741   1902
   574   2739   2126
   586   2736   2332
   596   2732   2502
   605   2730   2636
   613   2730   2740
   621   2734   2814
   628   2742   2868
   636   2749   2914
   643   2757   2954
   651   2766   2989
   659   2777   3020
   667   2788   3047
   674   2798   3073
   578   2897   1208
   592   2898   1545
   605   2898   1797
   617   2893   2025
   629   2888   2233
   638   2877   2419
   646   2869   2569
   654   2863   2688
   661   2863   2778
   669   2869   2841
   676   2875   2892
   684   2883   2936
   692   2891   2975
   699   2899   3008
   706   2905   3037
   715   2916   3065
   721   2920   3090
   630   3028   1418
   642   3025   1704
   654   3021   1934
   665   3014   2145
   675   3003   2341
   683   2992   2507
   692   2987   2639
   700   2985   2741
   707   2988   2816
   714   2991   2871
   721   2995   2920
   728   2999   2960
   735   3004   2996
   742   3009   3027
   749   3014   3055
   777   3020   3083
   1005   3050   3128
   674   3130   1641
   685   3125   1865
   695   3116   2076
   706   3106   2275
   716   3098   2448
   724   3091   2590
   733   3087   2703
   740   3087   2788
   747   3088   2850
   754   3090   2901
   760   3091   2945
   767   3094   2983
   782   3097   3016
   970   3120   3062
   1227   3153   3112
   1385   3172   3152
   1507   3190   3189
   711   3206   1820
   721   3200   2027
   732   3191   2220
   742   3182   2395
   751   3176   2544
   760   3170   2665
   767   3168   2759
   774   3167   2827
   781   3167   2881
   787   3168   2927
   946   3185   2982
   1213   3216   3041
   1366   3235   3085
   1488   3249   3125
   1595   3263   3162
   1684   3275   3196
   1764   3284   3229
   171   10   61
   172   10   61
   179   17   340
   173   9   782
   157   7   1306
   157   9   1743
   157   13   2084
   158   16   2363
   162   20   2595
   166   22   2778
   168   25   2911
   170   27   3005
   171   28   3067
   173   30   3116
   173   31   3158
   174   32   3195
   175   34   3227
   187   205   55
   188   205   55
   195   214   356
   187   205   786
   160   177   1308
   159   156   1763
   160   159   2096
   161   161   2370
   165   163   2602
   169   165   2781
   171   166   2911
   173   167   3004
   175   167   3065
   176   167   3115
   177   168   3157
   178   168   3193
   179   168   3225
   205   341   57
   205   341   56
   213   350   388
   202   343   812
   174   314   1298
   162   266   1747
   163   229   2115
   163   231   2382
   168   233   2610
   172   234   2786
   175   236   2915
   177   236   3005
   178   237   3066
   180   237   3115
   181   237   3156
   188   266   3163
   204   368   3137
   228   481   63
   229   481   63
   234   489   445
   221   486   866
   188   469   1322
   182   441   1728
   182   401   2063
   178   345   2357
   173   300   2619
   176   297   2797
   179   298   2921
   183   307   2998
   194   366   3014
   208   446   3022
   220   520   3037
   233   593   3052
   246   670   3067
   259   647   96
   260   647   96
   263   659   526
   243   662   937
   204   655   1365
   204   644   1740
   208   628   2049
   210   611   2305
   213   594   2524
   217   592   2687
   223   614   2800
   232   657   2872
   243   713   2917
   254   779   2952
   267   845   2982
   280   912   3009
   294   983   3032
   301   868   175
   302   868   176
   299   885   630
   268   893   1030
   227   894   1430
   234   898   1777
   241   898   2063
   248   898   2304
   255   904   2504
   263   920   2655
   273   955   2762
   284   1004   2832
   297   1063   2881
   310   1123   2922
   323   1185   2958
   336   1245   2988
   349   1309   3014
   343   1144   277
   345   1144   278
   333   1164   758
   292   1175   1139
   265   1184   1509
   276   1198   1828
   288   1214   2097
   300   1227   2326
   311   1244   2511
   322   1272   2651
   333   1308   2751
   345   1356   2820
   357   1408   2869
   369   1459   2911
   380   1509   2949
   392   1561   2982
   405   1613   3009
   382   1456   405
   383   1458   486
   356   1473   904
   308   1485   1266
   319   1503   1607
   334   1524   1899
   346   1540   2149
   358   1555   2363
   370   1579   2536
   382   1606   2665
   393   1642   2758
   405   1684   2821
   417   1726   2871
   428   1765   2914
   439   1804   2952
   450   1840   2984
   461   1878   3013
   406   1763   549
   401   1766   688
   360   1776   1060
   365   1794   1402
   379   1811   1713
   393   1830   1983
   407   1845   2217
   420   1864   2414
   432   1883   2573
   445   1909   2691
   456   1935   2775
   467   1966   2834
   477   1996   2883
   489   2027   2925
   500   2060   2962
   511   2090   2994
   523   2122   3023
   405   2042   701
   400   2046   884
   413   2062   1229
   427   2077   1543
   443   2094   1826
   458   2108   2074
   473   2122   2292
   486   2134   2473
   499   2151   2615
   510   2169   2723
   521   2191   2799
   533   2217   2854
   543   2241   2901
   554   2265   2941
   564   2290   2977
   575   2314   3007
   585   2337   3035
   458   2305   854
   467   2311   1084
   482   2323   1396
   498   2337   1683
   514   2349   1940
   529   2358   2169
   543   2365   2370
   555   2372   2535
   566   2382   2663
   577   2397   2758
   586   2412   2824
   596   2431   2875
   606   2449   2920
   615   2467   2958
   623   2483   2991
   633   2501   3020
   641   2517   3047
   527   2540   988
   538   2546   1262
   553   2554   1549
   568   2560   1813
   583   2566   2049
   596   2567   2262
   608   2569   2446
   618   2569   2594
   627   2575   2707
   636   2583   2789
   644   2593   2847
   652   2606   2896
   660   2617   2937
   668   2630   2973
   675   2641   3004
   683   2653   3031
   690   2664   3056
   591   2736   1118
   604   2740   1428
   617   2743   1694
   631   2744   1935
   644   2744   2157
   655   2739   2354
   664   2733   2518
   672   2731   2648
   680   2732   2746
   687   2736   2816
   693   2742   2868
   700   2750   2913
   706   2756   2952
   715   2768   2987
   722   2779   3017
   730   2790   3045
   738   2801   3071
   648   2900   1238
   661   2900   1590
   673   2897   1831
   686   2895   2056
   696   2886   2261
   705   2877   2440
   712   2868   2584
   718   2862   2698
   726   2864   2783
   733   2871   2843
   740   2877   2893
   747   2884   2937
   755   2892   2975
   761   2897   3006
   768   2907   3036
   775   2914   3063
   834   2926   3092
   699   3030   1489
   709   3025   1747
   721   3020   1968
   731   3011   2177
   739   2999   2367
   748   2991   2527
   756   2986   2653
   763   2985   2750
   770   2988   2820
   777   2991   2874
   783   2995   2921
   789   2999   2961
   796   3004   2996
   842   3012   3029
   1114   3048   3081
   1339   3078   3127
   1481   3099   3165
   740   3127   1688
   750   3121   1906
   760   3112   2114
   769   3102   2307
   779   3095   2473
   787   3088   2608
   794   3085   2716
   801   3084   2795
   808   3086   2854
   814   3088   2904
   838   3093   2948
   1116   3126   3010
   1331   3153   3062
   1476   3171   3104
   1587   3188   3142
   1691   3204   3178
   1779   3217   3212
   774   3201   1866
   784   3193   2065
   794   3187   2256
   803   3178   2426
   813   3172   2567
   820   3167   2681
   827   3165   2769
   834   3165   2833
   1130   3198   2913
   1330   3222   2976
   1468   3238   3029
   1588   3254   3075
   1681   3266   3114
   1768   3277   3150
   1845   3288   3185
   1918   3298   3218
   1987   3308   3250
   273   17   59
   274   17   59
   282   23   369
   274   14   814
   249   11   1321
   222   12   1769
   222   16   2103
   223   20   2373
   227   22   2605
   231   26   2784
   233   28   2914
   235   30   3006
   236   31   3067
   237   32   3115
   238   34   3158
   238   35   3194
   239   37   3225
   292   216   58
   292   216   57
   300   224   391
   291   214   824
   259   183   1326
   224   157   1790
   224   159   2116
   225   161   2383
   229   163   2612
   233   165   2787
   236   166   2915
   237   167   3005
   239   168   3067
   240   168   3114
   241   168   3157
   242   168   3193
