Resources/LUT/Optimus.3dl
# 17x17x17 .3dl lookup table from LUT Buddy
   0   64   128   192   256   320   384   448   512   576   640   704   768   832   896   960   1023
   0   0   0
   1   0   6
   15   4   89
   30   8   186
   49   14   317
   74   20   469
   104   26   634
   141   32   812
   184   38   1008
   232   44   1220
   280   50   1437
   324   55   1647
   364   61   1851
   399   67   2033
   428   72   2204
   456   78   2369
   482   83   2529
   0   146   12
   0   146   12
   9   143   122
   10   167   206
   11   172   340
   12   178   493
   38   175   680
   75   174   883
   117   176   1095
   162   178   1315
   206   182   1532
   246   186   1741
   279   190   1930
   308   195   2100
   335   200   2266
   359   204   2424
   383   209   2579
   0   328   41
   0   328   41
   13   355   191
   14   326   287
   15   365   389
   15   379   546
   16   385   725
   16   392   916
   19   398   1116
   52   387   1346
   88   381   1568
   122   379   1777
   151   379   1962
   177   380   2131
   201   382   2294
   224   386   2450
   248   388   2609
   0   557   83
   0   557   83
   15   608   267
   18   597   401
   19   549   520
   20   609   618
   21   636   796
   23   643   998
   24   651   1203
   25   657   1411
   27   665   1615
   29   670   1805
   35   675   1976
   52   670   2142
   71   666   2306
   91   662   2468
   111   659   2626
   0   823   135
   0   823   135
   16   900   346
   27   904   525
   30   862   664
   31   823   767
   33   925   877
   35   938   1083
   37   945   1292
   39   952   1500
   41   959   1701
   43   966   1883
   45   973   2046
   47   980   2203
   49   987   2357
   51   994   2508
   54   1001   2659
   0   1132   199
   0   1130   199
   16   1238   435
   34   1243   644
   46   1229   835
   48   1153   969
   50   1165   1035
   53   1277   1174
   55   1287   1382
   57   1294   1590
   60   1302   1786
   62   1309   1959
   64   1317   2119
   67   1324   2272
   69   1332   2423
   72   1338   2576
   74   1344   2722
   0   1481   272
   0   1481   272
   17   1612   533
   40   1623   772
   63   1626   1014
   70   1547   1163
   73   1495   1254
   75   1555   1328
   78   1661   1477
   81   1668   1680
   83   1675   1868
   86   1682   2034
   88   1689   2190
   91   1696   2343
   93   1702   2495
   96   1707   2639
   98   1714   2783
   0   1847   350
   0   1855   363
   17   1979   632
   46   1991   897
   77   1993   1170
   95   1924   1354
   99   1841   1475
   102   1859   1518
   105   1934   1617
   108   2028   1770
   110   2034   1947
   113   2038   2109
   116   2044   2263
   118   2049   2412
   121   2052   2561
   123   2056   2703
   126   2064   2842
   0   2200   421
   0   2209   464
   18   2326   730
   51   2338   1024
   89   2339   1323
   118   2277   1536
   130   2181   1677
   132   2171   1713
   135   2211   1787
   139   2289   1899
   142   2367   2028
   144   2374   2186
   147   2377   2337
   149   2379   2487
   152   2384   2631
   155   2388   2769
   158   2393   2904
   0   2538   490
   2   2592   570
   20   2652   833
   58   2660   1154
   102   2661   1479
   138   2601   1710
   160   2499   1855
   167   2472   1899
   169   2494   1960
   173   2542   2049
   176   2601   2152
   178   2674   2267
   181   2686   2417
   184   2687   2562
   187   2688   2702
   189   2691   2835
   192   2694   2967
   0   2845   552
   5   2907   663
   23   2946   940
   65   2952   1290
   115   2951   1636
   157   2881   1869
   188   2780   2016
   203   2748   2066
   206   2758   2121
   209   2789   2197
   212   2832   2287
   215   2890   2387
   218   2958   2498
   222   2963   2639
   227   2963   2775
   234   2965   2907
   242   2968   3034
   0   3117   602
   7   3181   741
   27   3205   1033
   74   3207   1404
   129   3205   1762
   177   3125   1984
   214   3031   2134
   239   3000   2188
   248   3005   2249
   251   3027   2324
   256   3060   2408
   265   3106   2504
   273   3157   2606
   282   3204   2720
   291   3206   2855
   300   3205   2979
   310   3207   3100
   0   3365   598
   9   3420   773
   33   3435   1102
   87   3436   1500
   145   3429   1861
   196   3338   2066
   240   3260   2218
   277   3235   2280
   308   3240   2353
   323   3255   2433
   334   3280   2520
   344   3313   2612
   355   3353   2712
   366   3398   2816
   377   3418   2930
   389   3420   3052
   400   3420   3171
   0   3593   584
   9   3634   805
   28   3643   1147
   77   3643   1558
   139   3635   1927
   202   3538   2135
   266   3470   2291
   331   3453   2364
   387   3455   2448
   423   3466   2534
   438   3486   2624
   451   3511   2718
   463   3540   2813
   477   3573   2914
   491   3608   3014
   504   3609   3130
   518   3605   3244
   11   3813   572
   12   3820   847
   32   3822   1219
   85   3819   1655
   153   3790   2009
   225   3701   2215
   308   3650   2354
   396   3640   2441
   478   3644   2534
   538   3655   2628
   574   3671   2724
   589   3690   2819
   607   3710   2913
   623   3734   3010
   641   3758   3107
   661   3772   3211
   680   3770   3321
   17   3962   684
   20   3962   941
   46   3961   1356
   104   3956   1800
   176   3893   2105
   260   3818   2306
   365   3792   2416
   479   3792   2514
   585   3801   2617
   675   3812   2718
   739   3827   2817
   772   3839   2915
   793   3854   3010
   817   3871   3106
   842   3888   3202
   869   3905   3298
   896   3902   3402
   30   4054   775
   34   4053   1101
   67   4051   1553
   131   4035   1970
   209   3944   2218
   313   3898   2377
   445   3896   2482
   589   3906   2592
   724   3919   2701
   842   3933   2808
   942   3947   2910
   1011   3958   3011
   1047   3967   3106
   1076   3978   3202
   1111   3988   3295
   1145   3998   3388
   1184   4000   3486
   5   0   0
   6   0   0
   19   4   90
   33   9   187
   53   15   318
   77   20   471
   107   26   636
   144   33   816
   188   39   1011
   235   45   1223
   283   51   1440
   328   57   1654
   367   62   1855
   401   68   2036
   432   74   2206
   459   80   2370
   486   85   2533
   7   160   14
   7   160   14
   12   146   122
   12   170   207
   13   175   341
   15   181   494
   39   178   682
   77   177   886
   119   179   1098
   164   181   1320
   208   185   1537
   249   189   1747
   283   194   1936
   312   198   2106
   339   203   2270
   364   208   2429
   390   213   2586
   8   356   45
   8   356   45
   15   360   193
   16   330   290
   17   368   392
   18   383   550
   19   390   731
   21   397   922
   24   402   1125
   57   393   1352
   94   387   1576
   129   384   1785
   159   384   1968
   184   387   2138
   209   390   2300
   234   392   2459
   259   395   2617
   10   601   92
   10   601   92
   16   615   259
   25   602   405
   26   554   526
   28   615   623
   30   643   805
   32   650   1007
   34   657   1214
   37   665   1423
   40   672   1627
   43   679   1814
   49   684   1986
   66   680   2151
   86   676   2316
   106   672   2474
   127   671   2634
   11   888   150
   12   888   150
   16   912   329
   33   912   526
   42   870   673
   45   830   773
   47   935   887
   50   946   1094
   53   956   1305
   56   961   1514
   60   971   1713
   63   977   1893
   66   984   2057
   70   992   2214
   73   999   2367
   77   1005   2519
   80   1014   2671
   13   1221   220
   13   1223   220
   16   1253   410
   37   1259   636
   62   1241   845
   67   1157   980
   71   1178   1046
   74   1291   1188
   78   1299   1396
   82   1309   1604
   85   1315   1798
   89   1323   1973
   93   1329   2131
   96   1337   2284
   100   1346   2437
   104   1353   2587
   108   1360   2732
   14   1598   300
   14   1597   300
   17   1628   500
   40   1639   749
   75   1641   1016
   96   1557   1177
   99   1509   1265
   104   1570   1341
   108   1677   1493
   112   1684   1698
   116   1691   1884
   120   1698   2048
   124   1705   2205
   128   1710   2356
   132   1718   2506
   137   1726   2651
   141   1730   2796
   16   1967   376
   16   1977   404
   18   1997   594
   42   2006   859
   84   2012   1162
   119   1938   1366
   132   1854   1486
   137   1874   1531
   142   1953   1634
   146   2042   1787
   151   2048   1965
   155   2053   2124
   159   2059   2278
   164   2068   2427
   168   2071   2576
   173   2073   2718
   178   2081   2856
   18   2316   448
   19   2331   505
   21   2345   687
   45   2355   971
   92   2358   1302
   137   2294   1544
   167   2190   1688
   175   2186   1727
   180   2230   1803
   185   2304   1914
   190   2381   2048
   195   2387   2203
   200   2393   2354
   205   2396   2502
   210   2400   2647
   215   2406   2783
   221   2409   2917
   21   2649   516
   22   2662   597
   24   2670   784
   50   2682   1086
   100   2681   1441
   152   2621   1711
   195   2510   1868
   217   2484   1911
   223   2510   1976
   229   2557   2065
   234   2618   2169
   241   2691   2285
   246   2699   2434
   252   2702   2581
   259   2705   2720
   266   2707   2853
   273   2709   2981
   26   2945   574
   27   2959   685
   29   2965   884
   56   2970   1206
   109   2969   1581
   168   2908   1864
   219   2797   2026
   258   2758   2078
   276   2768   2136
   283   2801   2215
   291   2846   2304
   299   2904   2405
   308   2971   2519
   316   2975   2659
   325   2975   2792
   334   2977   2922
   344   2979   3049
   32   3207   605
   34   3218   746
   37   3223   961
   66   3226   1303
   121   3224   1689
   184   3154   1966
   245   3051   2133
   302   3018   2197
   343   3022   2264
   357   3043   2342
   367   3075   2426
   378   3118   2523
   390   3167   2625
   401   3214   2739
   414   3216   2869
   426   3215   2992
   439   3215   3114
   40   3439   593
   43   3450   773
   46   3452   1016
   78   3453   1383
   135   3449   1777
   204   3371   2043
   277   3280   2214
   353   3254   2288
   419   3256   2366
   456   3270   2450
   470   3294   2538
   485   3325   2633
   499   3360   2732
   515   3401   2834
   531   3426   2947
   547   3425   3067
   565   3425   3184
   50   3650   577
   54   3657   814
   59   3658   1091
   94   3657   1485
   154   3652   1880
   228   3560   2120
   317   3486   2287
   417   3469   2370
   509   3473   2458
   574   3483   2548
   608   3500   2643
   626   3521   2737
   645   3545   2834
   665   3574   2934
   686   3603   3034
   709   3614   3145
   732   3611   3257
   65   3831   628
   70   3831   880
   76   3832   1201
   115   3829   1614
   180   3805   1985
   262   3714   2202
   372   3664   2352
   496   3657   2444
   618   3663   2542
   715   3673   2641
   780   3686   2740
   812   3700   2836
   837   3717   2934
   864   3735   3032
   893   3754   3129
   923   3773   3226
   953   3773   3336
   84   3967   709
   89   3967   988
   99   3966   1355
   142   3962   1775
   212   3903   2090
   313   3830   2293
   448   3806   2413
   600   3809   2516
   751   3820   2624
   884   3833   2729
   989   3843   2831
   1057   3854   2930
   1095   3864   3029
   1129   3875   3125
   1165   3885   3222
   1205   3895   3317
   1245   3904   3417
   108   4055   811
   115   4054   1161
   129   4052   1566
   178   4039   1962
   261   3951   2205
   389   3908   2372
   552   3909   2479
   738   3922   2592
   925   3939   2706
   1097   3955   2815
   1243   3968   2919
   1352   3976   3020
   1420   3982   3119
   1464   3987   3214
   1505   3990   3312
   1553   3994   3405
   1603   3996   3500
   34   1   0
   34   1   0
   45   15   102
   61   19   207
   83   25   345
   111   31   504
   145   37   677
   186   43   863
   231   49   1064
   281   55   1278
   331   61   1496
   377   67   1705
   417   73   1901
   451   79   2079
   481   85   2244
   510   91   2406
   538   97   2567
   38   173   13
   39   173   13
   42   161   132
   44   185   221
   46   191   361
   48   196   520
   76   193   714
   118   191   927
   164   192   1145
   211   195   1366
   255   199   1582
   297   203   1788
   330   208   1972
   361   212   2140
   389   217   2302
   415   222   2459
   441   227   2615
   43   380   48
   43   380   48
   48   389   197
   57   349   308
   60   387   413
   62   403   575
   65   410   761
   68   417   960
   73   423   1165
   107   413   1395
   145   406   1616
   179   404   1819
   210   404   2002
   237   406   2169
   262   408   2326
   287   411   2485
   313   414   2642
   48   633   98
   48   634   98
   52   647   258
   71   629   424
   77   576   549
   81   643   647
   84   666   836
   87   674   1044
   91   681   1250
   94   688   1459
   98   696   1662
   101   703   1848
   109   707   2016
   123   707   2179
   144   701   2341
   164   699   2498
   185   697   2657
   53   930   158
   53   931   158
   57   949   332
   73   948   531
   101   895   699
   104   857   798
   108   964   918
   112   974   1130
   116   981   1341
   120   988   1548
   123   996   1746
   127   1003   1921
   131   1010   2085
   136   1019   2239
   140   1026   2393
   144   1033   2543
   149   1040   2693
   58   1273   231
   59   1273   231
   63   1299   419
   76   1301   630
   116   1275   869
   132   1182   1009
   136   1209   1072
   141   1320   1221
   145   1328   1432
   149   1336   1637
   154   1345   1828
   158   1352   1998
   163   1358   2154
   167   1366   2309
   172   1374   2461
   177   1381   2608
   182   1389   2752
   64   1652   310
   65   1651   310
   70   1679   517
   80   1685   737
   122   1679   1029
   161   1581   1205
   169   1537   1288
   174   1605   1369
   179   1704   1524
   184   1711   1727
   189   1718   1910
   194   1727   2073
   199   1734   2228
   204   1742   2378
   209   1746   2529
   214   1752   2673
   219   1759   2813
   72   2015   386
   75   2027   427
   77   2041   614
   86   2047   844
   129   2045   1162
   179   1965   1390
   206   1877   1506
   212   1900   1554
   218   1983   1660
   223   2068   1815
   228   2074   1989
   234   2080   2148
   240   2084   2300
   245   2089   2450
   252   2095   2597
   258   2100   2736
   264   2106   2873
   80   2361   457
   84   2376   525
   87   2387   711
   94   2394   956
   136   2390   1293
   192   2324   1562
   237   2211   1709
   257   2207   1747
   263   2254   1828
   271   2329   1940
   278   2405   2071
   285   2409   2225
   292   2412   2375
   300   2418   2524
   308   2421   2666
   316   2424   2801
   326   2427   2934
   90   2685   522
   94   2699   616
   97   2708   812
   104   2712   1074
   145   2709   1428
   205   2649   1721
   265   2529   1888
   310   2502   1933
   325   2528   2000
   334   2575   2090
   344   2634   2193
   354   2707   2309
   364   2716   2457
   374   2718   2600
   385   2722   2738
   396   2726   2870
   408   2727   2997
   101   2977   579
   106   2990   706
   110   2994   914
   116   3000   1197
   158   2995   1566
   221   2935   1872
   293   2817   2040
   363   2778   2101
   405   2788   2163
   418   2820   2241
   431   2861   2330
   444   2917   2432
   458   2981   2541
   471   2989   2679
   485   2989   2811
   500   2992   2940
   516   2995   3063
   115   3232   601
   120   3244   754
   125   3248   983
   132   3250   1288
   174   3246   1665
   240   3180   1961
   327   3076   2130
   419   3042   2210
   493   3046   2282
   526   3064   2363
   543   3092   2451
   559   3131   2549
   577   3174   2651
   596   3223   2759
   613   3226   2887
   633   3226   3009
   653   3227   3130
   131   3458   589
   137   3469   786
   142   3471   1044
   151   3470   1372
   194   3467   1756
   268   3393   2032
   369   3308   2205
   485   3280   2298
   589   3283   2382
   657   3294   2470
   685   3312   2562
   707   3338   2657
   729   3366   2757
   752   3399   2859
   776   3431   2966
   801   3432   3084
   829   3432   3199
   150   3664   574
   157   3671   834
   163   3670   1128
   173   3671   1480
   220   3665   1862
   305   3580   2106
   426   3514   2278
   566   3495   2375
   700   3499   2469
   808   3510   2566
   872   3522   2662
   901   3538   2759
   931   3556   2858
   959   3574   2957
   991   3597   3060
   1027   3618   3161
   1060   3616   3271
   174   3840   652
   181   3840   911
   188   3839   1247
   201   3837   1616
   256   3819   1971
   359   3735   2183
   501   3688   2346
   668   3684   2445
   836   3693   2548
   986   3704   2651
   1095   3713   2753
   1156   3723   2852
   1191   3732   2953
   1228   3742   3052
   1269   3754   3150
   1310   3764   3251
   1355   3775   3350
   203   3971   731
   212   3970   1034
   220   3968   1408
   240   3967   1779
   311   3916   2071
   436   3853   2266
   605   3832   2407
   803   3837   2514
   1008   3851   2623
   1197   3865   2729
   1353   3876   2832
   1460   3883   2935
   1517   3888   3037
   1560   3890   3135
   1609   3895   3237
   1655   3898   3334
   1703   3900   3431
   243   4055   845
   255   4054   1221
   268   4052   1612
   299   4041   1956
   395   3969   2180
   547   3932   2354
   752   3936   2472
   985   3952   2586
   1231   3971   2698
   1455   3988   2804
   1645   4000   2907
   1789   4007   3009
   1878   4008   3116
   1932   4006   3221
   1978   4004   3321
   2025   4000   3417
   2076   3997   3515
   99   3   0
   99   3   0
   105   26   111
   123   30   222
   148   35   367
   179   41   530
   216   47   709
   260   54   902
   309   61   1108
   361   68   1324
   411   76   1541
   458   82   1752
   498   88   1943
   533   94   2116
   565   100   2281
   594   105   2438
   622   111   2597
   110   180   9
   110   180   9
   121   169   139
   113   200   233
   116   206   377
   119   212   541
   153   207   747
   197   206   965
   244   207   1186
   293   210   1408
   338   214   1623
   379   219   1827
   412   224   2006
   442   229   2171
   469   234   2331
   496   239   2486
