Resources/LUT/Optimus.3dl
# 17x17x17 .3dl lookup table from LUT Buddy
0 128 256 384 512 640 768 896 1023
   0   0   0
   15   4   89
   49   14   317
   104   26   634
   184   38   1008
   280   50   1437
   364   61   1851
   428   72   2204
   482   83   2529
   0   328   41
   13   355   191
   15   365   389
   16   385   725
   19   398   1116
   88   381   1568
   151   379   1962
   201   382   2294
   248   388   2609
   0   823   135
   16   900   346
   30   862   664
   33   925   877
   37   945   1292
   41   959   1701
   45   973   2046
   49   987   2357
   54   1001   2659
   0   1481   272
   17   1612   533
   63   1626   1014
   73   1495   1254
   78   1661   1477
   83   1675   1868
   88   1689   2190
   93   1702   2495
   98   1714   2783
   0   2200   421
   18   2326   730
   89   2339   1323
   130   2181   1677
   135   2211   1787
   142   2367   2028
   147   2377   2337
   152   2384   2631
   158   2393   2904
   0   2845   552
   23   2946   940
   115   2951   1636
   188   2780   2016
   206   2758   2121
   212   2832   2287
   218   2958   2498
   227   2963   2775
   242   2968   3034
   0   3365   598
   33   3435   1102
   145   3429   1861
   240   3260   2218
   308   3240   2353
   334   3280   2520
   355   3353   2712
   377   3418   2930
   400   3420   3171
   11   3813   572
   32   3822   1219
   153   3790   2009
   308   3650   2354
   478   3644   2534
   574   3671   2724
   607   3710   2913
   641   3758   3107
   680   3770   3321
   30   4054   775
   67   4051   1553
   209   3944   2218
   445   3896   2482
   724   3919   2701
   942   3947   2910
   1047   3967   3106
   1111   3988   3295
   1184   4000   3486
   34   1   0
   45   15   102
   83   25   345
   145   37   677
   231   49   1064
   331   61   1496
   417   73   1901
   481   85   2244
   538   97   2567
   43   380   48
   48   389   197
   60   387   413
   65   410   761
   73   423   1165
   145   406   1616
   210   404   2002
   262   408   2326
   313   414   2642
   53   930   158
   57   949   332
   101   895   699
   108   964   918
   116   981   1341
   123   996   1746
   131   1010   2085
   140   1026   2393
   149   1040   2693
   64   1652   310
   70   1679   517
   122   1679   1029
   169   1537   1288
   179   1704   1524
   189   1718   1910
   199   1734   2228
   209   1746   2529
   219   1759   2813
   80   2361   457
   87   2387   711
   136   2390   1293
   237   2211   1709
   263   2254   1828
   278   2405   2071
   292   2412   2375
   308   2421   2666
   326   2427   2934
   101   2977   579
   110   2994   914
   158   2995   1566
   293   2817   2040
   405   2788   2163
   431   2861   2330
   458   2981   2541
   485   2989   2811
   516   2995   3063
   131   3458   589
   142   3471   1044
   194   3467   1756
   369   3308   2205
   589   3283   2382
   685   3312   2562
   729   3366   2757
   776   3431   2966
   829   3432   3199
   174   3840   652
   188   3839   1247
   256   3819   1971
   501   3688   2346
   836   3693   2548
   1095   3713   2753
   1191   3732   2953
   1269   3754   3150
   1355   3775   3350
   243   4055   845
   268   4052   1612
   395   3969   2180
   752   3936   2472
   1231   3971   2698
   1645   4000   2907
   1878   4008   3116
   1978   4004   3321
   2076   3997   3515
   194   7   0
   196   36   120
   241   48   387
   314   60   742
   411   75   1149
   515   90   1584
   601   105   1979
   668   118   2312
   728   130   2624
   222   406   42
   244   415   207
   234   419   457
   242   451   819
   257   462   1239
   333   445   1689
   397   445   2060
   451   449   2380
   505   456   2690
   246   982   157
   271   1001   352
   280   960   742
   310   1021   983
   322   1037   1407
   336   1053   1809
   351   1068   2136
   367   1082   2441
   384   1096   2736
   273   1720   311
   304   1748   547
   313   1761   1040
   423   1595   1358
   447   1767   1590
   468   1783   1965
   491   1795   2277
   514   1807   2572
   541   1820   2851
   307   2423   448
   351   2447   744
   365   2456   1302
   519   2287   1769
   636   2288   1914
   675   2429   2130
   711   2460   2425
   749   2468   2708
   790   2473   2968
   354   3019   551
   421   3038   921
   442   3041   1541
   612   2921   2007
   911   2865   2228
   993   2900   2400
   1053   2974   2608
   1116   3022   2852
   1180   3025   3095
   429   3486   528
   528   3497   1014
   562   3497   1673
   765   3415   2120
   1193   3387   2382
   1464   3392   2599
   1543   3406   2807
   1627   3429   3018
   1714   3450   3230
   607   3851   622
   702   3850   1183
   755   3845   1830
   1027   3794   2218
   1567   3796   2467
   1987   3798   2704
   2143   3793   2950
   2226   3788   3172
   2305   3783   3380
   889   4054   790
   1001   4052   1455
   1092   4048   2006
   1487   4031   2326
   2062   4029   2629
   2453   4017   2924
   2672   4008   3156
   2759   4002   3355
   2836   3997   3542
   497   36   0
   490   41   101
   526   79   429
   615   93   808
   726   108   1232
   839   124   1667
   930   140   2045
   1006   156   2369
   1079   172   2676
   603   437   2
   650   451   167
   621   446   552
   646   487   912
   773   486   1395
   893   499   1831
   990   515   2182
   1075   532   2491
   1159   550   2787
   601   1022   27
   682   1043   246
   808   1051   751
   792   1049   1071
   824   1096   1472
   858   1112   1864
   895   1124   2190
   973   1109   2514
   1056   1107   2814
   667   1775   143
   770   1802   412
   938   1814   994
   1015   1713   1475
   1093   1770   1693
   1145   1846   2018
   1193   1859   2325
   1245   1872   2617
   1296   1881   2887
   745   2470   230
   882   2493   574
   1095   2502   1217
   1152   2485   1735
   1457   2397   2021
   1521   2407   2237
   1592   2509   2474
   1655   2517   2749
   1721   2524   3003
   845   3053   268
   1063   3069   707
   1310   3074   1314
   1375   3074   1808
   1800   3041   2150
   1974   3026   2417
   2041   3021   2669
   2107   3039   2899
   2182   3059   3130
   1047   3507   223
   1356   3517   828
   1589   3516   1426
   1671   3514   1860
   2080   3495   2224
   2407   3477   2541
   2486   3474   2803
   2549   3473   3041
   2613   3472   3262
   1418   3861   360
   1760   3858   1043
   1944   3854   1593
   2049   3850   1989
   2403   3833   2414
   2735   3812   2745
   2897   3801   2994
   2958   3797   3209
   3022   3792   3410
   1905   4054   633
   2235   4052   1380
   2354   4049   1867
   2466   4045   2282
   2760   4033   2661
   3052   4021   2964
   3244   4011   3199
   3327   4004   3392
   3382   3998   3572
   1230   184   0
   1274   190   101
   1127   147   350
   1161   133   719
   1350   149   1213
   1540   165   1707
   1674   182   2099
   1775   199   2422
   1867   215   2723
   1627   728   3
   1671   720   176
   1605   628   537
   1429   543   903
   1588   559   1402
   1766   574   1868
   1890   589   2227
   1995   605   2540
   2095   620   2832
   1734   1307   6
   1822   1340   216
   1895   1304   700
   1740   1145   1151
   1838   1153   1605
   2000   1168   2034
   2096   1184   2355
   2166   1200   2640
   2216   1216   2901
   1650   1859   9
   1752   1899   272
   1910   1921   826
   2088   1932   1410
   2111   1890   1804
   2202   1904   2151
   2279   1917   2450
   2340   1930   2718
   2388   1943   2964
   1667   2512   13
   1793   2534   359
   2004   2541   971
   2208   2546   1526
   2412   2540   1970
   2491   2546   2276
   2553   2553   2549
   2608   2564   2805
   2654   2571   3044
   1752   3082   16
   1983   3100   494
   2262   3103   1138
   2441   3105   1668
   2596   3100   2094
   2812   3084   2415
   2869   3088   2678
   2919   3092   2928
   2968   3094   3159
   2026   3531   105
   2304   3536   710
   2561   3534   1355
   2706   3532   1838
   2822   3527   2228
   3079   3503   2590
   3167   3499   2849
   3211   3497   3079
   3258   3495   3292
   2361   3868   316
   2686   3866   1041
   2880   3861   1627
   2973   3857   2059
   3060   3849   2440
   3276   3829   2783
   3425   3814   3038
   3472   3808   3246
   3513   3804   3440
   2803   4054   754
   3066   4051   1471
   3168   4049   1969
   3225   4044   2356
   3314   4038   2693
   3483   4026   3000
   3617   4013   3240
   3684   4005   3430
   3718   3999   3601
   2388   458   0
   2434   452   101
   2231   415   385
   2215   283   652
   2248   196   988
   2288   214   1407
   2331   231   1756
   2438   248   2086
   2555   266   2411
   2715   1003   4
   2748   990   185
   2733   878   559
   2469   737   883
   2487   615   1189
   2520   630   1586
   2556   647   1914
   2615   663   2219
   2711   679   2525
   2852   1664   8
   2887   1646   231
   2912   1496   724
   2844   1317   1197
   2726   1255   1523
   2759   1239   1865
   2794   1256   2173
   2831   1272   2463
   2883   1286   2739
   2791   2283   10
   2886   2288   293
   3030   2218   848
   3058   2061   1403
   2959   2013   1806
   2992   1987   2115
   3026   1988   2402
   3060   2001   2681
   3096   2012   2936
   2687   2754   14
   2836   2761   387
   3037   2719   1000
   3157   2671   1542
   3200   2623   1966
   3207   2612   2282
   3241   2612   2564
   3273   2618   2826
   3307   2625   3067
   2666   3172   18
   2892   3186   546
   3133   3173   1195
   3257   3156   1704
   3317   3137   2103
   3402   3125   2454
   3435   3129   2723
   3467   3130   2967
   3499   3131   3190
   2800   3552   163
   3068   3554   801
   3289   3553   1437
   3397   3552   1895
   3448   3547   2275
   3518   3537   2623
   3604   3524   2895
   3633   3522   3117
   3661   3521   3322
   3046   3877   409
   3345   3874   1160
   3492   3869   1718
   3544   3865   2140
   3578   3859   2491
   3635   3849   2810
   3735   3829   3084
   3770   3821   3284
   3792   3816   3470
   3397   4055   932
   3591   4051   1602
   3641   4049   2071
   3673   4044   2440
   3703   4039   2750
   3753   4032   3032
   3827   4018   3278
   3877   4007   3468
   3897   4000   3631
   3286   597   0
   3311   569   103
   3180   576   419
   3093   480   727
   3116   336   1016
   3138   271   1354
   3163   288   1699
   3187   306   2006
   3209   324   2304
   3451   1062   4
   3472   1023   189
   3475   875   579
   3307   821   981
   3253   754   1308
   3273   696   1629
   3297   713   1952
   3316   728   2252
   3340   745   2532
   3520   1702   8
   3538   1656   237
   3551   1497   741
   3538   1326   1245
   3393   1358   1623
   3408   1336   1947
   3430   1334   2236
   3450   1351   2525
   3471   1368   2793
   3495   2394   12
   3558   2375   307
   3609   2221   876
   3621   2070   1427
   3581   2029   1854
   3534   2052   2169
   3554   2064   2465
   3575   2076   2737
   3597   2089   2988
   3365   2882   14
   3475   2862   416
   3619   2775   1040
   3674   2685   1573
   3688   2635   1991
   3649   2662   2329
   3666   2670   2610
   3685   2676   2863
   3705   2683   3099
   3295   3299   35
   3478   3277   600
   3651   3221   1251
   3721   3178   1746
   3742   3165   2149
   3758   3162   2497
   3763   3167   2768
   3781   3172   3005
   3797   3172   3218
   3330   3631   229
   3568   3612   887
   3726   3586   1504
   3779   3572   1955
   3795   3567   2335
   3811   3562   2658
   3843   3551   2940
   3858   3550   3153
   3873   3549   3352
   3448   3894   526
   3712   3886   1281
   3815   3880   1808
   3832   3874   2218
   3848   3867   2558
   3865   3860   2849
   3895   3849   3117
   3929   3836   3322
   3943   3831   3497
   3720   4056   1122
   3855   4053   1738
   3872   4049   2182
   3889   4044   2530
   3907   4039   2824
   3925   4032   3075
   3954   4023   3309
   3990   4009   3505
   4005   4001   3659
   3780   565   1
   3790   535   108
   3728   554   457
   3648   519   832
   3644   426   1159
   3656   347   1470
   3667   352   1793
   3676   371   2099
   3690   388   2389
   3835   1062   5
   3842   1021   197
   3847   864   606
   3776   822   1057
   3708   829   1423
   3715   788   1747
   3725   785   2042
   3737   802   2339
   3746   818   2614
   3858   1725   9
   3864   1677   251
   3868   1509   777
   3868   1340   1295
   3799   1395   1709
   3774   1425   2034
   3785   1425   2323
   3795   1439   2603
   3805   1455   2863
   3800   2437   13
   3849   2410   331
   3886   2241   923
   3891   2100   1471
   3883   2056   1903
   3832   2125   2223
   3838   2139   2511
   3848   2151   2776
   3857   2165   3020
   3646   2928   16
   3748   2898   458
   3874   2800   1100
   3909   2711   1624
   3916   2681   2040
   3902   2703   2393
   3886   2730   2655
   3895   2737   2902
   3905   2742   3128
   3573   3339   147
   3730   3305   672
   3880   3244   1322
   3929   3203   1801
   3938   3199   2202
   3946   3197   2542
   3932   3214   2814
   3942   3216   3040
   3951   3218   3248
   3573   3658   337
   3796   3632   991
   3923   3605   1587
   3954   3594   2028
   3963   3590   2393
   3971   3585   2705
   3980   3579   2978
   3984   3581   3191
   3993   3579   3379
   3700   3908   718
   3906   3897   1404
   3971   3890   1907
   3980   3885   2299
   3989   3878   2624
   3999   3871   2902
   4008   3863   3145
   4022   3852   3360
   4030   3846   3526
   3912   4058   1316
   3990   4054   1882
   3999   4050   2295
   4009   4045   2624
   4018   4039   2900
   4027   4032   3137
   4036   4024   3344
   4048   4012   3538
   4055   4000   3687
   3985   569   1
   3988   534   114
   3963   539   480
   3919   525   904
   3901   483   1258
   3906   420   1573
   3910   424   1882
   3914   443   2184
   3920   461   2466
   4001   1089   7
   4003   1046   208
   4005   878   639
   3978   828   1113
   3936   870   1508
   3926   867   1833
   3931   863   2121
   3936   881   2410
   3941   899   2681
   4008   1777   11
   4011   1722   270
   4013   1544   818
   4014   1377   1344
   3984   1431   1779
   3953   1508   2104
   3956   1518   2392
   3960   1534   2663
   3966   1550   2915
   3923   2481   14
   3976   2448   361
   4019   2281   976
   4022   2148   1519
   4023   2110   1948
   3993   2183   2286
   3981   2223   2557
   3987   2235   2814
   3992   2246   3051
   3772   2967   37
   3879   2928   508
   4001   2829   1162
   4028   2748   1677
   4032   2730   2087
   4030   2742   2439
   4009   2788   2703
   4011   2799   2938
   4016   2804   3155
   3711   3366   231
   3865   3329   751
   4000   3272   1395
   4036   3237   1864
   4039   3236   2253
   4042   3234   2583
   4039   3246   2866
   4032   3264   3076
   4037   3266   3276
   3734   3677   493
   3928   3650   1101
   4030   3625   1671
   4043   3619   2098
   4047   3614   2450
   4050   3610   2751
   4053   3604   3013
   4050   3613   3227
   4053   3609   3406
   3882   3919   976
   4015   3910   1532
   4048   3903   2007
   4051   3897   2380
   4054   3890   2691
   4057   3882   2956
   4060   3874   3186
   4062   3865   3389
   4062   3860   3552
   4031   4060   1570
   4052   4056   2035
   4055   4051   2412
   4058   4046   2721
   4060   4039   2982
   4062   4031   3205
   4065   4021   3399
   4067   4007   3571
   4070   3993   3717
