Resources/LUT/Optimus.3dl
# 17x17x17 .3dl lookup table from LUT Buddy
0 256 512 768 1023
   0   0   0
   49   14   317
   184   38   1008
   364   61   1851
   482   83   2529
   0   823   135
   30   862   664
   37   945   1292
   45   973   2046
   54   1001   2659
   0   2200   421
   89   2339   1323
   135   2211   1787
   147   2377   2337
   158   2393   2904
   0   3365   598
   145   3429   1861
   308   3240   2353
   355   3353   2712
   400   3420   3171
   30   4054   775
   209   3944   2218
   724   3919   2701
   1047   3967   3106
   1184   4000   3486
   194   7   0
   241   48   387
   411   75   1149
   601   105   1979
   728   130   2624
   246   982   157
   280   960   742
   322   1037   1407
   351   1068   2136
   384   1096   2736
   307   2423   448
   365   2456   1302
   636   2288   1914
   711   2460   2425
   790   2473   2968
   429   3486   528
   562   3497   1673
   1193   3387   2382
   1543   3406   2807
   1714   3450   3230
   889   4054   790
   1092   4048   2006
   2062   4029   2629
   2672   4008   3156
   2836   3997   3542
   1230   184   0
   1127   147   350
   1350   149   1213
   1674   182   2099
   1867   215   2723
   1734   1307   6
   1895   1304   700
   1838   1153   1605
   2096   1184   2355
   2216   1216   2901
   1667   2512   13
   2004   2541   971
   2412   2540   1970
   2553   2553   2549
   2654   2571   3044
   2026   3531   105
   2561   3534   1355
   2822   3527   2228
   3167   3499   2849
   3258   3495   3292
   2803   4054   754
   3168   4049   1969
   3314   4038   2693
   3617   4013   3240
   3718   3999   3601
   3286   597   0
   3180   576   419
   3116   336   1016
   3163   288   1699
   3209   324   2304
   3520   1702   8
   3551   1497   741
   3393   1358   1623
   3430   1334   2236
   3471   1368   2793
   3365   2882   14
   3619   2775   1040
   3688   2635   1991
   3666   2670   2610
   3705   2683   3099
   3330   3631   229
   3726   3586   1504
   3795   3567   2335
   3843   3551   2940
   3873   3549   3352
   3720   4056   1122
   3872   4049   2182
   3907   4039   2824
   3954   4023   3309
   4005   4001   3659
   3985   569   1
   3963   539   480
   3901   483   1258
   3910   424   1882
   3920   461   2466
   4008   1777   11
   4013   1544   818
   3984   1431   1779
   3956   1518   2392
   3966   1550   2915
   3772   2967   37
   4001   2829   1162
   4032   2730   2087
   4009   2788   2703
   4016   2804   3155
   3734   3677   493
   4030   3625   1671
   4047   3614   2450
   4053   3604   3013
   4053   3609   3406
   4031   4060   1570
   4055   4051   2412
   4060   4039   2982
   4065   4021   3399
   4070   3993   3717
