Resources/LUT/Platinum.3dl
# 17x17x17 .3dl lookup table from LUT Buddy
   0   64   128   192   256   320   384   448   512   576   640   704   768   832   896   960   1023
   306   337   331
   308   339   332
   358   395   387
   412   456   447
   471   522   511
   531   591   578
   593   661   646
   654   731   715
   715   801   783
   774   869   849
   828   931   909
   879   991   967
   927   1046   1020
   973   1099   1073
   1014   1147   1119
   1054   1194   1164
   1092   1238   1207
   393   435   426
   393   435   426
   440   488   477
   493   547   535
   549   611   597
   607   677   662
   666   745   728
   727   814   796
   786   883   862
   844   950   927
   897   1011   987
   947   1069   1043
   994   1124   1097
   1039   1176   1147
   1081   1225   1195
   1119   1270   1238
   1156   1313   1280
   494   549   537
   494   548   537
   537   598   585
   587   654   640
   641   716   700
   698   781   763
   755   847   828
   814   915   894
   872   982   958
   928   1046   1021
   980   1107   1080
   1029   1165   1136
   1075   1219   1188
   1119   1270   1238
   1159   1317   1283
   1198   1362   1327
   1233   1403   1367
   605   675   660
   604   674   659
   645   721   705
   693   776   759
   745   836   816
   800   899   877
   856   963   941
   912   1029   1004
   968   1094   1067
   1023   1157   1129
   1074   1217   1186
   1122   1273   1240
   1167   1325   1292
   1209   1375   1340
   1249   1421   1384
   1287   1466   1428
   1321   1506   1467
   723   810   791
   722   809   791
   761   855   835
   808   908   886
   858   966   943
   911   1027   1003
   964   1089   1062
   1019   1153   1125
   1074   1217   1186
   1126   1278   1246
   1176   1336   1302
   1223   1391   1356
   1267   1443   1405
   1308   1491   1452
   1347   1536   1496
   1383   1579   1537
   1416   1618   1576
   845   952   929
   845   952   929
   883   995   971
   928   1047   1022
   977   1104   1076
   1027   1163   1134
   1079   1223   1193
   1133   1286   1253
   1185   1347   1312
   1237   1408   1371
   1285   1464   1426
   1330   1517   1478
   1373   1567   1525
   1413   1615   1572
   1451   1659   1615
   1486   1700   1654
   1519   1739   1692
   971   1097   1071
   971   1097   1071
   1010   1142   1114
   1052   1192   1162
   1100   1247   1216
   1149   1305   1271
   1200   1364   1329
   1251   1424   1387
   1301   1483   1444
   1352   1542   1502
   1397   1596   1554
   1442   1648   1605
   1483   1697   1652
   1522   1743   1696
   1559   1786   1738
   1593   1826   1777
   1624   1863   1813
   1099   1246   1215
   1100   1247   1216
   1137   1291   1258
   1180   1340   1306
   1225   1393   1357
   1272   1449   1411
   1321   1506   1467
   1370   1564   1523
   1421   1623   1581
   1469   1680   1635
   1514   1733   1687
   1556   1783   1735
   1596   1830   1781
   1634   1874   1823
   1669   1915   1863
   1702   1955   1901
   1733   1990   1936
   1226   1394   1359
   1227   1396   1361
   1266   1441   1404
   1305   1488   1449
   1351   1541   1500
   1396   1594   1553
   1445   1652   1608
   1493   1708   1662
   1540   1764   1717
   1587   1818   1769
   1631   1870   1820
   1671   1918   1865
   1710   1963   1911
   1746   2005   1951
   1780   2044   1989
   1812   2080   2025
   1841   2114   2058
   1349   1539   1498
   1354   1545   1504
   1390   1587   1546
   1430   1634   1591
   1474   1686   1641
   1518   1738   1692
   1565   1792   1744
   1612   1849   1799
   1659   1904   1852
   1703   1955   1903
   1745   2003   1949
   1785   2050   1995
   1822   2092   2036
   1857   2133   2075
   1889   2169   2112
   1919   2203   2144
   1948   2237   2177
   1467   1678   1633
   1475   1688   1643
   1511   1729   1683
   1551   1777   1729
   1593   1826   1777
   1636   1877   1826
   1682   1931   1879
   1727   1983   1929
   1772   2035   1981
   1815   2085   2029
   1856   2131   2074
   1895   2176   2117
   1929   2214   2155
   1963   2253   2194
   1996   2291   2230
   2029   2327   2265
   2058   2361   2298
   1579   1810   1760
   1591   1824   1775
   1626   1865   1815
   1665   1912   1859
   1707   1959   1906
   1750   2010   1955
   1794   2060   2004
   1838   2110   2054
   1881   2159   2101
   1924   2209   2149
   1964   2254   2195
   2002   2298   2237
   2039   2339   2277
   2075   2379   2316
   2107   2414   2350
   2136   2449   2385
   2165   2479   2414
   1686   1936   1883
   1704   1957   1904
   1739   1996   1942
   1777   2041   1985
   1818   2088   2032
   1859   2135   2078
   1904   2185   2127
   1949   2237   2177
   1993   2286   2226
   2035   2334   2273
   2075   2379   2316
   2113   2422   2359
   2146   2460   2394
   2179   2497   2431
   2211   2532   2466
   2241   2566   2499
   2266   2594   2528
   1790   2056   2000
   1817   2087   2031
   1853   2127   2070
   1892   2173   2113
   1934   2221   2161
   1977   2269   2209
   2020   2316   2255
   2063   2367   2303
   2106   2415   2351
   2146   2460   2395
   2183   2502   2436
   2219   2542   2475
   2252   2579   2512
   2284   2614   2545
   2311   2646   2578
   2341   2679   2609
   2366   2708   2637
   1899   2180   2122
   1933   2219   2160
   1969   2260   2199
   2008   2303   2242
   2048   2350   2287
   2091   2398   2335
   2131   2444   2379
   2173   2490   2424
   2214   2536   2470
   2253   2580   2512
   2287   2620   2552
   2322   2658   2588
   2354   2693   2623
   2384   2726   2655
   2413   2759   2687
   2438   2787   2716
   2463   2816   2743
   2010   2305   2244
   2043   2343   2282
   2080   2384   2320
   2116   2426   2361
   2157   2472   2408
   2198   2519   2453
   2237   2562   2496
   2277   2608   2539
   2315   2649   2581
   2352   2691   2621
   2388   2731   2660
   2419   2767   2695
   2451   2801   2727
   2480   2833   2761
   2505   2864   2790
   2532   2891   2817
   2556   2918   2844
   2111   2421   2356
   2144   2457   2391
   2181   2499   2433
   2219   2541   2476
   2257   2584   2519
   2297   2629   2561
   2337   2675   2605
   2375   2716   2646
   2411   2758   2686
   2447   2797   2725
   2478   2833   2761
   2512   2868   2795
   2540   2901   2827
   2569   2932   2856
   2593   2959   2885
   2618   2987   2911
   2642   3013   2938
   311   343   336
   312   343   337
   362   400   392
   417   462   452
   475   527   516
   536   596   583
   598   667   653
   660   739   722
   721   808   790
   780   877   856
   836   940   918
   888   1000   976
   936   1057   1031
   982   1110   1083
   1025   1159   1130
   1064   1206   1176
   1102   1250   1219
   401   443   434
   401   444   435
   448   496   486
   500   555   543
   557   620   607
   615   686   672
   675   756   738
   736   825   806
   796   894   873
   853   960   938
   908   1024   999
   959   1082   1056
   1006   1138   1110
   1051   1190   1161
   1093   1240   1208
   1133   1285   1253
   1170   1329   1295
   504   560   548
   504   561   549
   548   610   597
   598   667   653
   652   729   713
   709   794   776
   767   861   841
   826   929   908
   885   997   973
   941   1062   1036
   994   1123   1096
   1044   1182   1153
   1091   1237   1206
   1134   1288   1255
   1176   1336   1302
   1215   1381   1347
   1252   1425   1388
   617   689   674
   618   689   674
   659   736   720
   707   792   774
   759   852   832
   814   916   894
   871   981   958
   928   1048   1022
   985   1113   1086
   1039   1177   1147
   1092   1237   1206
   1140   1294   1262
   1186   1348   1313
   1229   1398   1362
   1270   1446   1409
   1308   1491   1452
   1344   1533   1493
   738   827   808
   738   828   809
   778   874   853
   825   928   906
   876   987   963
   928   1048   1022
   983   1112   1085
   1039   1176   1147
   1094   1240   1209
   1147   1303   1269
   1198   1361   1327
   1246   1418   1381
   1290   1469   1432
   1332   1519   1480
   1372   1566   1525
   1410   1610   1567
   1444   1652   1607
   863   973   950
   864   973   950
   903   1019   994
   949   1072   1045
   999   1129   1101
   1049   1187   1158
   1103   1250   1219
   1157   1313   1281
   1210   1376   1341
   1262   1437   1400
   1312   1495   1456
   1357   1548   1508
   1401   1600   1558
   1442   1649   1605
   1481   1694   1649
   1517   1737   1690
   1551   1777   1728
   993   1123   1096
   994   1124   1096
   1033   1169   1140
   1078   1221   1191
   1125   1277   1245
   1175   1335   1301
   1227   1396   1360
   1279   1456   1418
   1331   1518   1478
   1381   1577   1535
   1429   1633   1590
   1474   1686   1641
   1516   1736   1690
   1557   1784   1736
   1595   1828   1779
   1629   1868   1819
   1664   1909   1857
   1125   1277   1244
   1126   1278   1246
   1166   1324   1290
   1208   1374   1339
   1255   1428   1392
   1303   1485   1447
   1353   1544   1504
   1404   1604   1562
   1455   1664   1620
   1504   1722   1675
   1550   1776   1728
   1594   1828   1778
   1635   1875   1825
   1674   1921   1869
   1711   1965   1911
   1745   2004   1950
   1778   2042   1986
   1254   1428   1391
   1259   1434   1397
   1297   1478   1440
   1340   1529   1489
   1385   1581   1540
   1433   1638   1594
   1482   1695   1650
   1531   1753   1706
   1580   1811   1762
   1627   1866   1816
   1672   1919   1866
   1715   1969   1915
   1755   2015   1961
   1793   2058   2004
   1828   2099   2042
   1862   2138   2080
   1894   2174   2115
   1383   1578   1537
   1391   1588   1546
   1428   1631   1588
   1470   1681   1636
   1513   1733   1686
   1560   1787   1739
   1608   1844   1795
   1656   1900   1849
   1704   1956   1904
   1750   2009   1955
   1794   2060   2004
   1834   2106   2050
   1874   2151   2093
   1910   2192   2134
   1944   2232   2172
   1976   2268   2208
   2007   2302   2241
   1505   1723   1677
   1516   1737   1690
   1555   1781   1734
   1595   1829   1780
   1639   1880   1829
   1685   1934   1882
   1732   1988   1935
   1779   2042   1988
   1825   2096   2040
   1870   2147   2089
   1911   2195   2136
   1951   2240   2180
   1989   2283   2222
   2024   2322   2260
   2057   2359   2296
   2088   2395   2331
   2116   2426   2362
   1622   1861   1810
   1638   1880   1829
   1676   1923   1872
   1716   1971   1918
   1760   2021   1967
   1804   2072   2017
   1850   2124   2068
   1896   2177   2119
   1941   2229   2169
   1984   2277   2216
   2024   2323   2262
   2063   2366   2303
   2100   2407   2344
   2132   2445   2380
   2165   2480   2414
   2193   2514   2448
   2222   2546   2479
   1736   1993   1939
   1758   2018   1964
   1795   2061   2005
   1836   2108   2051
   1877   2155   2097
   1922   2206   2147
   1967   2257   2198
   2010   2307   2246
   2054   2357   2293
   2095   2403   2339
   2134   2447   2382
   2169   2487   2422
   2204   2525   2459
   2237   2562   2496
   2268   2596   2529
   2296   2629   2560
   2323   2658   2590
   1848   2122   2064
   1876   2153   2095
   1913   2196   2136
   1952   2241   2181
   1995   2290   2228
   2038   2337   2274
   2081   2386   2322
   2124   2435   2371
   2166   2483   2417
   2204   2525   2459
   2242   2567   2501
   2276   2607   2539
   2309   2644   2574
   2341   2679   2608
   2370   2710   2640
   2396   2740   2670
   2423   2769   2697
   1956   2244   2186
   1989   2282   2222
   2027   2325   2262
   2065   2369   2307
   2106   2416   2352
   2150   2464   2398
   2191   2510   2444
   2232   2557   2490
   2272   2602   2534
   2310   2645   2575
   2346   2684   2615
   2379   2721   2651
   2411   2757   2685
   2440   2789   2717
   2468   2821   2748
   2493   2850   2776
   2520   2877   2804
   2063   2368   2303
   2098   2406   2342
   2134   2446   2381
   2173   2491   2425
   2214   2536   2470
   2254   2582   2514
   2296   2628   2559
   2336   2674   2604
   2374   2716   2646
   2411   2758   2686
   2445   2794   2722
   2476   2830   2757
   2507   2864   2790
   2535   2896   2822
   2562   2925   2850
   2588   2954   2878
   2611   2980   2904
   2162   2479   2413
   2197   2517   2451
   2234   2559   2493
   2272   2602   2534
   2312   2648   2579
   2352   2693   2623
   2394   2737   2667
   2432   2781   2710
   2469   2822   2749
   2504   2860   2788
   2537   2897   2823
   2568   2932   2856
   2596   2964   2889
   2623   2994   2917
   2650   3023   2945
   2674   3047   2971
   2698   3075   2997
   403   445   436
   403   446   437
   450   499   488
   503   559   547
   559   623   609
   618   690   674
   678   759   742
   739   828   809
   798   897   876
   856   964   941
   910   1026   1001
   961   1085   1059
   1009   1141   1113
   1054   1193   1164
   1096   1243   1212
   1136   1289   1256
   1172   1332   1298
   488   542   530
   489   543   531
   533   593   580
   584   651   636
   638   713   697
   695   778   760
   753   846   826
   813   914   893
   871   982   958
   928   1048   1022
   981   1109   1082
   1031   1167   1138
   1078   1222   1191
   1123   1274   1241
   1164   1322   1288
   1203   1368   1333
   1240   1411   1374
   588   656   641
   588   656   642
   630   704   688
   679   760   743
   732   821   802
   787   884   864
   844   951   928
   901   1017   992
   959   1083   1056
   1014   1148   1119
   1067   1208   1178
   1116   1265   1234
   1161   1319   1285
   1206   1371   1335
   1246   1418   1381
   1285   1463   1425
   1321   1505   1467
   698   782   764
   698   782   764
   738   828   809
   786   883   862
   837   942   920
   891   1004   980
   946   1068   1043
   1002   1134   1106
   1058   1198   1168
   1112   1261   1229
   1163   1321   1288
   1211   1377   1341
   1256   1430   1393
   1298   1480   1441
   1339   1527   1487
   1376   1572   1530
   1412   1614   1571
   816   917   896
   817   918   897
   856   964   941
   902   1017   993
   952   1075   1049
   1004   1135   1107
   1057   1197   1168
   1112   1261   1230
   1166   1324   1291
   1219   1386   1351
   1268   1444   1406
   1316   1500   1460
   1359   1551   1510
   1401   1600   1557
   1440   1646   1602
   1476   1689   1644
   1512   1730   1684
   939   1060   1034
   940   1061   1036
   979   1106   1079
   1024   1159   1130
   1071   1214   1184
   1122   1274   1241
   1175   1335   1301
   1228   1397   1361
   1281   1460   1422
   1332   1519   1479
   1381   1577   1535
   1426   1629   1586
   1469   1681   1636
   1509   1728   1681
   1548   1774   1726
   1584   1815   1766
   1618   1856   1806
   1067   1209   1179
   1067   1209   1179
   1107   1255   1224
   1151   1306   1273
   1198   1362   1327
   1247   1419   1383
   1298   1479   1440
   1350   1539   1499
   1400   1599   1557
   1450   1658   1614
   1498   1714   1668
   1542   1767   1719
   1584   1815   1766
   1623   1862   1812
   1661   1906   1854
   1696   1947   1894
   1729   1985   1932
   1196   1359   1324
   1199   1363   1328
   1237   1408   1371
   1280   1458   1420
   1326   1512   1473
   1374   1568   1526
   1423   1627   1583
   1474   1686   1641
   1524   1744   1698
   1572   1802   1753
   1617   1855   1805
   1661   1906   1854
   1702   1954   1901
   1740   1998   1943
   1777   2040   1986
   1810   2079   2023
   1843   2116   2060
   1325   1510   1471
   1330   1517   1477
   1368   1561   1520
   1409   1610   1567
   1455   1664   1619
   1502   1719   1673
   1550   1776   1728
   1599   1833   1784
   1648   1890   1840
   1695   1947   1894
   1739   1996   1943
   1781   2045   1990
   1821   2091   2035
   1857   2132   2075
   1893   2174   2115
   1926   2211   2152
   1957   2246   2186
   1451   1659   1615
   1460   1670   1625
   1497   1714   1668
   1538   1762   1714
   1581   1813   1764
   1628   1868   1817
   1676   1923   1871
   1723   1978   1924
   1770   2032   1978
   1816   2086   2030
   1859   2134   2078
   1900   2182   2123
   1938   2225   2166
   1974   2266   2206
   2008   2304   2242
   2040   2340   2278
   2070   2372   2310
   1572   1802   1753
   1586   1818   1769
   1623   1861   1810
   1663   1908   1857
   1707   1959   1906
   1752   2013   1958
   1798   2064   2009
   1845   2119   2062
   1891   2171   2112
   1934   2221   2162
   1977   2268   2209
   2016   2312   2251
   2052   2354   2292
   2085   2391   2328
   2119   2430   2366
   2150   2464   2399
   2180   2498   2433
   1688   1937   1884
   1707   1959   1906
   1743   2002   1948
   1785   2050   1995
   1827   2097   2041
   1872   2149   2092
   1917   2200   2141
   1963   2252   2192
   2007   2302   2241
   2050   2351   2289
   2088   2395   2332
   2126   2437   2374
   2162   2477   2413
   2194   2514   2449
   2226   2550   2483
   2255   2582   2515
   2283   2614   2545
   1800   2066   2012
   1826   2096   2040
   1862   2139   2081
   1903   2184   2126
   1944   2232   2172
   1988   2282   2220
   2032   2331   2269
   2075   2381   2318
   2118   2428   2365
   2158   2473   2409
   2197   2517   2451
   2233   2559   2491
   2268   2596   2528
   2299   2631   2563
   2328   2665   2596
   2356   2696   2626
   2383   2726   2655
   1910   2193   2134
   1942   2229   2170
   1979   2272   2211
   2018   2315   2255
   2060   2363   2300
   2102   2410   2347
   2145   2459   2395
   2188   2507   2441
   2229   2553   2486
   2267   2597   2529
   2304   2637   2569
   2339   2676   2606
   2371   2711   2642
   2401   2745   2675
   2430   2779   2707
   2456   2808   2736
   2482   2835   2763
   2022   2320   2257
   2055   2356   2295
   2091   2398   2335
   2131   2443   2378
   2171   2489   2423
   2213   2534   2469
   2254   2581   2514
   2297   2628   2560
   2335   2672   2603
   2372   2713   2643
   2407   2753   2682
   2439   2789   2717
   2471   2823   2751
   2500   2855   2782
   2527   2886   2812
   2554   2915   2841
   2578   2942   2868
   2128   2439   2375
   2161   2477   2411
   2199   2519   2453
   2237   2564   2496
   2279   2609   2541
   2319   2653   2585
   2358   2698   2629
   2398   2743   2673
   2437   2785   2713
   2472   2825   2752
   2505   2861   2788
   2537   2897   2823
   2567   2930   2856
   2594   2961   2885
   2620   2990   2914
   2645   3018   2940
   2669   3042   2966
   2227   2551   2484
   2262   2589   2523
   2299   2631   2563
   2337   2676   2606
   2377   2720   2650
   2417   2764   2692
   2456   2807   2735
   2495   2851   2778
   2531   2889   2817
   2565   2929   2853
   2598   2964   2889
   2628   2997   2921
   2656   3028   2953
   2683   3058   2981
   2708   3087   3009
   2732   3112   3035
   2756   3138   3059
   497   552   541
   498   553   541
   542   603   590
   593   661   646
   647   723   707
   704   788   770
   763   856   836
   822   924   902
   880   992   968
   936   1057   1031
   990   1119   1091
   1040   1177   1148
   1086   1232   1201
   1131   1283   1251
   1172   1331   1297
   1211   1377   1341
   1248   1420   1384
   580   646   632
   580   647   633
   622   694   679
   671   751   734
   724   812   793
   780   876   856
   837   942   920
   895   1009   984
   952   1075   1049
   1008   1140   1112
   1059   1200   1170
   1109   1258   1226
   1155   1312   1279
   1199   1363   1328
   1240   1411   1374
   1279   1456   1419
