Resources/LUT/Platinum.3dl
# 17x17x17 .3dl lookup table from LUT Buddy
0 256 512 768 1023
   306   337   331
   471   522   511
   715   801   783
   927   1046   1020
   1092   1238   1207
   723   810   791
   858   966   943
   1074   1217   1186
   1267   1443   1405
   1416   1618   1576
   1226   1394   1359
   1351   1541   1500
   1540   1764   1717
   1710   1963   1911
   1841   2114   2058
   1686   1936   1883
   1818   2088   2032
   1993   2286   2226
   2146   2460   2394
   2266   2594   2528
   2111   2421   2356
   2257   2584   2519
   2411   2758   2686
   2540   2901   2827
   2642   3013   2938
   596   665   650
   740   830   810
   967   1092   1065
   1169   1328   1294
   1329   1515   1475
   987   1116   1088
   1118   1269   1237
   1325   1510   1471
   1512   1731   1684
   1661   1906   1854
   1478   1691   1646
   1609   1845   1795
   1797   2063   2007
   1964   2255   2195
   2097   2405   2340
   1942   2230   2170
   2089   2396   2332
   2256   2584   2517
   2399   2745   2673
   2511   2869   2795
   2365   2705   2635
   2513   2869   2797
   2660   3034   2958
   2781   3165   3086
   2877   3271   3190
   1011   1144   1116
   1138   1292   1259
   1344   1533   1493
   1530   1752   1705
   1678   1925   1872
   1365   1558   1517
   1487   1701   1656
   1679   1927   1874
   1853   2129   2071
   1993   2286   2226
   1821   2090   2034
   1948   2235   2176
   2122   2433   2369
   2274   2605   2536
   2394   2739   2668
   2251   2578   2511
   2392   2737   2666
   2547   2907   2833
   2676   3051   2974
   2777   3161   3083
   2649   3021   2945
   2788   3173   3094
   2921   3319   3238
   3027   3432   3350
   3113   3523   3441
   1421   1623   1580
   1534   1758   1710
   1722   1977   1924
   1894   2175   2116
   2030   2329   2266
   1743   2001   1947
   1858   2134   2076
   2035   2334   2272
   2192   2512   2445
   2316   2651   2581
   2157   2472   2408
   2278   2608   2541
   2434   2783   2712
   2570   2934   2860
   2678   3052   2976
   2553   2915   2840
   2679   3054   2977
   2816   3204   3125
   2931   3328   3246
   3018   3422   3342
   2910   3305   3225
   3038   3442   3361
   3152   3564   3482
   3243   3657   3575
   3314   3730   3648
   1782   2045   1991
   1887   2166   2108
   2058   2361   2298
   2213   2535   2468
   2333   2670   2602
   2078   2382   2319
   2182   2502   2436
   2340   2678   2608
   2480   2834   2762
   2592   2957   2883
   2447   2798   2726
   2560   2922   2848
   2699   3076   2999
   2819   3207   3128
   2913   3309   3229
   2812   3200   3121
   2919   3316   3235
   3039   3445   3363
   3137   3548   3465
   3213   3627   3544
   3131   3544   3461
   3241   3657   3573
   3335   3752   3669
   3405   3820   3739
   3454   3870   3790
