Resources/LUT/Platinum.3dl
# 17x17x17 .3dl lookup table from LUT Buddy
0 128 256 384 512 640 768 896 1023
   306   337   331
   358   395   387
   471   522   511
   593   661   646
   715   801   783
   828   931   909
   927   1046   1020
   1014   1147   1119
   1092   1238   1207
   494   549   537
   537   598   585
   641   716   700
   755   847   828
   872   982   958
   980   1107   1080
   1075   1219   1188
   1159   1317   1283
   1233   1403   1367
   723   810   791
   761   855   835
   858   966   943
   964   1089   1062
   1074   1217   1186
   1176   1336   1302
   1267   1443   1405
   1347   1536   1496
   1416   1618   1576
   971   1097   1071
   1010   1142   1114
   1100   1247   1216
   1200   1364   1329
   1301   1483   1444
   1397   1596   1554
   1483   1697   1652
   1559   1786   1738
   1624   1863   1813
   1226   1394   1359
   1266   1441   1404
   1351   1541   1500
   1445   1652   1608
   1540   1764   1717
   1631   1870   1820
   1710   1963   1911
   1780   2044   1989
   1841   2114   2058
   1467   1678   1633
   1511   1729   1683
   1593   1826   1777
   1682   1931   1879
   1772   2035   1981
   1856   2131   2074
   1929   2214   2155
   1996   2291   2230
   2058   2361   2298
   1686   1936   1883
   1739   1996   1942
   1818   2088   2032
   1904   2185   2127
   1993   2286   2226
   2075   2379   2316
   2146   2460   2394
   2211   2532   2466
   2266   2594   2528
   1899   2180   2122
   1969   2260   2199
   2048   2350   2287
   2131   2444   2379
   2214   2536   2470
   2287   2620   2552
   2354   2693   2623
   2413   2759   2687
   2463   2816   2743
   2111   2421   2356
   2181   2499   2433
   2257   2584   2519
   2337   2675   2605
   2411   2758   2686
   2478   2833   2761
   2540   2901   2827
   2593   2959   2885
   2642   3013   2938
   403   445   436
   450   499   488
   559   623   609
   678   759   742
   798   897   876
   910   1026   1001
   1009   1141   1113
   1096   1243   1212
   1172   1332   1298
   588   656   641
   630   704   688
   732   821   802
   844   951   928
   959   1083   1056
   1067   1208   1178
   1161   1319   1285
   1246   1418   1381
   1321   1505   1467
   816   917   896
   856   964   941
   952   1075   1049
   1057   1197   1168
   1166   1324   1291
   1268   1444   1406
   1359   1551   1510
   1440   1646   1602
   1512   1730   1684
   1067   1209   1179
   1107   1255   1224
   1198   1362   1327
   1298   1479   1440
   1400   1599   1557
   1498   1714   1668
   1584   1815   1766
   1661   1906   1854
   1729   1985   1932
   1325   1510   1471
   1368   1561   1520
   1455   1664   1619
   1550   1776   1728
   1648   1890   1840
   1739   1996   1943
   1821   2091   2035
   1893   2174   2115
   1957   2246   2186
   1572   1802   1753
   1623   1861   1810
   1707   1959   1906
   1798   2064   2009
   1891   2171   2112
   1977   2268   2209
   2052   2354   2292
   2119   2430   2366
   2180   2498   2433
   1800   2066   2012
   1862   2139   2081
   1944   2232   2172
   2032   2331   2269
   2118   2428   2365
   2197   2517   2451
   2268   2596   2528
   2328   2665   2596
   2383   2726   2655
   2022   2320   2257
   2091   2398   2335
   2171   2489   2423
   2254   2581   2514
   2335   2672   2603
   2407   2753   2682
   2471   2823   2751
   2527   2886   2812
   2578   2942   2868
   2227   2551   2484
   2299   2631   2563
   2377   2720   2650
   2456   2807   2735
   2531   2889   2817
   2598   2964   2889
   2656   3028   2953
   2708   3087   3009
   2756   3138   3059
   596   665   650
   638   713   697
   740   830   810
   852   959   936
   967   1092   1065
   1075   1218   1187
   1169   1328   1294
   1254   1427   1390
   1329   1515   1475
   770   864   844
   809   909   888
   906   1022   997
   1014   1147   1118
   1123   1275   1243
   1227   1396   1360
   1319   1504   1464
   1400   1600   1558
   1473   1685   1640
   987   1116   1088
   1026   1161   1132
   1118   1269   1237
   1220   1388   1352
   1325   1510   1471
   1424   1627   1583
   1512   1731   1684
   1591   1823   1774
   1661   1906   1854
   1228   1396   1361
   1269   1445   1407
   1356   1548   1507
   1454   1663   1618
   1554   1780   1732
   1649   1891   1840
   1733   1990   1936
   1807   2075   2020
   1874   2151   2094
   1478   1691   1646
   1523   1744   1697
   1609   1845   1795
   1701   1953   1900
   1797   2063   2007
   1886   2165   2107
   1964   2255   2195
   2035   2334   2272
   2097   2405   2340
   1721   1975   1921
   1773   2036   1981
   1856   2131   2074
   1945   2233   2174
   2035   2334   2272
   2117   2427   2364
   2189   2509   2443
   2254   2581   2514
   2312   2646   2578
   1942   2230   2170
   2007   2303   2242
   2089   2396   2332
   2174   2490   2425
   2256   2584   2517
   2332   2669   2599
   2399   2745   2673
   2458   2810   2737
   2511   2869   2795
   2162   2479   2413
   2232   2557   2491
   2311   2646   2576
   2390   2735   2664
   2469   2821   2749
   2537   2897   2823
   2598   2965   2890
   2654   3025   2949
   2702   3079   3003
   2365   2705   2635
   2436   2784   2712
   2513   2869   2797
   2590   2956   2880
   2660   3034   2958
   2725   3104   3026
   2781   3165   3086
   2832   3221   3141
   2877   3271   3190
   801   900   879
   840   945   923
   936   1056   1031
   1041   1179   1150
   1151   1307   1274
   1254   1428   1391
   1346   1535   1495
   1426   1630   1587
   1500   1717   1670
   965   1091   1064
   1002   1133   1106
   1095   1241   1210
   1197   1361   1326
   1302   1484   1446
   1402   1601   1559
   1492   1707   1661
   1571   1800   1751
   1641   1883   1832
   1172   1332   1297
   1211   1377   1342
   1299   1480   1442
   1397   1595   1553
   1498   1714   1669
   1594   1827   1778
   1679   1927   1875
   1755   2015   1961
   1824   2094   2038
   1404   1604   1562
   1445   1652   1608
   1531   1753   1706
   1625   1864   1813
   1721   1976   1923
   1813   2081   2025
   1894   2174   2116
   1966   2257   2196
   2032   2330   2269
   1646   1888   1838
   1693   1944   1891
   1776   2038   1985
   1866   2142   2084
   1958   2247   2187
   2044   2343   2281
   2119   2429   2365
   2185   2504   2439
   2244   2571   2504
   1881   2160   2102
   1935   2221   2162
   2017   2314   2252
   2102   2411   2347
   2187   2506   2440
   2266   2595   2527
   2335   2672   2603
   2398   2742   2671
   2453   2803   2731
   2094   2402   2339
   2162   2478   2413
   2241   2566   2499
   2321   2656   2588
   2401   2746   2675
   2473   2826   2753
   2537   2898   2824
   2594   2960   2886
   2645   3017   2941
   2311   2646   2576
   2379   2721   2651
   2455   2806   2733
   2532   2893   2818
   2606   2973   2899
   2671   3045   2968
   2729   3109   3032
   2782   3167   3088
   2828   3217   3138
   2508   2864   2791
   2577   2942   2866
   2651   3023   2947
   2724   3103   3026
   2793   3179   3100
   2852   3244   3164
   2907   3301   3222
   2955   3354   3273
   2997   3400   3319
   1011   1144   1116
   1047   1186   1156
   1138   1292   1259
   1239   1410   1374
   1344   1533   1493
   1441   1648   1604
   1530   1752   1705
   1607   1843   1794
   1678   1925   1872
   1167   1325   1292
   1202   1367   1332
   1291   1470   1432
   1389   1586   1544
   1489   1704   1659
   1586   1818   1769
   1672   1918   1867
   1747   2007   1952
   1816   2086   2029
   1365   1558   1517
   1402   1602   1559
   1487   1701   1656
   1582   1813   1764
   1679   1927   1874
   1771   2034   1979
   1853   2129   2071
   1927   2211   2153
   1993   2286   2226
   1587   1820   1771
   1629   1868   1817
   1711   1964   1911
   1801   2069   2013
   1895   2176   2118
   1983   2275   2215
   2060   2364   2300
   2129   2440   2376
   2189   2509   2443
   1821   2090   2034
   1867   2144   2086
   1948   2235   2176
   2035   2334   2272
   2122   2433   2369
   2202   2522   2455
   2274   2605   2536
   2338   2675   2606
   2394   2739   2668
   2044   2345   2283
   2102   2409   2346
   2179   2496   2430
   2261   2590   2522
   2341   2679   2610
   2416   2763   2691
   2481   2835   2763
   2540   2902   2828
   2593   2959   2884
   2251   2578   2511
   2318   2653   2584
   2392   2737   2666
   2470   2823   2750
   2547   2907   2833
   2614   2982   2906
   2676   3051   2974
   2729   3108   3031
   2777   3161   3083
   2459   2811   2739
   2526   2885   2812
   2599   2965   2891
   2673   3047   2971
   2741   3122   3046
   2804   3191   3112
   2859   3250   3171
   2908   3304   3224
   2952   3351   3271
   2649   3021   2945
   2717   3096   3019
   2788   3173   3094
   2857   3249   3170
   2921   3319   3238
   2978   3379   3298
   3027   3432   3350
   3074   3480   3399
   3113   3523   3441
   1220   1387   1352
   1253   1426   1390
   1340   1528   1488
   1436   1641   1597
   1536   1759   1711
   1630   1870   1819
   1715   1969   1916
   1790   2056   2000
   1858   2134   2076
   1367   1560   1519
   1402   1602   1560
   1486   1701   1655
   1580   1811   1763
   1677   1924   1872
   1769   2033   1977
   1851   2126   2068
   1924   2210   2151
   1990   2283   2223
   1557   1784   1736
   1594   1826   1778
   1675   1923   1871
   1766   2028   1974
   1860   2135   2078
   1948   2236   2176
   2026   2324   2263
   2096   2405   2340
   2158   2474   2409
   1770   2032   1979
   1812   2081   2025
   1891   2172   2114
   1979   2271   2210
   2067   2372   2309
   2149   2463   2398
   2223   2545   2479
   2289   2620   2552
   2346   2684   2615
   1993   2286   2225
   2041   2341   2279
   2118   2428   2364
   2200   2521   2455
   2282   2613   2545
   2359   2700   2629
   2426   2774   2703
   2487   2842   2769
   2540   2901   2827
   2205   2527   2461
   2263   2590   2524
   2335   2672   2603
   2413   2760   2689
   2491   2846   2773
   2561   2924   2850
   2624   2993   2917
   2680   3054   2977
   2729   3108   3030
   2405   2750   2680
   2468   2821   2749
   2541   2902   2827
   2614   2983   2907
   2686   3061   2984
   2749   3131   3054
   2806   3193   3115
   2857   3249   3169
   2903   3297   3218
   2602   2970   2894
   2668   3041   2965
   2737   3117   3040
   2807   3194   3115
   2872   3264   3185
   2929   3327   3246
   2981   3381   3301
   3026   3430   3349
   3067   3475   3393
   2783   3167   3090
   2851   3242   3161
   2917   3314   3234
   2983   3384   3303
   3041   3447   3365
   3095   3503   3421
   3140   3551   3469
   3183   3595   3513
   3221   3635   3552
   1421   1623   1580
   1453   1661   1617
   1534   1758   1710
   1627   1866   1816
   1722   1977   1924
   1814   2082   2027
   1894   2175   2116
   1966   2256   2196
   2030   2329   2266
   1561   1789   1741
   1596   1830   1780
   1675   1923   1870
   1766   2027   1973
   1859   2134   2077
   1946   2234   2175
   2025   2323   2262
   2096   2402   2339
   2157   2471   2407
   1743   2001   1947
   1779   2042   1989
   1858   2134   2076
   1944   2232   2173
   2035   2334   2272
   2117   2428   2364
   2192   2512   2445
   2257   2585   2517
   2316   2651   2581
   1947   2235   2176
   1988   2282   2221
   2064   2368   2304
   2147   2460   2395
   2231   2555   2488
   2308   2643   2573
   2378   2720   2649
   2439   2788   2716
   2494   2848   2776
   2157   2472   2408
   2206   2526   2461
   2278   2608   2541
   2357   2697   2626
   2434   2783   2712
   2506   2863   2790
   2570   2934   2860
   2627   2997   2921
   2678   3052   2976
   2357   2696   2627
   2415   2762   2691
   2485   2840   2767
   2559   2922   2848
   2631   3002   2926
   2698   3074   2997
   2757   3139   3061
   2809   3196   3117
   2855   3246   3166
   2553   2915   2840
   2611   2980   2903
   2679   3054   2977
   2748   3130   3053
   2816   3204   3125
   2875   3268   3189
   2931   3328   3246
   2977   3379   3297
   3018   3422   3342
   2738   3117   3041
   2800   3186   3107
   2865   3258   3178
   2931   3329   3248
   2991   3393   3312
   3046   3451   3370
   3094   3502   3420
   3135   3547   3464
   3174   3586   3504
   2910   3305   3225
   2973   3374   3294
   3038   3442   3361
   3100   3508   3425
   3152   3564   3482
   3199   3613   3531
   3243   3657   3575
   3279   3695   3613
   3314   3730   3648
   1609   1844   1795
   1639   1881   1829
   1719   1973   1920
   1807   2075   2020
   1899   2180   2121
   1986   2277   2218
   2062   2365   2302
   2130   2443   2378
   2191   2511   2445
   1745   2004   1950
   1777   2041   1987
   1855   2129   2073
   1940   2226   2168
   2029   2326   2265
   2112   2421   2357
   2185   2504   2438
   2252   2579   2512
   2311   2645   2575
   1917   2201   2143
   1954   2242   2182
   2028   2325   2264
   2110   2419   2356
   2194   2514   2448
   2275   2604   2535
   2344   2682   2612
   2407   2751   2681
   2462   2814   2741
   2112   2422   2358
   2152   2466   2401
   2224   2548   2481
   2302   2636   2567
   2382   2723   2653
   2455   2806   2735
   2521   2878   2805
   2577   2942   2868
   2628   2999   2923
   2310   2644   2576
   2359   2698   2628
   2427   2774   2703
   2501   2857   2784
   2574   2939   2864
   2642   3013   2937
   2702   3079   3003
   2755   3137   3059
   2802   3189   3110
   2504   2860   2787
   2556   2918   2844
   2622   2992   2916
   2693   3069   2992
   2760   3144   3066
   2822   3211   3132
   2877   3270   3191
   2926   3323   3241
   2970   3370   3288
   2687   3063   2986
   2742   3121   3045
   2805   3193   3114
   2872   3265   3184
   2935   3332   3252
   2991   3392   3311
   3039   3444   3362
   3083   3491   3409
   3124   3534   3450
   2862   3255   3174
   2921   3316   3236
   2982   3384   3302
   3045   3450   3369
   3101   3510   3426
   3151   3561   3479
   3193   3607   3523
   3231   3645   3562
   3266   3682   3599
   3024   3429   3348
   3086   3493   3411
   3146   3557   3475
   3202   3615   3534
   3250   3666   3582
   3294   3710   3628
   3331   3747   3665
   3363   3781   3700
   3393   3809   3728
   1782   2045   1991
   1810   2079   2024
   1887   2166   2108
   1971   2262   2202
   2058   2361   2298
   2140   2453   2388
   2213   2535   2468
   2278   2608   2540
   2333   2670   2602
   1913   2195   2137
   1943   2230   2169
   2018   2316   2255
   2100   2408   2343
   2183   2502   2435
   2261   2589   2522
   2331   2668   2598
   2393   2737   2667
   2448   2798   2728
   2078   2382   2319
   2112   2421   2356
   2182   2502   2436
   2261   2589   2521
   2340   2678   2608
   2415   2760   2689
   2480   2834   2762
   2539   2899   2825
   2592   2957   2883
   2259   2587   2520
   2300   2633   2564
   2368   2708   2638
   2440   2791   2720
   2516   2875   2801
   2586   2952   2877
   2647   3020   2943
   2701   3078   3002
   2751   3132   3055
   2447   2798   2726
   2494   2850   2778
   2560   2922   2848
   2630   3001   2924
   2699   3076   2999
   2763   3146   3068
   2819   3207   3128
   2870   3262   3183
   2913   3309   3229
   2637   3009   2932
   2683   3057   2981
   2746   3126   3049
   2812   3199   3120
   2875   3268   3188
   2933   3330   3250
   2984   3385   3304
   3030   3434   3352
   3071   3478   3396
   2812   3200   3121
   2857   3250   3169
   2919   3316   3235
   2981   3382   3300
   3039   3445   3363
   3092   3500   3418
   3137   3548   3465
   3177   3590   3508
   3213   3627   3544
   2980   3381   3299
   3026   3431   3350
   3087   3495   3412
   3144   3554   3473
   3194   3608   3525
   3240   3655   3572
   3281   3695   3613
   3316   3732   3649
   3344   3760   3679
   3131   3544   3461
   3185   3598   3516
   3241   3657   3573
   3291   3707   3625
   3335   3752   3669
   3372   3788   3706
   3405   3820   3739
   3433   3849   3767
   3454   3870   3790
