Resources/LUT/Pop.3dl
# 17x17x17 .3dl lookup table from LUT Buddy
0 256 512 768 1023
   0   138   0
   0   40   1383
   0   0   2798
   0   0   3722
   0   0   4001
   0   1316   0
   0   1258   1445
   0   912   2786
   0   854   3709
   0   791   3997
   0   2894   0
   0   2893   1115
   0   2647   2894
   0   2236   3754
   0   2195   4011
   0   3961   0
   0   3958   744
   0   3934   3071
   0   3765   3924
   0   3458   3990
   0   4071   0
   0   4069   1105
   0   4065   3205
   0   4059   4006
   0   4057   4057
   942   235   0
   870   0   1308
   663   0   2900
   277   0   3847
   35   0   4035
   880   1273   0
   534   1059   963
   12   829   2922
   0   533   3963
   0   383   4060
   504   2874   0
   0   2883   153
   0   2737   2848
   0   2356   3896
   0   2376   4040
   0   3953   0
   0   3976   0
   0   3952   2758
   0   3861   3927
   0   3551   4006
   0   4067   0
   0   4065   1034
   0   4061   3023
   0   4056   3974
   0   4051   4043
   2240   0   0
   2442   0   1144
   2356   0   2783
   2251   0   3747
   2218   0   4012
   2255   1262   0
   2253   1388   1197
   2303   476   2774
   2220   0   3932
   2204   0   4051
   2185   2818   0
   1584   2760   0
   1814   2653   2509
   1794   2515   3756
   1899   2480   4027
   1933   3936   0
   1429   3945   0
   1497   3917   2284
   1219   3851   3783
   1597   3599   3991
   1975   4061   0
   1865   4059   1063
   1865   4055   2734
   1725   4048   3859
   1841   4041   4016
   3316   0   0
   3411   0   1013
   3510   0   2652
   3458   0   3683
   3420   0   3997
   3314   1215   0
   3313   1468   1065
   3669   0   2594
   3607   0   3824
   3519   0   4032
   3306   3043   0
   3315   3083   1094
   3322   2779   2580
   3387   2376   3610
   3388   2330   4006
   3102   3904   0
   2720   3897   0
   2897   3841   2122
   3127   3750   3479
   3206   3626   3956
   2782   4051   0
   2801   4047   1156
   3120   4041   2645
   3197   4029   3610
   3237   4018   3977
   3791   0   0
   3832   0   865
   3950   0   2557
   3931   0   3619
   3915   0   3985
   3793   1200   0
   3787   1506   963
   4011   0   2475
   3996   0   3693
   3973   0   4024
   3793   3113   0
   3792   3144   1030
   3785   2898   2533
   3946   2325   3517
   3928   2270   3995
   3330   3882   0
   3470   3862   1009
   3707   3833   2588
   3830   3744   3547
   3822   3608   3941
   3345   4033   0
   3507   4025   1525
   3666   4012   2703
   3810   3990   3576
   3909   3949   3975
