Resources/LUT/Pop.3dl
# 17x17x17 .3dl lookup table from LUT Buddy
   0   64   128   192   256   320   384   448   512   576   640   704   768   832   896   960   1023
   0   138   0
   0   79   198
   0   109   630
   0   108   1005
   0   40   1383
   0   0   1747
   0   0   2108
   0   0   2465
   0   0   2798
   0   0   3087
   0   0   3334
   0   0   3543
   0   0   3722
   0   0   3870
   0   0   3955
   0   0   3998
   0   0   4001
   0   412   0
   0   384   206
   0   301   584
   0   283   987
   0   268   1364
   0   216   1726
   0   88   2087
   0   0   2444
   0   0   2785
   0   0   3075
   0   0   3321
   0   0   3534
   0   0   3712
   0   0   3862
   0   0   3953
   0   0   3994
   0   0   4001
   0   675   0
   0   647   158
   0   631   630
   0   500   942
   0   460   1354
   0   449   1719
   0   418   2077
   0   357   2434
   0   242   2773
   0   63   3065
   0   0   3314
   0   0   3523
   0   0   3706
   0   0   3857
   0   0   3951
   0   0   3994
   0   0   3999
   0   976   0
   0   953   80
   0   945   548
   0   922   1035
   0   735   1312
   0   678   1714
   0   663   2081
   0   651   2441
   0   621   2775
   0   581   3064
   0   523   3312
   0   464   3523
   0   393   3702
   0   301   3853
   0   212   3949
   0   144   3991
   0   113   3997
   0   1316   0
   0   1301   0
   0   1295   439
   0   1282   978
   0   1258   1445
   0   1009   1676
   0   941   2076
   0   922   2446
   0   912   2786
   0   902   3075
   0   888   3324
   0   879   3531
   0   854   3709
   0   841   3857
   0   819   3949
   0   803   3992
   0   791   3997
   0   1687   0
   0   1682   0
   0   1675   292
   0   1669   877
   0   1650   1415
   0   1574   1804
   0   1320   2040
   0   1237   2441
   0   1203   2796
   0   1200   3092
   0   1197   3338
   0   1199   3545
   0   1200   3723
   0   1195   3874
   0   1191   3956
   0   1197   3996
   0   1194   4001
   0   2087   0
   0   2095   0
   0   2086   90
   0   2081   752
   0   2071   1335
   0   2049   1841
   0   1915   2163
   0   1657   2407
   0   1565   2787
   0   1527   3099
   0   1514   3352
   0   1515   3562
   0   1519   3742
   0   1516   3888
   0   1531   3963
   0   1532   4001
   0   1531   4003
   0   2506   0
   0   2516   0
   0   2512   0
   0   2506   593
   0   2499   1231
   0   2485   1782
   0   2466   2259
   0   2283   2535
   0   2023   2750
   0   1937   3082
   0   1888   3350
   0   1862   3571
   0   1853   3754
   0   1852   3900
   0   1858   3969
   0   1860   4005
   0   1857   4007
   0   2894   0
   0   2907   0
   0   2903   0
   0   2900   389
   0   2893   1115
   0   2883   1703
   0   2866   2231
   0   2846   2680
   0   2647   2894
   0   2400   3048
   0   2330   3333
   0   2265   3563
   0   2236   3754
   0   2211   3906
   0   2202   3975
   0   2198   4008
   0   2195   4011
   0   3230   0
   0   3246   0
   0   3242   0
   0   3238   106
   0   3234   1008
   0   3225   1626
   0   3212   2180
   0   3193   2676
   0   3174   3068
   0   2970   3210
   0   2725   3303
   0   2670   3539
   0   2619   3741
   0   2578   3900
   0   2545   3974
   0   2531   4008
   0   2527   4011
   0   3521   0
   0   3536   0
   0   3532   0
   0   3527   0
   0   3521   909
   0   3514   1562
   0   3502   2131
   0   3486   2659
   0   3469   3080
   0   3455   3391
   0   3264   3484
   0   3026   3525
   0   2970   3721
   0   2933   3888
   0   2888   3968
   0   2863   4005
   0   2856   4006
   0   3779   0
   0   3791   0
   0   3786   0
   0   3781   0
   0   3777   826
   0   3772   1500
   0   3761   2091
   0   3745   2634
   0   3729   3080
   0   3714   3410
   0   3698   3662
   0   3533   3730
   0   3330   3763
   0   3243   3873
   0   3211   3963
   0   3183   3997
   0   3183   3999
   0   3961   0
   0   3964   0
   0   3963   0
   0   3960   0
   0   3958   744
   0   3955   1467
   0   3951   2062
   0   3942   2615
   0   3934   3071
   0   3924   3420
   0   3917   3683
   0   3906   3883
   0   3765   3924
   0   3614   3939
   0   3495   3956
   0   3459   3989
   0   3458   3990
   0   4029   0
   0   4029   0
   0   4029   0
   0   4027   0
   0   4026   713
   0   4024   1452
   0   4022   2055
   0   4019   2603
   0   4015   3068
   0   4010   3426
   0   4006   3702
   0   4002   3899
   0   3998   3991
   0   3949   4006
   0   3863   4011
   0   3792   4013
   0   3785   4013
   0   4058   0
   0   4058   0
   0   4058   0
   0   4057   0
   0   4056   710
   0   4056   1466
   0   4054   2072
   0   4052   2620
   0   4050   3076
   0   4048   3435
   0   4046   3714
   0   4044   3918
   0   4040   3998
   0   4040   4036
   0   4015   4042
   0   4000   4042
   0   3998   4042
   0   4070   0
   0   4070   0
   0   4070   0
   0   4069   0
   0   4068   914
   0   4068   1593
   0   4066   2170
   0   4066   2694
   0   4064   3125
   0   4062   3467
   0   4061   3736
   0   4059   3924
   0   4058   4000
   0   4056   4036
   0   4055   4054
   0   4050   4055
   0   4048   4054
   0   4071   0
   0   4071   0
   0   4069   0
   0   4069   0
   0   4069   1105
   0   4069   1736
   0   4067   2298
   0   4066   2800
   0   4065   3205
   0   4063   3525
   0   4061   3780
   0   4061   3945
   0   4059   4006
   0   4059   4039
   0   4057   4056
   0   4057   4057
   0   4057   4057
   86   154   0
   0   0   0
   0   0   497
   0   0   966
   0   0   1410
   0   0   1818
   0   0   2209
   0   0   2593
   0   0   2938
   0   0   3237
   0   0   3483
   0   0   3688
   0   0   3867
   0   0   3965
   0   0   4010
   0   0   4035
   0   0   4039
   116   403   0
   0   261   0
   0   193   431
   0   210   900
   0   177   1348
   0   66   1768
   0   0   2164
   0   0   2553
   0   0   2907
   0   0   3207
   0   0   3459
   0   0   3671
   0   0   3846
   0   0   3957
   0   0   4006
   0   0   4031
   0   0   4035
   123   667   0
   0   548   0
   0   531   414
   0   428   845
   0   410   1318
   0   399   1731
   0   353   2127
   0   239   2515
   0   38   2876
   0   0   3179
   0   0   3438
   0   0   3649
   0   0   3829
   0   0   3948
   0   0   4002
   0   0   4029
   0   0   4033
   74   969   0
   0   885   0
   0   870   309
   0   854   893
   0   686   1267
   0   648   1717
   0   643   2115
   0   623   2500
   0   581   2851
   0   518   3158
   0   436   3413
   0   346   3628
   0   222   3812
   0   94   3940
   0   0   3996
   0   0   4024
   0   0   4029
   0   1308   0
   0   1261   0
   0   1248   170
   0   1249   804
   0   1220   1359
   0   995   1672
   0   930   2108
   0   919   2502
   0   912   2853
   0   901   3157
   0   879   3409
   0   857   3621
   0   831   3803
   0   798   3936
   0   777   3992
   0   760   4022
   0   751   4026
   0   1681   0
   0   1669   0
   0   1655   12
   0   1656   678
   0   1638   1296
   0   1592   1779
   0   1321   2057
   0   1243   2492
   0   1225   2864
   0   1224   3171
   0   1224   3421
   0   1222   3630
   0   1214   3809
   0   1211   3936
   0   1205   3992
   0   1200   4021
   0   1193   4025
   0   2085   0
   0   2104   0
   0   2094   0
   0   2086   527
   0   2074   1182
   0   2051   1762
   0   1939   2160
   0   1674   2437
   0   1586   2843
   0   1557   3167
   0   1550   3426
   0   1549   3642
   0   1551   3818
   0   1564   3942
   0   1563   3996
   0   1569   4025
   0   1565   4027
   0   2502   0
   0   2538   0
   0   2534   0
   0   2521   316
   0   2514   1055
   0   2499   1673
   0   2477   2207
   0   2316   2544
   0   2049   2789
   0   1967   3141
   0   1921   3419
   0   1901   3641
   0   1894   3825
   0   1903   3944
   0   1905   3998
   0   1910   4025
   0   1908   4029
   0   2893   0
   0   2934   0
   0   2931   0
   0   2925   18
   0   2919   922
   0   2906   1571
   0   2887   2149
   0   2863   2648
   0   2684   2912
   0   2437   3087
   0   2362   3383
   0   2303   3625
   0   2269   3820
   0   2257   3946
   0   2249   4000
   0   2249   4026
   0   2248   4029
   0   3230   0
   0   3276   0
   0   3274   0
   0   3267   0
   0   3259   799
   0   3251   1485
   0   3238   2084
   0   3218   2629
   0   3194   3047
   0   3010   3229
   0   2770   3346
   0   2704   3592
   0   2658   3796
   0   2614   3939
   0   2585   3997
   0   2575   4026
   0   2571   4027
   0   3521   0
   0   3567   0
   0   3564   0
   0   3558   0
   0   3552   683
   0   3544   1409
   0   3531   2022
   0   3514   2588
   0   3494   3050
   0   3474   3384
   0   3297   3506
   0   3062   3564
   0   3014   3769
   0   2968   3926
   0   2927   3992
   0   2897   4022
   0   2896   4022
   0   3779   0
   0   3823   0
   0   3819   0
   0   3813   0
   0   3807   567
   0   3799   1353
   0   3788   1977
   0   3773   2554
   0   3755   3035
   0   3737   3391
   0   3723   3663
   0   3571   3751
   0   3372   3789
   0   3285   3910
   0   3249   3982
   0   3225   4014
   0   3220   4015
   0   3961   0
   0   3979   0
   0   3977   0
   0   3975   0
   0   3972   473
   0   3969   1312
   0   3964   1946
   0   3957   2529
   0   3949   3016
   0   3941   3391
   0   3931   3669
   0   3922   3886
   0   3809   3938
   0   3650   3954
   0   3531   3975
   0   3503   4003
   0   3501   4004
   0   4029   0
   0   4037   0
   0   4035   0
   0   4035   0
   0   4033   418
   0   4031   1306
   0   4029   1942
   0   4025   2522
   0   4021   3007
   0   4017   3392
   0   4013   3686
   0   4009   3899
   0   4004   3993
   0   3963   4012
   0   3890   4019
   0   3824   4021
   0   3812   4021
   0   4060   0
   0   4060   0
   0   4060   0
   0   4058   0
   0   4058   593
   0   4057   1394
   0   4056   2009
   0   4054   2567
   0   4051   3041
   0   4048   3403
   0   4046   3694
   0   4044   3904
   0   4042   3991
   0   4038   4033
   0   4018   4042
   0   4005   4042
   0   4000   4042
   0   4070   0
   0   4070   0
   0   4070   0
   0   4069   0
   0   4068   889
   0   4068   1565
   0   4066   2137
   0   4065   2657
   0   4064   3093
   0   4062   3439
   0   4060   3711
   0   4058   3912
   0   4058   3993
   0   4056   4033
   0   4054   4052
   0   4052   4054
   0   4050   4054
   0   4071   0
   0   4070   0
   0   4069   0
   0   4069   0
   0   4069   1095
   0   4067   1717
   0   4067   2267
   0   4065   2766
   0   4064   3175
   0   4063   3504
   0   4061   3755
   0   4061   3934
   0   4059   4004
   0   4059   4037
   0   4057   4052
   0   4057   4055
   0   4055   4055
   449   284   0
   441   271   363
   235   0   450
   219   0   924
   153   0   1389
   33   0   1806
   0   0   2205
   0   0   2592
   0   0   2943
   0   0   3241
   0   0   3488
   0   0   3696
   0   0   3868
   0   0   3966
   0   0   4011
   0   0   4036
   0   0   4037
   405   430   0
   308   333   91
   181   207   367
   120   145   827
   24   45   1326
   0   0   1790
   0   0   2223
   0   0   2638
   0   0   3012
   0   0   3317
   0   0   3571
   0   0   3785
   0   0   3937
   0   0   4001
   0   0   4035
   0   0   4051
   0   0   4055
   362   657   0
   173   526   0
   85   477   245
   30   398   760
   0   379   1248
   0   343   1715
   0   234   2157
   0   34   2581
   0   0   2964
   0   0   3277
   0   0   3540
   0   0   3759
   0   0   3924
   0   0   3995
   0   0   4032
   0   0   4049
   0   0   4053
   331   960   0
   119   865   0
   0   792   45
   0   773   715
   0   640   1194
   0   628   1680
   0   625   2113
   0   589   2531
   0   514   2916
   0   414   3235
   0   277   3505
   0   106   3724
   0   0   3903
   0   0   3986
   0   0   4026
   0   0   4046
   0   0   4049
   264   1300   0
   22   1241   0
   0   1184   0
   0   1173   584
   0   1147   1226
   0   952   1621
   0   916   2094
   0   915   2516
   0   906   2891
   0   886   3210
   0   856   3475
   0   825   3695
   0   776   3879
   0   744   3974
   0   698   4018
   0   670   4041
   0   659   4043
   142   1672   0
   0   1647   0
   0   1612   0
   0   1598   449
   0   1587   1126
   0   1557   1704
   0   1296   2033
   0   1235   2499
   0   1229   2886
   0   1226   3204
   0   1225   3468
   0   1223   3685
   0   1215   3867
   0   1213   3968
   0   1206   4014
   0   1195   4037
   0   1191   4041
   0   2074   0
   0   2074   0
   0   2062   0
   0   2049   255
   0   2042   991
   0   2028   1648
   0   1953   2128
   0   1669   2436
   0   1592   2868
   0   1565   3201
   0   1568   3467
   0   1566   3691
   0   1573   3869
   0   1584   3967
   0   1588   4013
   0   1590   4037
   0   1577   4039
   0   2495   0
   0   2514   0
   0   2518   0
   0   2510   1
   0   2503   843
   0   2500   1536
   0   2484   2142
   0   2355   2549
   0   2072   2807
   0   1985   3177
   0   1941   3461
   0   1932   3688
   0   1927   3871
   0   1935   3968
   0   1935   4016
   0   1941   4037
   0   1940   4039
   0   2885   0
   0   2917   0
   0   2935   0
   0   2925   0
   0   2919   695
   0   2925   1429
   0   2911   2057
   0   2883   2608
   0   2726   2924
   0   2478   3122
   0   2402   3431
   0   2343   3681
   0   2308   3869
   0   2296   3971
   0   2288   4016
   0   2287   4037
   0   2284   4039
   0   3226   0
   0   3265   0
   0   3290   0
   0   3279   0
   0   3274   536
   0   3278   1330
   0   3263   1973
   0   3241   2564
   0   3215   3025
   0   3055   3249
   0   2815   3379
   0   2753   3638
   0   2697   3848
   0   2658   3967
   0   2636   4016
   0   2626   4037
   0   2615   4038
   0   3518   0
   0   3558   0
   0   3584   0
   0   3572   0
   0   3570   373
   0   3571   1250
   0   3558   1905
   0   3541   2512
   0   3518   3010
   0   3498   3370
   0   3343   3525
   0   3115   3598
   0   3057   3811
   0   3013   3951
   0   2972   4008
   0   2947   4034
   0   2938   4035
   0   3775   0
   0   3816   0
   0   3843   0
   0   3834   0
   0   3830   212
   0   3829   1185
   0   3816   1854
   0   3800   2466
   0   3780   2979
   0   3762   3369
   0   3744   3652
   0   3610   3770
   0   3409   3817
   0   3331   3933
   0   3295   3998
   0   3267   4025
   0   3262   4027
   0   3961   0
   0   3979   0
   0   3988   0
   0   3984   0
   0   3983   126
   0   3981   1154
   0   3976   1821
   0   3970   2433
   0   3961   2955
   0   3954   3354
   0   3943   3659
   0   3935   3882
   0   3846   3947
   0   3689   3965
   0   3573   3988
   0   3545   4014
   0   3538   4014
   0   4029   0
   0   4039   0
   0   4039   0
   0   4037   0
   0   4037   227
   0   4035   1195
   0   4033   1850
   0   4029   2446
   0   4026   2953
   0   4020   3350
   0   4015   3656
   0   4011   3884
   0   4007   3986
   0   3974   4011
   0   3905   4019
   0   3843   4021
   0   3833   4021
   0   4060   0
   0   4060   0
   0   4060   0
   0   4058   0
   0   4058   566
   0   4057   1348
   0   4056   1957
   0   4054   2514
   0   4051   2989
   0   4049   3366
   0   4046   3661
   0   4044   3885
   0   4042   3985
   0   4038   4028
   0   4024   4040
   0   4009   4042
   0   4005   4040
   0   4070   0
   0   4070   0
   0   4069   0
   0   4068   0
   0   4068   880
   0   4068   1533
   0   4066   2094
   0   4065   2615
   0   4064   3051
   0   4062   3408
   0   4060   3685
   0   4058   3894
   0   4058   3987
   0   4056   4027
   0   4054   4050
   0   4053   4053
   0   4052   4052
   0   4069   0
   0   4069   0
   0   4069   0
   0   4069   18
   0   4068   1069
   0   4067   1688
   0   4067   2233
   0   4065   2725
   0   4064   3140
   0   4063   3472
   0   4061   3736
   0   4061   3923
   0   4059   3998
   0   4057   4033
   0   4057   4052
   0   4056   4053
   0   4055   4053
   677   267   0
   673   253   343
   556   0   432
   535   0   881
   512   0   1341
   466   0   1772
   386   0   2180
   248   0   2574
   51   0   2928
   0   0   3226
   0   0   3476
   0   0   3682
   0   0   3857
   0   0   3961
   0   0   4008
   0   0   4034
   0   0   4037
   680   461   0
   676   453   326
   667   438   629
   465   106   779
   424   6   1285
   364   0   1763
   259   0   2202
   68   0   2619
   0   0   2993
   0   0   3303
   0   0   3560
   0   0   3769
   0   0   3931
   0   0   3997
   0   0   4032
   0   0   4050
