Resources/LUT/Pop.3dl
# 17x17x17 .3dl lookup table from LUT Buddy
0 128 256 384 512 640 768 896 1023
   0   138   0
   0   109   630
   0   40   1383
   0   0   2108
   0   0   2798
   0   0   3334
   0   0   3722
   0   0   3955
   0   0   4001
   0   675   0
   0   631   630
   0   460   1354
   0   418   2077
   0   242   2773
   0   0   3314
   0   0   3706
   0   0   3951
   0   0   3999
   0   1316   0
   0   1295   439
   0   1258   1445
   0   941   2076
   0   912   2786
   0   888   3324
   0   854   3709
   0   819   3949
   0   791   3997
   0   2087   0
   0   2086   90
   0   2071   1335
   0   1915   2163
   0   1565   2787
   0   1514   3352
   0   1519   3742
   0   1531   3963
   0   1531   4003
   0   2894   0
   0   2903   0
   0   2893   1115
   0   2866   2231
   0   2647   2894
   0   2330   3333
   0   2236   3754
   0   2202   3975
   0   2195   4011
   0   3521   0
   0   3532   0
   0   3521   909
   0   3502   2131
   0   3469   3080
   0   3264   3484
   0   2970   3721
   0   2888   3968
   0   2856   4006
   0   3961   0
   0   3963   0
   0   3958   744
   0   3951   2062
   0   3934   3071
   0   3917   3683
   0   3765   3924
   0   3495   3956
   0   3458   3990
   0   4058   0
   0   4058   0
   0   4056   710
   0   4054   2072
   0   4050   3076
   0   4046   3714
   0   4040   3998
   0   4015   4042
   0   3998   4042
   0   4071   0
   0   4069   0
   0   4069   1105
   0   4067   2298
   0   4065   3205
   0   4061   3780
   0   4059   4006
   0   4057   4056
   0   4057   4057
   449   284   0
   235   0   450
   153   0   1389
   0   0   2205
   0   0   2943
   0   0   3488
   0   0   3868
   0   0   4011
   0   0   4037
   362   657   0
   85   477   245
   0   379   1248
   0   234   2157
   0   0   2964
   0   0   3540
   0   0   3924
   0   0   4032
   0   0   4053
   264   1300   0
   0   1184   0
   0   1147   1226
   0   916   2094
   0   906   2891
   0   856   3475
   0   776   3879
   0   698   4018
   0   659   4043
   0   2074   0
   0   2062   0
   0   2042   991
   0   1953   2128
   0   1592   2868
   0   1568   3467
   0   1573   3869
   0   1588   4013
   0   1577   4039
   0   2885   0
   0   2935   0
   0   2919   695
   0   2911   2057
   0   2726   2924
   0   2402   3431
   0   2308   3869
   0   2288   4016
   0   2284   4039
   0   3518   0
   0   3584   0
   0   3570   373
   0   3558   1905
   0   3518   3010
   0   3343   3525
   0   3057   3811
   0   2972   4008
   0   2938   4035
   0   3961   0
   0   3988   0
   0   3983   126
   0   3976   1821
   0   3961   2955
   0   3943   3659
   0   3846   3947
   0   3573   3988
   0   3538   4014
   0   4060   0
   0   4060   0
   0   4058   566
   0   4056   1957
   0   4051   2989
   0   4046   3661
   0   4042   3985
   0   4024   4040
   0   4005   4040
   0   4069   0
   0   4069   0
   0   4068   1069
   0   4067   2233
   0   4064   3140
   0   4061   3736
   0   4059   3998
   0   4057   4052
   0   4055   4053
   942   235   0
   920   11   488
   870   0   1308
   795   0   2136
   663   0   2900
   491   0   3458
   277   0   3847
   87   0   4005
   35   0   4035
   948   686   0
   942   683   600
   730   309   1147
   627   9   2147
   443   0   3004
   139   0   3600
   0   0   3959
   0   0   4044
   0   0   4061
   880   1273   0
   630   1123   0
   534   1059   963
   391   939   1990
   12   829   2922
   0   685   3576
   0   533   3963
   0   399   4048
   0   383   4060
   757   2056   0
   410   2009   0
   128   1952   634
   0   1898   1977
   0   1608   2847
   0   1623   3494
   0   1621   3916
   0   1621   4029
   0   1628   4046
   504   2874   0
   0   2893   0
   0   2883   153
   0   2853   1749
   0   2737   2848
   0   2405   3431
   0   2356   3896
   0   2369   4021
   0   2376   4040
   3   3504   0
   0   3553   0
   0   3562   0
   0   3540   1562
   0   3504   2827
   0   3372   3491
   0   3083   3817
   0   2996   4007
   0   2975   4031
   0   3953   0
   0   3978   0
   0   3976   0
   0   3966   1560
   0   3952   2758
   0   3936   3552
   0   3861   3927
   0   3586   3976
   0   3551   4006
   0   4056   0
   0   4056   0
   0   4054   428
   0   4052   1808
   0   4048   2838
   0   4043   3557
   0   4037   3953
   0   4025   4034
   0   4005   4034
   0   4067   0
   0   4067   0
   0   4065   1034
   0   4064   2113
   0   4061   3023
   0   4059   3643
   0   4056   3974
   0   4053   4040
   0   4051   4043
   1555   81   0
   1553   33   528
   1650   0   1238
   1592   0   2082
   1511   0   2830
   1444   0   3396
   1393   0   3799
   1351   0   3991
   1343   0   4026
   1563   635   0
   1561   709   535
   1598   88   1057
   1540   0   2049
   1460   0   2916
   1391   0   3540
   1334   0   3938
   1294   0   4038
   1283   0   4058
   1567   1285   0
   1566   1351   500
   1561   1278   1246
   1372   871   1892
   1281   675   2887
   1199   453   3582
   1140   199   3971
   1137   131   4045
   1152   112   4058
   1497   2022   0
   1260   1943   0
   1066   1877   547
   1106   1820   1760
   1047   1695   2717
   920   1637   3447
   875   1580   3916
   918   1563   4029
   970   1554   4048
   1365   2852   0
   1035   2852   0
   848   2827   0
   774   2784   1473
   372   2730   2729
   456   2438   3382
   445   2439   3851
   596   2470   4007
   706   2479   4032
   1202   3488   0
   845   3520   0
   539   3527   0
   262   3502   1280
   0   3464   2575
   0   3393   3421
   0   3108   3778
   23   3049   3998
   242   3036   4025
   1004   3947   0
   603   3966   0
   421   3963   0
   195   3952   1379
   0   3938   2530
   0   3917   3402
   0   3878   3888
   0   3620   3963
   0   3578   4000
   846   4054   0
   796   4052   0
   700   4052   388
   586   4049   1684
   164   4044   2660
   0   4039   3420
   0   4034   3896
   0   4026   4023
   0   4008   4025
   1020   4065   0
   996   4064   0
   926   4063   1030
   880   4061   2011
   630   4059   2881
   225   4056   3534
   0   4053   3938
   64   4050   4028
   277   4047   4032
   2240   0   0
   2239   0   279
   2442   0   1144
   2414   0   2003
   2356   0   2783
   2294   0   3348
   2251   0   3747
   2218   0   3970
   2218   0   4012
   2247   538   0
   2244   802   387
   2332   229   1118
   2468   0   1955
   2406   0   2844
   2337   0   3465
   2288   0   3884
   2262   0   4023
   2264   0   4048
   2255   1262   0
   2252   1464   337
   2253   1388   1197
   2356   705   1799
   2303   476   2774
   2255   148   3483
   2220   0   3932
   2199   0   4033
   2204   0   4051
   2240   2063   0
   2246   2221   130
   2261   2162   1195
   2262   1975   1925
   2108   1635   2609
   2068   1531   3382
   2038   1445   3893
   2055   1439   4024
   2077   1435   4046
   2185   2818   0
   1882   2793   0
   1584   2760   0
   1747   2712   1387
   1814   2653   2509
   1823   2520   3247
   1794   2515   3756
   1843   2492   3992
   1899   2480   4027
   2068   3465   0
   1722   3485   0
   1401   3479   0
   1616   3443   1189
   1585   3402   2310
   1421   3352   3275
   1541   3127   3717
   1657   3106   3976
   1748   3109   4012
   1933   3936   0
   1586   3950   0
   1429   3945   0
   1584   3934   1287
   1497   3917   2284
   1317   3888   3198
   1219   3851   3783
   1466   3640   3943
   1597   3599   3991
   1870   4050   0
   1567   4048   0
   1652   4047   393
   1732   4044   1620
   1678   4039   2479
   1557   4033   3239
   1450   4026   3782
   1448   4018   3998
   1538   4005   4013
   1975   4061   0
   1638   4061   0
   1865   4059   1063
   1878   4058   1959
   1865   4055   2734
   1784   4051   3390
   1725   4048   3859
   1753   4044   4009
   1841   4041   4016
   2844   0   0
   2844   0   0
   3003   0   1078
   3054   0   1920
   3031   0   2718
   2983   0   3310
   2944   0   3715
   2919   0   3956
   2913   0   4005
   2847   388   0
   2846   863   96
   2854   228   1050
   3166   0   1861
   3135   0   2758
   3086   0   3408
   3033   0   3838
   3005   0   4008
   2995   0   4040
   2850   1241   0
   2851   1539   24
   2850   1435   1133
   3037   746   1770
   3120   59   2686
   3070   0   3408
   3028   0   3877
   2984   0   4015
   2969   0   4041
   2853   2117   0
   2853   2319   0
   2856   2225   1137
   2860   2043   1892
   2961   1525   2526
   2933   1426   3281
   2910   1339   3802
   2894   1343   4000
   2895   1345   4034
   2690   2827   0
   2573   2858   0
   2674   2858   909
   2832   2817   1877
   2871   2735   2603
   2754   2504   3134
   2746   2437   3691
   2744   2395   3982
   2774   2384   4023
   2787   3433   0
   2477   3435   0
   2208   3424   0
   2273   3389   1123
   2513   3337   2208
   2542   3286   3073
   2577   3165   3610
   2588   3162   3936
   2638   3155   3992
   2691   3923   0
   2342   3931   0
   2056   3928   0
   2200   3908   1244
   2444   3877   2167
   2397   3842   2961
   2329   3802   3642
   2441   3648   3910
   2532   3607   3979
   2648   4044   0
   2142   4045   0
   2135   4042   431
   2388   4037   1614
   2522   4032   2391
   2494   4026   3049
   2433   4018   3631
   2413   4008   3959
   2466   3999   3995
   2466   4057   0
   2145   4057   0
   2311   4055   1113
   2572   4052   1964
   2623   4049   2652
   2627   4045   3244
   2590   4041   3736
   2599   4035   3981
   2660   4032   3998
   3316   0   0
   3315   0   0
   3411   0   1013
   3527   0   1850
   3510   0   2652
   3488   0   3260
   3458   0   3683
   3432   0   3940
   3420   0   3997
   3316   146   0
   3313   867   0
   3314   12   915
   3649   0   1779
   3638   0   2670
   3614   0   3342
   3580   0   3793
   3541   0   3996
   3534   0   4034
   3314   1215   0
   3312   1573   0
   3313   1468   1065
   3403   906   1793
   3669   0   2594
   3644   0   3334
   3607   0   3824
   3551   0   4000
   3519   0   4032
   3314   2124   0
   3313   2368   0
   3316   2273   1076
   3316   2148   1855
   3525   1506   2463
   3546   1313   3218
   3523   1222   3742
   3484   1242   3980
   3468   1257   4022
   3306   3043   0
   3307   3176   0
   3315   3083   1094
   3320   2960   1892
   3322   2779   2580
   3395   2437   3066
   3387   2376   3610
   3381   2333   3945
   3388   2330   4006
   3017   3418   0
   2877   3410   0
   2940   3387   534
   3054   3354   1608
   3228   3319   2453
   3332   3309   3123
   3263   3174   3515
   3266   3133   3892
   3289   3095   3986
   3102   3904   0
   2882   3904   0
   2720   3897   0
   2809   3873   1230
   2897   3841   2122
   3110   3792   2878
   3127   3750   3479
   3162   3651   3850
   3206   3626   3956
   3050   4040   0
   2659   4038   0
   2722   4036   477
   2812   4032   1611
   2985   4025   2373
   3117   4016   2966
   3105   4007   3466
   3083   3996   3891
   3114   3983   3967
   2782   4051   0
   2705   4050   0
   2801   4047   1156
   2907   4045   1987
   3120   4041   2645
   3183   4036   3162
   3197   4029   3610
   3189   4024   3941
   3237   4018   3977
   3654   0   0
   3653   0   0
   3709   0   925
   3865   0   1790
   3848   0   2588
   3829   0   3207
   3817   0   3646
   3788   0   3925
   3780   0   3989
   3652   0   0
   3648   866   0
   3651   0   803
   3898   0   1735
   3949   0   2600
   3937   0   3274
   3927   0   3746
   3911   0   3984
   3897   0   4029
   3651   1196   0
   3648   1599   0
   3649   1494   1003
   3659   981   1774
   3967   0   2518
   3954   0   3246
   3944   0   3751
   3923   0   3986
   3891   0   4026
   3645   2143   0
   3640   2406   0
   3643   2311   1020
   3644   2186   1821
   3767   1693   2469
   3917   1294   3139
   3908   1194   3669
   3882   1152   3961
   3856   1178   4016
   3635   3073   0
   3636   3217   0
   3641   3122   1051
   3644   3000   1866
   3643   2871   2555
   3780   2470   3027
   3817   2324   3561
   3805   2281   3921
   3796   2285   3997
   3440   3599   0
   3470   3655   0
   3570   3650   1153
   3652   3597   1957
   3655   3479   2625
   3661   3347   3132
   3707   3137   3460
   3709   3094   3838
   3722   3061   3969
   3246   3886   0
   3138   3879   0
   3215   3865   527
   3317   3835   1551
   3417   3800   2275
   3507   3755   2899
   3614   3710   3399
   3632   3667   3782
   3655   3634   3936
   3183   4034   0
   3068   4034   0
   3150   4028   711
   3248   4024   1656
   3340   4016   2371
   3418   4006   2943
   3562   3993   3398
   3579   3977   3785
   3607   3963   3941
   3057   4045   0
   3120   4042   0
   3218   4039   1288
   3319   4035   2027
   3408   4030   2655
   3518   4023   3158
   3621   4013   3550
   3638   4003   3888
   3681   3995   3963
   3791   0   0
   3789   0   0
   3832   0   865
   3956   0   1753
   3950   0   2557
   3941   0   3172
   3931   0   3619
   3923   0   3914
   3915   0   3985
   3793   0   0
   3788   866   0
   3791   0   744
   3959   0   1703
   4007   0   2554
   4000   0   3232
   3993   0   3709
   3986   0   3975
   3978   0   4025
   3793   1200   0
   3789   1612   0
   3787   1506   963
   3787   987   1728
   4011   0   2475
   4004   0   3189
   3996   0   3693
   3991   0   3974
   3973   0   4024
   3795   2162   0
   3789   2426   0
   3790   2334   988
   3787   2210   1796
   3852   1777   2466
   3987   1323   3091
   3980   1229   3613
   3972   1144   3944
   3958   1153   4012
   3793   3113   0
   3789   3239   0
   3792   3144   1030
   3790   3025   1847
   3785   2898   2533
   3872   2565   3022
   3946   2325   3517
   3940   2275   3895
   3928   2270   3995
   3701   3766   0
   3762   3801   0
   3799   3736   1152
   3803   3617   1948
   3801   3501   2608
   3799   3385   3115
   3862   3167   3442
   3880   3075   3812
   3879   3034   3972
   3330   3882   0
   3370   3871   0
   3470   3862   1009
   3589   3847   1867
   3707   3833   2588
   3809   3810   3176
   3830   3744   3547
   3817   3643   3761
   3822   3608   3941
   3296   4030   0
   3340   4026   0
   3420   4021   1042
   3503   4015   1786
   3579   4006   2404
   3646   3994   2953
   3698   3979   3395
   3799   3959   3761
   3809   3936   3938
   3345   4033   0
   3414   4031   693
   3507   4025   1525
   3592   4020   2149
   3666   4012   2703
   3731   4003   3178
   3810   3990   3576
   3881   3973   3885
   3909   3949   3975
