Resources/LUT/Resident.3dl
# 17x17x17 .3dl lookup table from LUT Buddy
0 128 256 384 512 640 768 896 1023
   0   0   0
   0   28   27
   60   149   91
   188   297   189
   344   466   320
   531   642   462
   730   815   599
   950   988   730
   1195   1166   864
   4   113   38
   64   196   84
   145   298   149
   291   470   270
   475   653   414
   684   840   563
   901   1024   703
   1141   1213   841
   1391   1393   977
   78   298   94
   229   453   194
   298   515   255
   434   656   367
   651   859   524
   886   1065   681
   1133   1269   830
   1398   1471   976
   1655   1654   1115
   204   531   180
   444   746   341
   644   899   476
   678   926   519
   866   1094   652
   1136   1323   818
   1412   1540   975
   1693   1741   1124
   1928   1902   1258
   381   800   299
   726   1086   524
   1053   1322   716
   1178   1407   798
   1198   1421   833
   1425   1600   968
   1716   1809   1125
   1970   1986   1271
   2175   2136   1403
   608   1105   446
   1085   1478   741
   1525   1759   968
   1746   1881   1084
   1799   1912   1131
   1814   1922   1161
   2001   2055   1275
   2225   2219   1419
   2424   2370   1560
   870   1435   613
   1521   1875   981
   1993   2143   1214
   2217   2274   1343
   2318   2333   1416
   2347   2351   1456
   2370   2366   1490
   2501   2466   1593
   2681   2607   1736
   1290   1809   828
   1882   2195   1183
   2336   2468   1431
   2605   2631   1603
   2746   2714   1711
   2802   2747   1770
   2817   2756   1802
   2832   2764   1830
   2926   2839   1919
   2193   2491   1325
   2369   2598   1467
   2725   2819   1706
   2961   2963   1885
   3097   3046   2003
   3171   3092   2078
   3199   3110   2120
   3213   3117   2149
   3229   3128   2181
   18   0   2
   9   45   35
   105   169   102
   246   319   204
   414   490   337
   617   672   481
   836   846   618
   1078   1026   753
   1346   1215   893
   45   159   41
   171   298   131
   292   429   226
   493   628   377
   730   838   540
   997   1050   700
   1282   1255   851
   1572   1458   1002
   1844   1654   1153
   144   321   102
   369   574   260
   471   656   344
   643   814   473
   913   1046   646
   1219   1286   818
   1519   1498   975
   1810   1703   1131
   2058   1884   1280
   302   554   193
   655   908   436
   815   1030   556
   918   1101   631
   1158   1298   777
   1499   1551   959
   1799   1761   1119
   2061   1946   1272
   2280   2114   1419
   517   830   319
   1036   1316   658
   1221   1445   785
   1484   1605   920
   1544   1641   969
   1806   1822   1111
   2076   2011   1270
   2308   2186   1423
   2510   2345   1571
   785   1144   473
   1526   1767   916
   1696   1865   1031
   2006   2034   1186
   2134   2104   1267
   2160   2119   1302
   2342   2257   1430
   2551   2421   1583
   2740   2574   1736
   1099   1484   647
   2014   2166   1171
   2151   2246   1277
   2408   2396   1432
   2572   2490   1545
   2627   2524   1601
   2650   2539   1636
   2791   2652   1758
   2959   2793   1905
   1825   2081   1035
   2444   2542   1434
   2565   2617   1542
   2784   2747   1704
   2949   2847   1836
   3035   2902   1917
   3061   2919   1955
   3080   2932   1991
   3177   3014   2091
   2484   2620   1431
   2832   2894   1717
   2947   2966   1838
   3126   3074   1994
   3268   3166   2128
   3354   3224   2220
   3394   3253   2276
   3411   3264   2311
   3426   3274   2341
   215   23   12
   181   114   79
   177   208   122
   336   367   233
   535   544   372
   768   733   518
   1021   920   661
   1290   1102   799
   1563   1284   940
   341   268   39
   495   440   161
   453   539   293
   707   756   460
   1003   980   632
   1334   1213   802
   1650   1435   966
   1926   1638   1121
   2154   1822   1269
   338   480   108
   491   647   274
   788   889   490
   1043   1081   641
   1421   1351   837
   1788   1610   1027
   2078   1831   1199
   2311   2016   1357
   2517   2182   1509
   421   655   200
   776   947   457
   1243   1321   727
   1374   1389   807
   1675   1600   967
   2012   1844   1155
   2272   2046   1324
   2492   2220   1481
   2686   2382   1636
   632   898   330
   1210   1371   689
   1764   1772   984
   1918   1851   1081
   2014   1903   1146
   2245   2077   1296
   2483   2266   1465
   2690   2434   1625
   2869   2587   1779
   911   1199   488
   1754   1835   958
   2212   2163   1234
   2340   2237   1333
   2494   2327   1437
   2528   2349   1482
   2703   2491   1622
   2892   2650   1783
   3054   2794   1934
   1248   1531   665
   2246   2248   1230
   2591   2518   1483
   2703   2586   1585
   2863   2684   1712
   2939   2733   1786
   2959   2748   1824
   3088   2861   1950
   3233   2993   2098
   2118   2207   1128
   2701   2661   1535
   2948   2861   1759
   3045   2923   1866
   3183   3013   1996
   3272   3074   2088
   3306   3098   2137
   3322   3110   2170
   3410   3195   2281
   2691   2702   1504
   3123   3057   1885
   3261   3175   2050
   3347   3234   2159
   3453   3308   2285
   3527   3364   2381
   3570   3399   2449
   3585   3410   2484
   3599   3421   2518
   513   64   23
   456   158   106
   395   316   201
   439   421   266
   671   612   411
   935   805   563
   1212   987   707
   1499   1168   847
   1774   1352   990
   946   530   51
   964   456   182
   831   672   398
   837   801   488
   1173   1041   666
   1527   1282   843
   1838   1500   1007
   2090   1697   1161
   2300   1873   1306
   752   573   96
   1088   854   301
   1395   1114   573
   1381   1252   748
   1784   1538   954
   2106   1788   1144
   2353   1989   1312
   2563   2161   1468
   2744   2314   1617
   836   909   215
   1100   1158   490
   1485   1419   772
   1883   1684   994
   2159   1894   1165
   2439   2119   1356
   2670   2310   1531
   2866   2480   1699
   3033   2632   1855
   876   1100   343
   1432   1489   722
   1997   1851   1040
   2322   2100   1255
   2421   2160   1333
   2629   2329   1493
   2844   2513   1670
   3022   2673   1835
   3176   2817   1988
   1125   1370   506
   1932   1883   985
   2440   2261   1310
   2703   2474   1516
   2816   2544   1616
   2866   2578   1675
   3023   2718   1823
   3184   2867   1983
   3321   3001   2135
   1479   1684   697
   2403   2291   1267
   2834   2642   1591
   3030   2811   1784
   3126   2875   1887
   3207   2931   1973
   3229   2947   2012
   3344   3058   2145
   3459   3179   2291
   2320   2291   1190
   2853   2711   1585
   3198   3014   1913
   3319   3125   2065
   3395   3179   2164
   3469   3234   2258
   3507   3264   2317
   3519   3274   2352
   3595   3360   2471
   2861   2767   1572
   3257   3112   1950
   3508   3357   2258
   3556   3403   2353
   3611   3446   2449
   3667   3493   2544
   3706   3528   2617
   3723   3542   2659
   3733   3551   2692
   931   121   38
   816   195   122
   771   421   298
   708   546   364
   816   678   453
   1107   870   607
   1410   1055   753
   1703   1240   897
   1960   1425   1040
   1607   569   49
   1579   534   223
   1428   754   471
   1234   951   604
   1347   1104   703
   1707   1340   882
   2001   1555   1046
   2234   1752   1199
   2439   1924   1344
   1618   869   116
   2038   1254   406
   2054   1175   641
   1876   1425   880
   1951   1604   996
   2246   1845   1183
   2484   2040   1350
   2684   2206   1504
   2859   2358   1653
   1352   968   185
   1843   1357   517
   2188   1696   852
   2400   1923   1120
   2441   2067   1289
   2693   2276   1478
   2897   2455   1653
   3065   2611   1813
   3206   2750   1963
   1590   1431   374
   1955   1764   784
   2238   1999   1083
   2552   2224   1343
   2769   2397   1521
   2959   2565   1690
   3142   2737   1871
   3292   2887   2035
   3416   3019   2187
   1585   1643   538
   2184   2046   1033
   2583   2323   1345
   2925   2602   1625
   3092   2750   1796
   3150   2791   1866
   3287   2925   2018
   3418   3062   2177
   3526   3184   2326
   1986   1998   862
   2573   2387   1316
   2960   2687   1634
   3246   2952   1921
   3355   3057   2062
   3423   3108   2152
   3448   3129   2199
   3542   3235   2334
   3632   3344   2481
   2531   2431   1259
   2992   2772   1642
   3306   3057   1964
   3519   3279   2235
   3574   3338   2339
   3623   3379   2426
   3661   3412   2495
   3673   3423   2530
   3734   3502   2653
   3027   2861   1653
   3373   3167   2018
   3590   3396   2315
   3726   3561   2565
   3743   3576   2623
   3777   3608   2703
   3806   3636   2777
   3821   3652   2824
   3828   3658   2856
   1543   200   56
   1285   235   135
   1292   537   392
   1185   685   499
   1128   791   552
   1294   935   653
   1609   1125   803
   1889   1314   948
   2129   1502   1094
   2187   548   48
   2227   669   283
   2045   850   528
   1820   1075   738
   1727   1229   811
   1873   1394   920
   2146   1612   1085
   2370   1805   1238
   2566   1970   1382
   2460   1240   146
   2644   1325   455
   2627   1354   758
   2440   1547   997
   2280   1747   1114
   2379   1900   1221
   2606   2087   1386
   2798   2249   1541
   2963   2398   1689
   2221   1251   212
   2642   1745   649
   2886   2074   1024
   2901   2048   1229
   2735   2192   1407
   2808   2326   1518
   2999   2500   1691
   3157   2653   1850
   3287   2786   1997
   2013   1429   318
   2478   1899   805
   2760   2187   1143
   2973   2418   1418
   3115   2584   1656
   3167   2716   1826
   3318   2871   1997
   3439   3002   2149
   3536   3118   2291
   2308   1954   586
   2651   2314   1119
   2859   2515   1412
   3062   2693   1667
   3274   2877   1916
   3382   2983   2053
   3493   3108   2204
   3597   3234   2363
   3681   3343   2511
   2446   2273   978
   2812   2566   1382
   3098   2787   1684
   3336   2992   1961
   3520   3191   2205
   3586   3263   2319
   3614   3289   2375
   3690   3387   2515
   3760   3484   2657
   2789   2620   1345
   3143   2888   1709
   3403   3111   2017
   3589   3313   2282
   3714   3473   2510
   3744   3508   2588
   3774   3537   2660
   3785   3549   2699
   3831   3620   2823
   3201   2994   1748
   3477   3234   2089
   3659   3437   2375
   3777   3593   2620
   3843   3692   2805
   3853   3703   2858
   3870   3724   2925
   3880   3739   2977
   3883   3744   3008
   2210   296   77
   1859   288   150
   1889   645   469
   1783   849   640
   1690   965   711
   1648   1056   756
   1803   1201   855
   2060   1391   1000
   2285   1578   1146
   2730   567   64
   2796   820   360
   2592   960   594
   2358   1209   870
   2227   1388   969
   2173   1517   1025
   2282   1668   1126
   2500   1860   1279
   2689   2022   1423
   3056   1492   172
   3094   1311   498
   3099   1553   888
   2923   1666   1087
   2719   1893   1267
   2643   2015   1331
   2722   2133   1423
   2905   2294   1577
   3059   2440   1726
   2919   1616   265
   3228   2138   820
   3305   2130   1099
   3299   2222   1362
   3149   2316   1545
   3035   2437   1635
   3093   2543   1730
   3241   2691   1887
   3363   2822   2032
   2712   1705   369
   3105   2189   939
   3315   2503   1306
   3443   2715   1594
   3453   2724   1789
   3348   2812   1938
   3392   2910   2035
   3502   3037   2185
   3591   3150   2326
   2562   1908   532
   3006   2387   1131
   3222   2641   1457
   3385   2842   1731
   3508   3010   1979
   3585   3125   2188
   3614   3222   2329
   3695   3329   2475
   3757   3419   2605
   3012   2587   1126
   3202   2809   1490
   3348   2977   1772
   3474   3117   2017
   3590   3244   2242
   3694   3368   2442
   3742   3429   2547
   3799   3516   2683
   3846   3599   2821
   3104   2837   1452
   3334   3050   1796
   3517   3220   2080
   3653   3365   2329
   3759   3498   2549
   3829   3608   2733
   3849   3639   2809
   3859   3653   2856
   3885   3714   2977
   3384   3153   1855
   3586   3341   2171
   3723   3493   2441
   3818   3622   2673
   3872   3720   2863
   3895   3785   3016
   3897   3792   3061
   3899   3804   3114
   3899   3812   3154
   2812   403   104
   2442   366   175
   2431   743   541
   2325   1001   779
   2219   1146   876
   2150   1253   930
   2124   1339   969
   2220   1469   1054
   2432   1657   1200
   3193   618   86
   3251   979   455
   3054   1083   676
   2837   1345   989
   2679   1545   1121
   2598   1697   1196
   2559   1798   1241
   2624   1913   1320
   2801   2070   1463
   3463   1607   192
   3455   1347   566
   3462   1756   1023
   3309   1793   1176
   3118   2014   1407
   3009   2157   1495
   2962   2246   1543
   3004   2337   1616
   3148   2481   1763
   3421   2016   356
   3585   2319   936
   3593   2147   1170
   3589   2385   1494
   3474   2419   1641
   3339   2561   1796
   3291   2650   1855
   3318   2729   1923
   3430   2856   2066
   3256   1996   443
   3543   2517   1106
   3662   2804   1489
   3690   2763   1682
   3688   2872   1930
   3604   2920   2080
   3540   3003   2155
   3558   3071   2222
   3640   3179   2359
   3238   2300   836
   3461   2621   1265
   3608   2874   1610
   3710   3089   1905
   3769   3221   2141
   3774   3243   2318
   3722   3294   2437
   3735   3355   2508
   3790   3442   2637
   3262   2628   1164
   3443   2868   1514
   3573   3058   1815
   3675   3219   2072
   3755   3350   2297
   3813   3459   2499
   3843   3523   2669
   3850   3583   2779
   3877   3647   2896
   3475   3087   1619
   3591   3245   1922
   3682   3376   2176
   3754   3481   2399
   3812   3567   2596
   3856   3638   2766
   3886   3704   2916
   3895   3735   2998
   3899   3786   3116
   3578   3325   1984
   3703   3470   2271
   3795   3584   2519
   3855   3673   2732
   3888   3742   2908
   3899   3800   3055
   3899   3841   3183
   3899   3850   3235
   3899   3861   3291
   3300   519   138
   3012   515   241
   2906   838   614
   2801   1138   911
   2692   1324   1039
   2607   1447   1107
   2556   1549   1155
   2534   1630   1191
   2578   1727   1254
   3560   688   115
   3592   1142   567
   3438   1267   808
   3237   1475   1095
   3080   1702   1272
   2982   1859   1360
   2924   1969   1415
   2895   2046   1454
   2912   2117   1506
   3728   1684   215
   3714   1426   658
   3712   1949   1159
   3598   1928   1271
   3446   2129   1527
   3324   2278   1647
   3264   2385   1715
   3231   2459   1757
   3235   2517   1801
   3728   2326   456
   3796   2399   1029
   3788   2211   1263
   3783   2541   1630
   3704   2521   1732
   3593   2666   1940
   3526   2772   2018
   3496   2841   2064
   3494   2890   2103
   3640   2328   596
   3797   2826   1288
   3840   2921   1610
   3840   2798   1770
   3840   3006   2063
   3787   3009   2175
   3719   3103   2306
   3691   3167   2359
   3685   3206   2392
   3635   2601   1049
   3749   2874   1428
   3831   3133   1802
   3871   3296   2078
   3878   3254   2224
   3879   3350   2442
   3852   3374   2564
   3823   3430   2634
   3819   3465   2670
   3599   2820   1323
   3712   3027   1642
   3802   3222   1958
   3858   3382   2214
   3889   3523   2450
   3898   3582   2624
   3898   3605   2781
   3890   3633   2883
   3889   3664   2924
   3675   3190   1731
   3755   3336   1998
   3818   3464   2246
   3859   3560   2461
   3884   3633   2643
   3898   3701   2812
   3899   3763   2968
   3899   3792   3107
   3899   3810   3170
   3771   3507   2168
   3828   3607   2404
   3869   3690   2624
   3892   3752   2810
   3899   3797   2967
   3899   3831   3099
   3899   3856   3214
   3899   3873   3314
   3899   3885   3394
