Resources/LUT/Resident.3dl
# 17x17x17 .3dl lookup table from LUT Buddy
0 256 512 768 1023
   0   0   0
   60   149   91
   344   466   320
   730   815   599
   1195   1166   864
   78   298   94
   298   515   255
   651   859   524
   1133   1269   830
   1655   1654   1115
   381   800   299
   1053   1322   716
   1198   1421   833
   1716   1809   1125
   2175   2136   1403
   870   1435   613
   1993   2143   1214
   2318   2333   1416
   2370   2366   1490
   2681   2607   1736
   2193   2491   1325
   2725   2819   1706
   3097   3046   2003
   3199   3110   2120
   3229   3128   2181
   215   23   12
   177   208   122
   535   544   372
   1021   920   661
   1563   1284   940
   338   480   108
   788   889   490
   1421   1351   837
   2078   1831   1199
   2517   2182   1509
   632   898   330
   1764   1772   984
   2014   1903   1146
   2483   2266   1465
   2869   2587   1779
   1248   1531   665
   2591   2518   1483
   2863   2684   1712
   2959   2748   1824
   3233   2993   2098
   2691   2702   1504
   3261   3175   2050
   3453   3308   2285
   3570   3399   2449
   3599   3421   2518
   931   121   38
   771   421   298
   816   678   453
   1410   1055   753
   1960   1425   1040
   1618   869   116
   2054   1175   641
   1951   1604   996
   2484   2040   1350
   2859   2358   1653
   1590   1431   374
   2238   1999   1083
   2769   2397   1521
   3142   2737   1871
   3416   3019   2187
   1986   1998   862
   2960   2687   1634
   3355   3057   2062
   3448   3129   2199
   3632   3344   2481
   3027   2861   1653
   3590   3396   2315
   3743   3576   2623
   3806   3636   2777
   3828   3658   2856
   2210   296   77
   1889   645   469
   1690   965   711
   1803   1201   855
   2285   1578   1146
   3056   1492   172
   3099   1553   888
   2719   1893   1267
   2722   2133   1423
   3059   2440   1726
   2712   1705   369
   3315   2503   1306
   3453   2724   1789
   3392   2910   2035
   3591   3150   2326
   3012   2587   1126
   3348   2977   1772
   3590   3244   2242
   3742   3429   2547
   3846   3599   2821
   3384   3153   1855
   3723   3493   2441
   3872   3720   2863
   3897   3792   3061
   3899   3812   3154
   3300   519   138
   2906   838   614
   2692   1324   1039
   2556   1549   1155
   2578   1727   1254
   3728   1684   215
   3712   1949   1159
   3446   2129   1527
   3264   2385   1715
   3235   2517   1801
   3640   2328   596
   3840   2921   1610
   3840   3006   2063
   3719   3103   2306
   3685   3206   2392
   3599   2820   1323
   3802   3222   1958
   3889   3523   2450
   3898   3605   2781
   3889   3664   2924
   3771   3507   2168
   3869   3690   2624
   3899   3797   2967
   3899   3856   3214
   3899   3885   3394
