Resources/LUT/Resident.3dl
# 17x17x17 .3dl lookup table from LUT Buddy
   0   64   128   192   256   320   384   448   512   576   640   704   768   832   896   960   1023
   0   0   0
   0   0   0
   0   28   27
   16   85   56
   60   149   91
   120   219   135
   188   297   189
   261   380   251
   344   466   320
   435   554   391
   531   642   462
   628   728   531
   730   815   599
   840   904   666
   950   988   730
   1069   1075   796
   1195   1166   864
   0   38   17
   0   38   17
   9   93   47
   47   158   79
   102   228   120
   166   304   170
   237   386   230
   316   473   296
   405   563   367
   502   652   440
   602   742   511
   704   830   581
   810   919   650
   920   1008   716
   1038   1099   784
   1159   1187   850
   1285   1277   918
   4   113   38
   4   113   38
   64   196   84
   82   220   102
   145   298   149
   214   382   205
   291   470   270
   379   561   340
   475   653   414
   578   747   489
   684   840   563
   792   933   634
   901   1024   703
   1017   1118   773
   1141   1213   841
   1265   1303   909
   1391   1393   977
   32   199   63
   32   199   63
   144   321   135
   166   342   155
   194   376   183
   270   466   246
   357   560   316
   454   655   390
   558   752   467
   666   850   544
   779   948   619
   893   1045   692
   1010   1142   764
   1131   1239   834
   1261   1337   905
   1394   1433   977
   1517   1519   1042
   78   298   94
   78   297   94
   229   453   194
   286   504   237
   298   515   255
   337   557   292
   434   656   367
   539   757   445
   651   859   524
   767   963   604
   886   1065   681
   1008   1168   757
   1133   1269   830
   1263   1371   903
   1398   1471   976
   1531   1567   1048
   1655   1654   1115
   136   410   133
   136   409   133
   327   595   263
   421   670   327
   461   703   361
   469   711   379
   520   759   422
   633   864   503
   753   972   586
   879   1083   669
   1006   1192   748
   1135   1298   825
   1269   1404   901
   1403   1505   975
   1541   1606   1049
   1676   1701   1121
   1793   1781   1186
   204   531   180
   204   531   180
   444   746   341
   571   845   425
   644   899   476
   668   917   501
   678   926   519
   738   980   566
   866   1094   652
   1000   1210   736
   1136   1323   818
   1272   1433   896
   1412   1540   975
   1553   1645   1050
   1693   1741   1124
   1813   1825   1192
   1928   1902   1258
   285   660   235
   285   661   238
   576   907   427
   735   1028   527
   839   1103   593
   894   1143   633
   908   1154   653
   919   1162   670
   988   1222   720
   1132   1344   808
   1276   1460   891
   1422   1572   973
   1563   1678   1050
   1703   1775   1125
   1834   1866   1197
   1947   1943   1264
   2053   2020   1330
   381   800   299
   382   801   312
   726   1086   524
   918   1228   638
   1053   1322   716
   1141   1382   769
   1178   1407   798
   1187   1414   816
   1198   1421   833
   1277   1485   884
   1425   1600   968
   1573   1709   1048
   1716   1809   1125
   1850   1902   1200
   1970   1986   1271
   2076   2063   1337
   2175   2136   1403
   489   948   369
   545   997   418
   896   1278   629
   1118   1437   754
   1285   1546   843
   1401   1620   906
   1467   1658   946
   1488   1672   968
   1496   1678   985
   1508   1685   1001
   1579   1736   1046
   1727   1840   1125
   1865   1935   1201
   1989   2024   1274
   2098   2103   1343
   2196   2175   1408
   2290   2248   1476
   608   1105   446
   728   1206   535
   1085   1478   741
   1337   1646   874
   1525   1759   968
   1661   1835   1037
   1746   1881   1084
   1789   1906   1114
   1799   1912   1131
   1806   1916   1146
   1814   1922   1161
   1874   1964   1200
   2001   2055   1275
   2120   2141   1348
   2225   2219   1419
   2326   2297   1490
   2424   2370   1560
   734   1266   527
   924   1421   658
   1294   1680   859
   1562   1840   993
   1765   1953   1092
   1905   2033   1163
   2000   2085   1215
   2052   2117   1251
   2071   2127   1273
   2077   2132   1288
   2085   2138   1303
   2102   2148   1322
   2156   2186   1360
   2266   2268   1435
   2370   2346   1508
   2463   2418   1577
   2556   2491   1649
   870   1435   613
   1142   1638   787
   1521   1875   981
   1797   2032   1114
   1993   2143   1214
   2124   2219   1286
   2217   2274   1343
   2276   2309   1384
   2318   2333   1416
   2336   2343   1438
   2347   2351   1456
   2358   2358   1473
   2370   2366   1490
   2408   2393   1523
   2501   2466   1593
   2594   2538   1666
   2681   2607   1736
   1024   1610   707
   1321   1813   896
   1670   2017   1068
   1941   2174   1203
   2143   2292   1310
   2296   2383   1397
   2412   2453   1469
   2490   2498   1522
   2543   2530   1564
   2572   2546   1592
   2583   2553   1610
   2592   2559   1628
   2602   2566   1644
   2611   2569   1659
   2634   2587   1685
   2721   2657   1756
   2804   2724   1827
   1290   1809   828
   1616   2043   1046
   1882   2195   1183
   2135   2346   1317
   2336   2468   1431
   2490   2561   1526
   2605   2631   1603
   2686   2679   1664
   2746   2714   1711
   2783   2736   1746
   2802   2747   1770
   2810   2752   1787
   2817   2756   1802
   2825   2761   1818
   2832   2764   1830
   2847   2775   1852
   2926   2839   1919
   1906   2265   1160
   1944   2287   1212
   2131   2400   1322
   2349   2534   1449
   2532   2645   1563
   2678   2735   1662
   2788   2802   1743
   2869   2849   1807
   2928   2885   1858
   2970   2910   1895
   2998   2927   1925
   3009   2933   1944
   3017   2938   1961
   3025   2943   1977
   3033   2949   1991
   3041   2952   2005
   3049   2957   2020
   2193   2491   1325
   2219   2507   1368
   2369   2598   1467
   2561   2717   1589
   2725   2819   1706
   2861   2903   1805
   2961   2963   1885
   3039   3012   1952
   3097   3046   2003
   3139   3072   2044
   3171   3092   2078
   3191   3105   2103
   3199   3110   2120
   3205   3112   2133
   3213   3117   2149
   3220   3121   2164
   3229   3128   2181
   0   0   0
   0   0   0
   0   28   28
   19   85   56
   64   150   91
   125   220   136
   193   297   190
   268   380   252
   351   465   320
   444   555   392
   539   643   462
   641   732   533
   745   819   601
   856   906   667
   968   992   732
   1092   1080   799
   1222   1174   869
   0   41   18
   0   41   18
   17   105   52
   62   173   86
   122   246   130
   190   326   183
   266   411   246
   350   500   314
   446   592   388
   549   686   463
   654   778   537
   764   871   609
   878   964   679
   1000   1059   748
   1121   1148   816
   1256   1242   886
   1392   1337   958
   10   116   39
   11   116   39
   78   210   91
   102   239   111
   168   320   161
   243   408   222
   326   499   289
   421   593   363
   524   689   439
   633   786   516
   745   883   592
   862   980   665
   982   1078   737
   1113   1178   810
   1242   1272   879
   1376   1365   950
   1516   1463   1024
   49   204   65
   49   204   65
   151   328   138
   192   367   169
   222   403   198
   305   496   265
   400   593   338
   504   694   416
   614   794   496
   731   896   575
   852   1000   653
   976   1102   729
   1107   1206   803
   1243   1308   877
   1382   1406   950
   1514   1500   1020
   1655   1595   1094
   105   305   98
   106   305   98
   230   456   194
   310   525   249
   336   548   276
   379   592   314
   484   695   393
   596   799   474
   717   907   557
   842   1016   639
   972   1126   720
   1107   1234   798
   1246   1343   876
   1393   1449   952
   1530   1547   1024
   1664   1639   1096
   1798   1732   1170
   173   419   138
   173   419   138
   327   597   261
   436   685   335
   507   738   384
   524   752   406
   581   805   453
   702   915   538
   830   1028   622
   967   1146   708
   1108   1261   792
   1253   1375   872
   1400   1485   952
   1549   1592   1030
   1685   1687   1102
   1814   1776   1173
   1939   1862   1245
   252   543   187
   253   543   187
   446   751   339
   573   849   425
   683   929   495
   739   969   535
   751   980   555
   817   1039   604
   958   1161   693
   1105   1284   782
   1255   1403   867
   1408   1519   950
   1562   1630   1031
   1705   1730   1106
   1834   1819   1178
   1957   1902   1248
   2073   1986   1322
   348   676   245
   403   735   284
   589   920   430
   727   1025   521
   869   1128   607
   964   1195   665
   1002   1222   695
   1015   1232   714
   1098   1300   768
   1253   1426   859
   1413   1548   946
   1571   1663   1029
   1724   1770   1110
   1857   1861   1184
   1978   1944   1255
   2093   2026   1326
   2202   2109   1398
   458   817   311
   599   959   408
   755   1111   533
   902   1220   628
   1071   1339   723
   1205   1427   796
   1286   1480   844
   1312   1497   867
   1327   1507   886
   1416   1574   941
   1580   1695   1028
   1739   1804   1111
   1881   1902   1189
   2004   1987   1262
   2117   2069   1332
   2227   2152   1406
   2330   2230   1477
   582   969   384
   805   1189   536
   942   1315   645
   1095   1426   741
   1290   1554   844
   1455   1655   928
   1574   1724   987
   1634   1758   1023
   1653   1768   1043
   1667   1778   1061
   1752   1835   1111
   1901   1938   1192
   2029   2029   1268
   2144   2113   1341
   2252   2193   1414
   2356   2272   1486
   2452   2349   1558
   717   1128   463
   1037   1430   674
   1151   1529   765
   1309   1633   858
   1517   1758   964
   1704   1863   1053
   1844   1940   1123
   1929   1986   1169
   1960   2004   1194
   1974   2014   1212
   1988   2022   1230
   2052   2067   1273
   2171   2154   1349
   2280   2236   1424
   2380   2314   1495
   2481   2392   1568
   2577   2467   1643
   861   1295   546
   1291   1672   817
   1377   1736   887
   1536   1830   978
   1751   1952   1084
   1938   2055   1175
   2078   2135   1249
   2169   2187   1302
   2217   2215   1337
   2232   2224   1357
   2244   2230   1373
   2255   2237   1391
   2304   2274   1430
   2409   2354   1504
   2509   2433   1579
   2605   2509   1654
   2696   2580   1726
   1020   1467   636
   1564   1899   959
   1621   1937   1014
   1775   2024   1101
   1977   2141   1206
   2155   2243   1299
   2288   2320   1375
   2378   2372   1432
   2437   2406   1475
   2466   2423   1503
   2477   2431   1521
   2488   2437   1538
   2498   2443   1553
   2540   2474   1591
   2636   2551   1668
   2728   2624   1742
   2815   2695   1815
   1196   1644   732
   1846   2122   1106
   1875   2139   1146
   2015   2221   1231
   2198   2329   1332
   2361   2427   1427
   2485   2500   1505
   2578   2554   1569
   2642   2592   1618
   2684   2616   1653
   2701   2627   1676
   2711   2634   1694
   2722   2640   1711
   2733   2648   1729
   2764   2672   1761
   2851   2742   1834
   2933   2810   1906
   1621   1985   963
   2090   2323   1241
   2116   2340   1282
   2245   2418   1364
   2409   2516   1465
   2559   2607   1561
   2677   2678   1642
   2768   2731   1711
   2836   2771   1765
   2884   2801   1807
   2912   2819   1837
   2924   2826   1856
   2934   2833   1874
   2944   2839   1890
   2953   2845   1907
   2975   2860   1930
   3051   2926   2003
   2059   2323   1205
   2315   2515   1379
   2346   2534   1420
   2464   2607   1503
   2613   2698   1604
   2750   2783   1702
   2858   2846   1784
   2946   2900   1855
   3012   2941   1912
   3064   2972   1958
   3097   2993   1991
   3117   3006   2017
   3126   3013   2035
   3135   3018   2050
   3143   3024   2067
   3152   3029   2082
   3166   3040   2103
   2362   2573   1391
   2527   2700   1520
   2564   2722   1564
   2674   2791   1652
   2809   2874   1753
   2931   2949   1849
   3029   3009   1929
   3110   3059   1999
   3175   3099   2058
   3224   3131   2105
   3260   3155   2145
   3284   3170   2174
   3296   3178   2193
   3304   3184   2209
   3311   3187   2226
   3320   3193   2242
   3328   3199   2258
   18   0   2
   18   0   2
   9   45   35
   49   105   65
   105   169   102
   173   240   148
   246   319   204
   326   402   268
   414   490   337
   513   581   409
   617   672   481
   723   758   550
   836   846   618
   954   936   687
   1078   1026   753
   1209   1120   822
   1346   1215   893
   36   81   16
   36   81   16
   90   181   85
   161   260   131
   238   345   188
   323   435   253
   416   529   325
   521   626   401
   633   725   479
   753   824   556
   874   919   631
   1002   1015   703
   1136   1111   775
   1275   1209   848
   1414   1308   920
   1555   1405   994
   1689   1501   1067
   45   159   41
   45   160   41
   171   298   131
   208   336   162
   292   429   226
   388   528   299
   493   628   377
   607   732   458
   730   838   540
   862   945   621
   997   1050   700
   1133   1149   775
   1282   1255   851
   1429   1358   928
   1572   1458   1002
   1713   1559   1079
   1844   1654   1153
   84   230   68
   85   230   68
   261   429   189
   302   465   225
   344   507   262
   448   611   340
   562   717   421
   683   825   506
   813   936   589
   952   1048   673
   1099   1162   755
   1243   1267   833
   1392   1372   909
   1544   1477   988
   1687   1578   1065
   1824   1677   1140
   1949   1770   1214
   144   321   102
   145   321   102
   369   574   260
   420   617   305
   471   656   344
   521   703   387
   643   814   473
   772   928   559
   913   1046   646
   1062   1166   733
   1219   1286   818
   1369   1392   897
   1519   1498   975
   1670   1604   1054
   1810   1703   1131
   1938   1796   1206
   2058   1884   1280
   217   430   143
   217   431   143
   500   733   342
   555   779   392
   640   840   451
   674   865   480
   738   921   529
   878   1042   619
   1027   1167   709
   1187   1292   799
   1353   1416   886
   1508   1526   968
   1657   1630   1045
   1803   1733   1124
   1935   1827   1201
   2057   1914   1275
   2168   1998   1348
   302   554   193
   302   554   193
   655   908   436
   711   957   489
   815   1030   556
   897   1086   608
   918   1101   631
   996   1166   684
   1158   1298   777
   1327   1427   870
   1499   1551   959
   1655   1662   1041
   1799   1761   1119
   1936   1857   1196
   2061   1946   1272
   2176   2033   1347
   2280   2114   1419
   401   686   252
   486   773   310
   829   1101   540
   890   1151   595
   1006   1231   667
   1128   1311   735
   1193   1353   775
   1207   1362   794
   1303   1436   851
   1482   1569   946
   1653   1689   1035
   1801   1791   1114
   1939   1887   1193
   2068   1978   1269
   2185   2066   1346
   2292   2149   1420
   2396   2228   1493
   517   830   319
   683   992   431
   1036   1316   658
   1095   1364   711
   1221   1445   785
   1373   1539   863
   1484   1605   920
   1527   1630   949
   1544   1641   969
   1647   1712   1026
   1806   1822   1111
   1947   1918   1191
   2076   2011   1270
   2197   2100   1347
   2308   2186   1423
   2410   2266   1496
   2510   2345   1571
   645   982   393
   898   1222   559
   1272   1545   785
   1323   1583   833
   1455   1662   908
   1623   1756   990
   1762   1833   1057
   1841   1875   1100
   1864   1887   1122
   1878   1895   1140
   1957   1949   1190
   2087   2043   1270
   2211   2135   1348
   2324   2221   1426
   2429   2304   1501
   2529   2383   1576
   2624   2459   1652
   785   1144   473
   1147   1471   701
   1526   1767   916
   1564   1791   958
   1696   1865   1031
   1866   1959   1115
   2006   2034   1186
   2092   2081   1235
   2134   2104   1267
   2148   2113   1286
   2160   2119   1302
   2225   2167   1351
   2342   2257   1430
   2449   2341   1507
   2551   2421   1583
   2648   2499   1660
   2740   2574   1736
   935   1312   558
   1413   1711   842
   1781   1974   1046
   1808   1989   1081
   1930   2058   1154
   2086   2147   1237
   2214   2218   1308
   2305   2269   1365
   2364   2303   1406
   2389   2318   1432
   2401   2325   1449
   2413   2334   1468
   2469   2376   1513
   2573   2459   1592
   2671   2536   1668
   2763   2611   1744
   2850   2683   1818
   1099   1484   647
   1696   1940   987
   2014   2166   1171
   2039   2181   1207
   2151   2246   1277
   2291   2329   1360
   2408   2396   1432
   2503   2449   1495
   2572   2490   1545
   2612   2515   1580
   2627   2524   1601
   2640   2532   1620
   2650   2539   1636
   2698   2577   1680
   2791   2652   1758
   2877   2723   1831
   2959   2793   1905
   1283   1662   742
   1986   2172   1140
   2234   2355   1299
   2260   2372   1336
   2360   2433   1406
   2487   2509   1488
   2599   2574   1565
   2692   2627   1631
   2766   2671   1688
   2817   2704   1732
   2844   2721   1761
   2854   2727   1779
   2865   2734   1796
   2874   2740   1812
   2911   2770   1851
   2991   2837   1923
   3068   2904   1995
   1825   2081   1035
   2259   2400   1300
   2444   2542   1434
   2472   2560   1471
   2565   2617   1542
   2678   2685   1625
   2784   2747   1704
   2874   2801   1774
   2949   2847   1836
   3001   2881   1882
   3035   2902   1917
   3052   2913   1939
   3061   2919   1955
   3070   2925   1973
   3080   2932   1991
   3106   2953   2020
   3177   3014   2091
   2190   2372   1243
   2516   2625   1465
   2641   2721   1570
   2673   2742   1613
   2762   2795   1686
   2864   2855   1768
   2961   2915   1849
   3044   2966   1919
   3115   3012   1982
   3168   3046   2031
   3204   3070   2069
   3228   3085   2097
   3239   3092   2116
   3248   3098   2133
   3255   3103   2150
   3266   3110   2167
   3284   3124   2192
   2484   2620   1431
   2763   2841   1641
   2832   2894   1717
   2867   2916   1763
   2947   2966   1838
   3038   3020   1916
   3126   3074   1994
   3204   3123   2065
   3268   3166   2128
   3316   3198   2178
   3354   3224   2220
   3380   3243   2253
   3394   3253   2276
   3405   3260   2295
   3411   3264   2311
   3417   3268   2325
   3426   3274   2341
   100   8   7
   101   8   7
   73   83   58
   76   122   73
   141   188   112
   213   261   160
   291   342   218
   376   428   284
   472   516   354
   578   607   426
   690   699   498
   807   790   569
   927   881   639
   1053   974   708
   1184   1067   777
   1317   1159   846
   1456   1252   918
   193   160   19
   194   161   19
   219   213   101
   193   272   138
   276   359   197
   365   452   263
   466   548   337
   578   648   414
   696   744   492
   822   843   569
   957   943   646
   1094   1043   720
   1236   1144   794
   1379   1244   868
   1522   1343   942
   1661   1441   1016
