Resources/LUT/Selenium.3dl
# 17x17x17 .3dl lookup table from LUT Buddy
0 256 512 768 1023
   189   21   0
   573   469   64
   990   931   687
   1317   1284   1131
   1583   1566   1472
   633   537   159
   807   731   424
   1121   1074   869
   1409   1382   1251
   1653   1641   1560
   1048   995   768
   1156   1112   916
   1380   1352   1214
   1611   1596   1507
   1819   1814   1763
   1415   1388   1258
   1507   1486   1376
   1693   1682   1609
   1888   1886   1845
   2068   2073   2058
   1815   1810   1758
   1912   1911   1874
   2059   2064   2047
   2217   2226   2229
   2371   2385   2404
   1065   1013   792
   1170   1127   936
   1396   1369   1235
   1633   1619   1534
   1848   1844   1798
   1221   1181   1004
   1316   1283   1130
   1518   1498   1391
   1737   1728   1663
   1939   1940   1907
   1489   1467   1353
   1578   1561   1466
   1753   1745   1683
   1945   1945   1913
   2127   2134   2126
   1798   1793   1738
   1895   1894   1854
   2053   2057   2040
   2220   2230   2234
   2385   2399   2419
   2153   2161   2157
   2263   2274   2282
   2412   2427   2450
   2564   2582   2617
   2716   2736   2780
   1840   1836   1787
   1896   1894   1855
   2029   2033   2013
   2187   2196   2195
   2344   2357   2374
   1930   1929   1895
   1990   1992   1966
   2121   2128   2120
   2276   2287   2296
   2430   2445   2469
   2105   2111   2101
   2174   2183   2181
   2304   2317   2329
   2452   2468   2493
   2599   2618   2655
   2338   2351   2367
   2425   2440   2463
   2556   2573   2607
   2698   2718   2761
   2841   2862   2913
   2637   2656   2696
   2746   2766   2812
   2882   2904   2956
   3022   3045   3100
   3166   3188   3246
   2526   2543   2575
   2564   2582   2617
   2659   2678   2719
   2775   2796   2843
   2895   2917   2969
   2586   2604   2640
   2631   2650   2689
   2730   2750   2795
   2848   2869   2920
   2969   2991   3046
   2712   2732   2776
   2770   2791   2838
   2873   2895   2946
   2993   3015   3070
   3115   3137   3194
   2892   2914   2966
   2970   2992   3046
   3083   3105   3162
   3205   3227   3284
   3330   3351   3407
   3139   3161   3219
   3245   3267   3324
   3370   3391   3446
   3499   3518   3570
   3634   3650   3695
   3159   3181   3239
   3188   3210   3268
   3262   3283   3340
   3354   3375   3431
   3449   3469   3522
   3196   3218   3276
   3233   3255   3312
   3310   3332   3388
   3407   3427   3482
   3507   3525   3577
   3284   3305   3362
   3333   3354   3410
   3420   3440   3494
   3519   3537   3588
   3623   3640   3686
   3419   3440   3494
   3486   3505   3557
   3585   3602   3650
   3691   3706   3748
   3801   3812   3846
   3614   3631   3677
   3713   3727   3767
   3826   3837   3868
   3946   3953   3972
   4072   4073   4077
