Resources/LUT/Selenium.3dl
# 17x17x17 .3dl lookup table from LUT Buddy
0 128 256 384 512 640 768 896 1023
   189   21   0
   320   178   0
   573   469   64
   793   715   401
   990   931   687
   1164   1120   928
   1317   1284   1131
   1454   1430   1309
   1583   1566   1472
   407   280   0
   486   370   0
   664   572   207
   853   782   491
   1035   980   750
   1200   1159   976
   1347   1316   1170
   1481   1458   1343
   1605   1590   1500
   633   537   159
   680   590   231
   807   731   424
   962   901   647
   1121   1074   869
   1273   1237   1073
   1409   1382   1251
   1535   1516   1412
   1653   1641   1560
   846   774   480
   880   812   530
   977   918   669
   1104   1055   845
   1240   1202   1030
   1375   1346   1207
   1500   1478   1367
   1616   1601   1514
   1727   1718   1651
   1048   995   768
   1077   1026   809
   1156   1112   916
   1262   1225   1058
   1380   1352   1214
   1499   1478   1366
   1611   1596   1507
   1717   1708   1639
   1819   1814   1763
   1237   1199   1026
   1266   1230   1064
   1334   1303   1154
   1425   1400   1272
   1529   1509   1404
   1634   1621   1537
   1735   1726   1660
   1837   1833   1784
   1937   1937   1904
   1415   1388   1258
   1446   1421   1298
   1507   1486   1376
   1592   1576   1483
   1693   1682   1609
   1792   1786   1730
   1888   1886   1845
   1979   1981   1954
   2068   2073   2058
   1611   1596   1507
   1651   1638   1557
   1712   1703   1633
   1789   1783   1727
   1875   1873   1831
   1962   1963   1934
   2047   2051   2033
   2129   2136   2129
   2211   2221   2223
   1815   1810   1758
   1854   1851   1805
   1912   1911   1874
   1983   1985   1959
   2059   2064   2047
   2139   2146   2140
   2217   2226   2229
   2293   2305   2316
   2371   2385   2404
   608   509   120
   663   570   205
   798   721   410
   959   897   643
   1122   1075   870
   1276   1240   1077
   1415   1389   1259
   1543   1525   1423
   1664   1651   1573
   715   628   284
   758   676   350
   875   806   522
   1020   964   729
   1172   1129   938
   1318   1286   1133
   1453   1429   1307
   1577   1560   1464
   1694   1683   1610
   863   793   505
   899   832   557
   997   939   696
   1123   1076   872
   1261   1224   1057
   1396   1369   1235
   1522   1502   1396
   1640   1626   1543
   1752   1744   1682
   1035   980   750
   1067   1015   794
   1149   1104   907
   1259   1222   1054
   1381   1353   1215
   1504   1484   1373
   1621   1606   1519
   1730   1722   1655
   1836   1832   1784
   1215   1175   996
   1246   1208   1037
   1318   1286   1133
   1415   1389   1259
   1524   1504   1398
   1635   1621   1537
   1741   1733   1668
   1843   1839   1792
   1942   1942   1910
   1395   1367   1233
   1428   1402   1275
   1494   1473   1360
   1581   1565   1470
   1680   1668   1593
   1780   1773   1716
   1877   1875   1833
   1972   1973   1945
   2064   2069   2053
   1571   1554   1458
   1608   1593   1504
   1672   1660   1583
   1753   1745   1682
   1843   1840   1792
   1935   1935   1902
   2025   2028   2007
   2112   2118   2109
   2198   2208   2209
   1758   1750   1688
   1799   1793   1738
   1861   1858   1813
   1937   1937   1904
   2021   2025   2003
   2105   2111   2101
   2188   2197   2197
   2270   2281   2290
   2352   2365   2382
   1950   1951   1920
   1996   1998   1973
   2057   2062   2045
   2132   2139   2133
   2210   2220   2222
   2289   2301   2311
   2367   2381   2399
   2444   2459   2485
   2523   2540   2572
   1065   1013   792
   1092   1043   829
   1170   1127   936
   1277   1241   1078
   1396   1369   1235
   1517   1497   1390
   1633   1619   1534
   1742   1734   1669
   1848   1844   1798
   1125   1078   875
   1151   1107   910
   1225   1186   1010
   1326   1294   1143
   1442   1417   1293
   1559   1541   1442
   1670   1658   1581
   1777   1770   1712
   1881   1879   1837
   1221   1181   1004
   1247   1209   1039
   1316   1283   1130
   1410   1383   1252
   1518   1498   1391
   1630   1616   1531
   1737   1728   1663
   1839   1835   1787
   1939   1940   1907
   1346   1315   1169
   1372   1343   1203
   1436   1411   1286
   1523   1504   1397
   1624   1610   1524
   1729   1720   1653
   1830   1825   1776
   1927   1927   1893
   2023   2026   2005
   1489   1467   1353
   1517   1497   1389
   1578   1561   1466
   1660   1647   1568
   1753   1745   1683
   1850   1847   1801
   1945   1945   1913
   2037   2041   2022
   2127   2134   2126
   1641   1628   1545
   1673   1662   1585
   1733   1724   1658
   1810   1805   1752
   1898   1896   1857
   1988   1990   1964
   2076   2081   2067
   2163   2171   2168
   2249   2260   2267
   1798   1793   1738
   1836   1832   1784
   1895   1894   1854
   1970   1972   1943
   2053   2057   2040
   2137   2145   2138
   2220   2230   2234
   2303   2315   2327
   2385   2399   2419
   1972   1973   1945
   2013   2016   1994
   2073   2078   2064
   2146   2154   2149
   2225   2235   2239
   2305   2317   2330
   2384   2398   2418
   2462   2478   2505
   2542   2559   2592
   2153   2161   2157
   2201   2210   2211
   2263   2274   2282
   2336   2349   2364
   2412   2427   2450
   2488   2504   2533
   2564   2582   2617
   2640   2659   2698
   2716   2736   2780
   1468   1444   1326
   1486   1464   1350
   1541   1522   1419
   1618   1603   1516
   1709   1699   1629
   1806   1800   1747
   1900   1899   1860
   1992   1994   1969
   2082   2088   2075
   1510   1490   1381
   1530   1510   1405
   1583   1566   1472
   1658   1646   1566
   1748   1740   1677
   1843   1839   1792
   1935   1936   1902
   2027   2030   2010
   2115   2122   2112
   1581   1565   1470
   1601   1586   1495
   1654   1642   1561
   1727   1718   1651
   1815   1810   1758
   1906   1905   1867
   1997   1999   1974
   2085   2091   2078
   2173   2181   2179
   1678   1666   1591
   1700   1690   1618
   1752   1745   1682
   1824   1819   1768
   1907   1906   1868
   1995   1998   1973
   2082   2087   2074
   2168   2176   2173
   2253   2263   2270
   1794   1788   1733
   1820   1815   1764
   1872   1869   1826
   1941   1942   1909
   2022   2025   2004
   2106   2112   2102
   2189   2198   2198
   2271   2282   2291
   2353   2366   2383
   1923   1923   1888
   1954   1955   1924
   2007   2010   1987
   2075   2080   2066
   2153   2160   2156
   2233   2244   2248
   2313   2325   2338
   2392   2406   2427
   2471   2487   2515
   2061   2066   2050
   2099   2105   2094
   2153   2161   2156
   2221   2230   2234
   2297   2309   2320
   2374   2388   2407
   2451   2466   2492
   2528   2545   2577
   2605   2623   2661
   2218   2228   2231
   2260   2271   2279
   2317   2330   2344
   2386   2400   2420
   2460   2476   2503
   2535   2552   2585
   2609   2628   2666
   2683   2703   2745
   2759   2779   2826
   2389   2403   2424
   2437   2452   2477
   2498   2515   2545
   2568   2586   2621
   2641   2660   2700
   2713   2733   2777
   2786   2807   2855
   2860   2882   2933
   2935   2956   3010
   1840   1836   1787
   1854   1851   1805
   1896   1894   1855
   1956   1957   1927
   2029   2033   2013
   2108   2114   2104
   2187   2196   2195
   2266   2277   2285
   2344   2357   2374
   1873   1870   1827
   1888   1886   1846
   1930   1930   1896
   1991   1993   1967
   2063   2068   2053
   2142   2149   2143
   2221   2231   2234
   2298   2310   2322
   2376   2390   2409
   1930   1929   1895
   1946   1947   1915
   1990   1992   1966
   2050   2054   2037
   2121   2128   2120
   2199   2208   2209
   2276   2287   2296
   2353   2366   2383
   2430   2445   2469
   2008   2011   1988
   2027   2031   2010
   2072   2077   2063
   2131   2138   2131
   2202   2211   2213
   2278   2290   2299
   2354   2367   2385
   2429   2445   2469
   2505   2521   2552
   2105   2111   2101
   2129   2136   2128
   2174   2183   2181
   2234   2244   2249
   2304   2317   2329
   2378   2392   2411
   2452   2468   2493
   2526   2543   2575
   2599   2618   2655
   2215   2225   2228
   2245   2256   2262
   2293   2305   2316
   2354   2367   2385
   2423   2438   2462
   2495   2512   2541
   2568   2586   2621
   2640   2659   2699
   2712   2732   2776
   2338   2351   2367
   2373   2387   2406
   2425   2440   2463
   2487   2503   2532
   2556   2573   2607
   2627   2646   2685
   2698   2718   2761
   2769   2790   2837
   2841   2862   2913
   2480   2496   2525
   2521   2538   2569
   2576   2594   2630
   2640   2659   2699
   2710   2730   2774
   2780   2800   2848
   2849   2871   2921
   2920   2942   2995
   2991   3013   3068
   2637   2656   2696
   2686   2706   2748
   2746   2766   2812
   2812   2833   2882
   2882   2904   2956
   2952   2974   3028
   3022   3045   3100
   3093   3115   3172
   3166   3188   3246
   2190   2199   2199
   2203   2212   2213
   2236   2247   2252
   2287   2298   2309
   2347   2360   2377
   2414   2429   2452
   2481   2498   2526
   2550   2567   2601
   2617   2636   2674
   2218   2228   2231
   2231   2241   2246
   2265   2276   2285
   2316   2328   2342
   2377   2391   2410
   2443   2459   2484
   2511   2528   2559
   2579   2597   2633
   2648   2667   2707
   2264   2275   2284
   2279   2291   2301
   2315   2328   2341
   2366   2380   2398
   2427   2442   2466
   2494   2511   2540
   2561   2579   2613
   2630   2649   2688
   2697   2717   2760
   2330   2343   2357
   2348   2361   2377
   2386   2400   2420
   2438   2453   2478
   2500   2516   2546
   2566   2584   2619
   2633   2651   2691
   2700   2720   2763
   2767   2788   2834
   2412   2427   2450
   2434   2450   2474
   2475   2491   2519
   2529   2546   2578
   2591   2609   2645
   2656   2675   2716
   2722   2742   2787
   2789   2810   2858
   2856   2878   2929
   2508   2524   2555
   2536   2554   2586
   2580   2599   2634
   2635   2654   2694
   2698   2718   2761
   2763   2784   2831
   2829   2850   2900
   2895   2917   2969
   2963   2985   3039
   2617   2636   2674
   2651   2670   2711
   2698   2718   2762
   2756   2777   2823
   2820   2841   2891
   2886   2908   2959
   2952   2974   3028
   3018   3041   3096
   3085   3107   3164
   2745   2765   2811
   2786   2806   2854
   2838   2859   2909
   2898   2920   2972
   2963   2985   3039
   3029   3051   3107
   3095   3118   3174
   3162   3184   3241
   3229   3251   3308
   2890   2912   2964
   2939   2961   3014
   2997   3020   3075
   3061   3083   3139
   3127   3149   3207
   3194   3216   3274
   3261   3283   3340
   3330   3351   3408
   3400   3420   3475
   2526   2543   2575
   2536   2553   2586
   2564   2582   2617
   2606   2625   2662
   2659   2678   2719
   2717   2737   2781
   2775   2796   2843
   2835   2856   2906
   2895   2917   2969
   2547   2565   2598
   2559   2576   2611
   2589   2607   2643
   2633   2651   2691
   2685   2705   2747
   2744   2764   2810
   2802   2823   2872
   2862   2883   2934
   2924   2945   2999
   2586   2604   2640
   2600   2618   2655
   2631   2650   2689
   2676   2695   2737
   2730   2750   2795
   2788   2809   2857
   2848   2869   2920
   2908   2930   2982
   2969   2991   3046
   2641   2660   2700
   2658   2677   2718
   2692   2712   2755
   2737   2758   2803
   2792   2813   2861
   2852   2873   2923
   2911   2933   2986
   2971   2993   3048
   3033   3055   3111
   2712   2732   2776
   2733   2753   2799
   2770   2791   2838
   2818   2839   2888
   2873   2895   2946
   2933   2955   3008
   2993   3015   3070
   3054   3076   3132
   3115   3137   3194
   2795   2816   2864
   2822   2843   2892
   2862   2884   2935
   2913   2935   2988
   2971   2993   3047
   3030   3052   3108
   3090   3113   3169
   3151   3174   3231
   3214   3236   3293
   2892   2914   2966
   2925   2947   3000
   2970   2992   3046
   3024   3046   3102
   3083   3105   3162
   3143   3166   3223
   3205   3227   3284
   3266   3288   3345
   3330   3351   3407
   3006   3028   3083
   3047   3069   3125
   3096   3118   3175
   3154   3177   3234
   3215   3237   3294
   3277   3298   3355
   3340   3361   3417
   3402   3422   3477
   3467   3487   3540
   3139   3161   3219
   3188   3210   3267
   3245   3267   3324
   3306   3328   3384
   3370   3391   3446
   3434   3454   3507
   3499   3518   3570
   3565   3583   3632
   3634   3650   3695
   2850   2871   2921
   2857   2879   2929
   2882   2904   2956
   2918   2940   2993
   2964   2986   3040
   3014   3037   3092
   3067   3089   3146
   3120   3143   3200
   3174   3196   3253
   2865   2887   2938
   2875   2896   2948
   2902   2923   2976
   2940   2962   3015
   2986   3008   3062
   3038   3060   3116
   3089   3112   3168
   3144   3166   3223
   3199   3221   3278
   2896   2918   2970
   2909   2931   2983
   2938   2959   3013
   2977   2999   3053
   3024   3047   3102
   3076   3099   3155
   3130   3152   3209
   3185   3207   3264
   3240   3261   3319
   2942   2964   3018
   2959   2981   3035
   2988   3011   3066
   3031   3053   3109
   3080   3102   3159
   3133   3155   3212
   3187   3209   3266
   3241   3263   3321
   3297   3318   3375
   3002   3024   3080
   3023   3045   3100
   3056   3078   3135
   3100   3122   3179
   3150   3173   3230
   3205   3227   3284
   3259   3281   3338
   3316   3337   3393
   3372   3392   3448
   3075   3098   3154
   3100   3123   3180
   3138   3160   3217
   3184   3206   3264
   3237   3259   3316
   3293   3314   3371
   3348   3369   3425
   3404   3425   3479
   3462   3482   3535
   3160   3182   3240
   3190   3212   3269
   3233   3255   3312
   3283   3304   3361
   3339   3360   3416
   3395   3415   3470
   3452   3472   3525
   3511   3529   3580
   3569   3586   3635
   3261   3283   3340
   3299   3320   3377
   3348   3369   3425
   3402   3423   3477
   3459   3479   3532
   3518   3537   3588
   3577   3595   3643
   3638   3654   3699
   3698   3713   3754
   3380   3401   3456
   3428   3448   3502
   3484   3503   3556
   3543   3561   3611
   3604   3620   3667
   3666   3681   3725
   3728   3742   3781
   3791   3803   3838
   3858   3868   3897
   3159   3181   3239
   3167   3189   3246
   3188   3210   3268
   3221   3243   3300
   3262   3283   3340
   3306   3327   3384
   3354   3375   3431
   3402   3422   3477
   3449   3469   3522
   3171   3193   3250
   3181   3203   3260
   3204   3226   3283
   3237   3259   3317
   3278   3300   3357
   3324   3345   3402
   3372   3392   3448
   3421   3441   3496
   3471   3491   3543
   3196   3218   3276
   3208   3230   3287
   3233   3255   3312
   3268   3290   3347
   3310   3332   3388
   3358   3378   3434
   3407   3427   3482
   3455   3475   3528
   3507   3525   3577
   3233   3255   3312
   3249   3270   3328
   3276   3298   3355
   3313   3335   3391
   3357   3378   3434
   3406   3426   3481
   3455   3475   3528
   3506   3525   3576
   3557   3575   3624
   3284   3305   3362
   3302   3323   3380
   3333   3354   3410
   3374   3395   3450
   3420   3440   3494
   3469   3488   3541
   3519   3537   3588
   3571   3589   3637
   3623   3640   3686
   3346   3367   3423
   3368   3388   3444
   3404   3424   3479
   3447   3467   3520
   3495   3514   3566
   3546   3564   3614
   3598   3615   3662
   3650   3666   3711
   3704   3719   3760
   3419   3440   3494
   3446   3466   3519
   3486   3505   3557
   3533   3552   3602
   3585   3602   3650
   3638   3654   3699
   3691   3706   3748
   3745   3759   3797
   3801   3812   3846
   3508   3526   3578
   3542   3560   3610
   3588   3605   3653
   3640   3656   3701
   3694   3709   3750
   3748   3762   3799
   3805   3816   3850
   3862   3872   3900
   3919   3927   3949
   3614   3631   3677
   3659   3674   3718
   3713   3727   3767
   3768   3781   3817
   3826   3837   3868
   3885   3894   3920
   3946   3953   3972
   4008   4012   4024
   4072   4073   4077
