Resources/LUT/Selenium.3dl
# 17x17x17 .3dl lookup table from LUT Buddy
   0   64   128   192   256   320   384   448   512   576   640   704   768   832   896   960   1023
   189   21   0
   195   29   0
   320   178   0
   452   332   0
   573   469   64
   686   596   241
   793   715   401
   894   827   550
   990   931   687
   1080   1030   813
   1164   1120   928
   1242   1204   1032
   1317   1284   1131
   1387   1359   1223
   1454   1430   1309
   1520   1500   1393
   1583   1566   1472
   289   142   0
   289   142   0
   401   273   0
   507   394   0
   613   515   128
   717   631   289
   818   743   439
   915   850   581
   1009   952   713
   1096   1047   835
   1179   1136   947
   1256   1219   1051
   1329   1297   1147
   1398   1371   1237
   1465   1442   1323
   1529   1509   1404
   1591   1575   1483
   407   280   0
   407   279   0
   486   370   0
   571   467   61
   664   572   207
   759   678   352
   853   782   491
   946   883   624
   1035   980   750
   1120   1073   867
   1200   1159   976
   1275   1240   1077
   1347   1316   1170
   1415   1389   1259
   1481   1458   1343
   1543   1525   1423
   1605   1590   1500
   522   412   0
   522   411   0
   581   478   77
   651   557   186
   731   646   309
   816   741   436
   903   836   562
   989   930   685
   1073   1022   803
   1154   1110   914
   1232   1193   1019
   1305   1271   1115
   1374   1345   1206
   1440   1416   1292
   1504   1483   1373
   1566   1548   1451
   1626   1612   1526
   633   537   159
   633   537   159
   680   590   231
   738   654   320
   807   731   424
   883   815   535
   962   901   647
   1042   988   760
   1121   1074   869
   1199   1158   974
   1273   1237   1073
   1342   1311   1165
   1409   1382   1251
   1473   1451   1334
   1535   1516   1412
   1595   1579   1487
   1653   1641   1560
   741   658   324
   741   657   324
   780   701   383
   830   756   457
   890   823   545
   958   897   642
   1030   975   743
   1104   1055   845
   1178   1135   946
   1251   1214   1044
   1321   1288   1136
   1387   1359   1223
   1452   1427   1306
   1513   1493   1385
   1573   1556   1460
   1631   1617   1532
   1687   1676   1602
   846   774   480
   846   773   480
   880   812   530
   924   859   593
   977   918   669
   1038   984   754
   1104   1055   845
   1172   1128   938
   1240   1202   1030
   1309   1276   1121
   1375   1346   1207
   1439   1414   1289
   1500   1478   1367
   1559   1541   1442
   1616   1601   1514
   1672   1660   1583
   1727   1718   1651
   948   886   628
   949   886   628
   980   920   672
   1018   962   726
   1066   1015   794
   1121   1074   869
   1181   1139   950
   1244   1206   1035
   1308   1275   1120
   1373   1344   1204
   1435   1410   1284
   1495   1474   1362
   1553   1535   1435
   1610   1595   1506
   1664   1652   1574
   1718   1709   1640
   1771   1764   1704
   1048   995   768
   1051   998   772
   1077   1026   809
   1113   1065   857
   1156   1112   916
   1207   1166   985
   1262   1225   1058
   1320   1287   1135
   1380   1352   1214
   1440   1416   1292
   1499   1478   1366
   1555   1537   1438
   1611   1596   1507
   1665   1653   1574
   1717   1708   1639
   1769   1762   1702
   1819   1814   1763
   1145   1099   901
   1150   1105   908
   1173   1130   939
   1206   1165   983
   1246   1208   1037
   1292   1258   1099
   1344   1313   1166
   1398   1371   1237
   1454   1430   1309
   1511   1490   1381
   1566   1549   1451
   1620   1605   1518
   1672   1660   1583
   1723   1714   1646
   1773   1766   1707
   1822   1818   1767
   1871   1869   1826
   1237   1199   1026
   1244   1206   1035
   1266   1230   1064
   1296   1262   1104
   1334   1303   1154
   1378   1349   1211
   1425   1400   1272
   1477   1454   1338
   1529   1509   1404
   1582   1566   1472
   1634   1621   1537
   1685   1674   1600
   1735   1726   1660
   1784   1778   1721
   1837   1833   1784
   1887   1885   1845
   1937   1937   1904
   1327   1294   1144
   1336   1304   1156
   1356   1326   1182
   1385   1356   1220
   1421   1395   1266
   1462   1438   1319
   1506   1486   1376
   1555   1537   1437
   1605   1589   1499
   1655   1643   1563
   1708   1698   1627
   1761   1753   1692
   1811   1806   1753
   1860   1857   1812
   1908   1907   1869
   1956   1956   1926
   2003   2005   1981
   1415   1388   1258
   1425   1399   1272
   1446   1421   1298
   1473   1450   1334
   1507   1486   1376
   1547   1529   1427
   1592   1576   1483
   1642   1629   1546
   1693   1682   1609
   1743   1735   1671
   1792   1786   1730
   1841   1837   1789
   1888   1886   1845
   1933   1933   1900
   1979   1981   1954
   2024   2027   2006
   2068   2073   2058
   1504   1483   1373
   1521   1501   1394
   1545   1526   1424
   1575   1558   1462
   1610   1595   1506
   1649   1636   1555
   1692   1681   1607
   1737   1728   1663
   1784   1778   1721
   1831   1826   1777
   1877   1874   1832
   1922   1921   1886
   1966   1967   1938
   2010   2013   1990
   2051   2056   2039
   2095   2101   2089
   2138   2146   2139
   1611   1596   1507
   1628   1614   1529
   1651   1638   1557
   1679   1668   1592
   1712   1703   1633
   1749   1741   1678
   1789   1783   1727
   1831   1827   1778
   1875   1873   1831
   1919   1918   1883
   1962   1963   1934
   2004   2007   1984
   2047   2051   2033
   2087   2093   2081
   2129   2136   2129
   2171   2179   2177
   2211   2221   2223
   1715   1705   1636
   1731   1722   1655
   1753   1745   1683
   1781   1774   1716
   1812   1807   1755
   1848   1844   1798
   1886   1884   1843
   1926   1925   1891
   1967   1968   1939
   2008   2011   1988
   2049   2053   2036
   2089   2095   2083
   2130   2137   2129
   2169   2178   2175
   2209   2219   2221
   2249   2260   2266
   2289   2301   2312
   1815   1810   1758
   1832   1827   1778
   1854   1851   1805
   1881   1879   1837
   1912   1911   1874
   1946   1947   1915
   1983   1985   1959
   2021   2024   2003
   2059   2064   2047
   2099   2105   2094
   2139   2146   2140
   2177   2185   2184
   2217   2226   2229
   2255   2266   2273
   2293   2305   2316
   2333   2346   2361
   2371   2385   2404
   242   85   0
   246   90   0
   372   239   0
   490   374   0
   602   502   110
   710   624   278
   814   739   434
   913   848   578
   1008   951   712
   1097   1048   836
   1181   1138   950
   1259   1222   1054
   1332   1301   1151
   1403   1376   1243
   1470   1447   1329
   1535   1515   1411
   1598   1582   1491
   362   227   0
   366   231   0
   458   338   0
   552   445   36
   651   557   186
   749   667   337
   847   775   482
   941   878   618
   1033   978   747
   1119   1072   866
   1201   1160   977
   1277   1242   1079
   1349   1319   1174
   1418   1392   1263
   1484   1462   1348
   1548   1530   1429
   1610   1595   1507
   473   355   0
   475   358   0
   544   436   28
   622   524   141
   708   620   274
   798   721   410
   888   820   542
   978   918   669
   1065   1013   791
   1148   1103   906
   1228   1188   1013
   1301   1268   1111
   1372   1343   1204
   1440   1415   1291
   1504   1483   1373
   1567   1550   1453
   1629   1614   1529
   583   481   83
   585   483   87
   639   544   168
   703   616   267
   779   700   381
   859   789   500
   943   880   620
   1026   971   737
   1108   1060   851
   1188   1146   959
   1264   1227   1061
   1335   1304   1155
   1404   1377   1245
   1470   1447   1329
   1533   1514   1410
   1595   1579   1487
   1655   1642   1562
   691   602   249
   694   605   253
   738   654   320
   793   715   402
   858   787   498
   931   867   603
   1007   950   710
   1084   1034   818
   1161   1117   924
   1237   1199   1025
   1309   1276   1121
   1378   1350   1211
   1444   1420   1297
   1507   1487   1377
   1569   1552   1455
   1629   1615   1530
   1687   1676   1602
   798   721   410
   800   723   413
   838   765   469
   887   818   539
   945   882   622
   1010   953   715
   1079   1029   811
   1150   1105   909
   1223   1183   1006
   1294   1260   1101
   1363   1333   1191
   1428   1403   1276
   1492   1470   1357
   1552   1534   1434
   1612   1597   1508
   1669   1657   1579
   1726   1717   1649
   903   837   564
   905   839   566
   940   877   615
   982   923   676
   1034   980   749
   1093   1043   830
   1157   1112   917
   1223   1183   1006
   1290   1255   1096
   1357   1327   1184
   1422   1396   1268
   1484   1462   1347
   1544   1526   1424
   1603   1587   1497
   1660   1647   1568
   1715   1705   1636
   1770   1763   1703
   1007   950   711
   1010   954   716
   1041   987   758
   1079   1028   810
   1126   1079   875
   1179   1137   948
   1238   1199   1027
   1299   1265   1107
   1362   1332   1190
   1425   1399   1271
   1486   1464   1349
   1545   1527   1425
   1603   1587   1497
   1658   1646   1566
   1713   1704   1634
   1767   1759   1699
   1820   1815   1763
   1108   1059   850
   1113   1065   858
   1140   1094   894
   1175   1132   942
   1218   1178   1000
   1268   1231   1066
   1322   1289   1138
   1379   1350   1212
   1437   1412   1288
   1497   1475   1364
   1554   1536   1436
   1611   1596   1507
   1665   1653   1575
   1719   1709   1641
   1771   1764   1705
   1822   1818   1767
   1874   1871   1828
   1206   1165   983
   1213   1172   993
   1237   1199   1026
   1270   1234   1070
   1310   1277   1123
   1357   1326   1183
   1407   1380   1249
   1461   1437   1318
   1516   1496   1388
   1572   1555   1459
   1626   1612   1527
   1680   1668   1593
   1732   1724   1657
   1783   1777   1720
   1833   1829   1780
   1883   1881   1839
   1931   1931   1897
   1300   1266   1109
   1310   1277   1122
   1333   1301   1152
   1364   1334   1192
   1402   1375   1242
   1445   1421   1298
   1493   1472   1359
   1544   1525   1423
   1596   1580   1489
   1649   1636   1554
   1700   1690   1618
   1751   1744   1681
   1801   1795   1741
   1850   1847   1800
   1898   1897   1858
   1946   1946   1914
   1993   1995   1970
   1392   1365   1230
   1404   1377   1244
   1426   1400   1273
   1456   1433   1312
   1492   1471   1358
   1534   1515   1411
   1579   1562   1467
   1627   1613   1528
   1677   1666   1590
   1727   1718   1651
   1777   1770   1712
   1825   1821   1770
   1873   1871   1828
   1920   1919   1884
   1966   1967   1938
   2012   2015   1993
   2057   2061   2045
   1484   1462   1347
   1497   1476   1364
   1519   1499   1392
   1549   1531   1430
   1584   1568   1474
   1624   1609   1523
   1667   1655   1577
   1713   1703   1634
   1761   1753   1692
   1808   1803   1750
   1855   1852   1807
   1902   1900   1862
   1947   1948   1916
   1992   1994   1969
   2037   2041   2022
   2081   2087   2073
   2125   2132   2124
   1577   1560   1464
   1593   1577   1485
   1615   1601   1513
   1644   1631   1549
   1679   1667   1592
   1717   1707   1639
   1759   1751   1690
   1803   1797   1743
   1848   1845   1798
   1893   1892   1852
   1938   1939   1906
   1982   1984   1958
   2026   2029   2009
   2068   2073   2058
   2112   2118   2109
   2154   2162   2157
   2197   2207   2207
   1673   1662   1585
   1690   1679   1606
   1713   1704   1634
   1742   1734   1669
   1776   1769   1710
   1813   1808   1755
   1853   1850   1804
   1896   1894   1855
   1939   1939   1906
   1982   1984   1957
   2025   2029   2008
   2067   2072   2057
   2109   2115   2105
   2150   2158   2153
   2192   2201   2201
   2233   2244   2249
   2274   2285   2294
   1771   1764   1705
   1788   1782   1726
   1812   1807   1755
   1841   1837   1790
   1874   1872   1829
   1911   1910   1872
   1950   1950   1919
   1990   1993   1967
   2032   2036   2016
   2073   2078   2064
   2114   2120   2111
   2154   2162   2158
   2196   2205   2205
   2236   2246   2251
   2276   2287   2296
   2316   2328   2342
   2356   2369   2387
   1868   1865   1822
   1887   1885   1844
   1911   1910   1873
   1941   1941   1909
   1974   1976   1948
   2010   2012   1990
   2047   2052   2034
   2087   2093   2080
   2127   2134   2126
   2167   2175   2172
   2206   2215   2217
   2245   2256   2262
   2285   2297   2307
   2323   2336   2350
   2362   2375   2393
   2402   2417   2438
   2440   2456   2481
   608   509   120
   610   510   122
   663   570   205
   725   640   300
   798   721   410
   877   808   526
   959   897   643
   1041   987   758
   1122   1075   870
   1201   1159   977
   1276   1240   1077
   1347   1316   1171
   1415   1389   1259
   1480   1457   1342
   1543   1525   1423
   1604   1589   1499
   1664   1651   1573
   657   564   196
   659   566   199
   706   619   271
   763   683   358
   832   759   460
   907   841   569
   985   926   680
   1065   1013   791
   1144   1098   899
   1221   1181   1003
   1294   1260   1101
   1364   1334   1193
   1431   1405   1279
   1495   1474   1361
   1557   1539   1440
   1618   1603   1516
   1677   1665   1589
   715   628   284
   716   630   286
   758   676   350
   811   735   429
   875   806   522
   945   883   624
   1020   964   729
   1096   1046   834
   1172   1129   938
   1247   1210   1039
   1318   1286   1133
   1387   1359   1223
   1453   1429   1307
   1516   1495   1387
   1577   1560   1464
   1636   1623   1539
   1694   1683   1610
   785   706   390
   786   708   392
   824   749   448
   872   803   518
   931   867   603
   997   939   696
   1067   1015   794
   1139   1093   893
   1212   1172   992
   1284   1249   1088
   1353   1323   1179
   1420   1394   1265
   1484   1461   1347
   1545   1526   1424
   1605   1590   1500
   1663   1651   1572
   1720   1710   1642
   863   793   505
   865   794   507
   899   832   557
   943   880   620
   997   939   696
   1058   1005   782
   1123   1076   872
   1192   1150   964
   1261   1224   1057
   1330   1298   1148
   1396   1369   1235
   1461   1437   1318
   1522   1502   1396
   1582   1565   1471
   1640   1626   1543
   1697   1686   1614
   1752   1744   1682
   947   885   626
   949   887   629
   981   922   674
   1021   965   730
   1070   1019   799
   1127   1080   876
   1188   1146   959
   1252   1215   1046
   1318   1285   1132
   1383   1355   1218
   1447   1423   1300
   1509   1488   1379
   1568   1551   1454
   1626   1612   1526
   1682   1671   1596
   1737   1729   1663
   1791   1785   1729
   1035   980   750
   1037   982   752
   1067   1015   794
   1103   1054   844
   1149   1104   907
   1202   1161   978
   1259   1222   1054
   1319   1287   1134
   1381   1353   1215
   1443   1419   1295
   1504   1484   1373
   1563   1546   1448
   1621   1606   1519
   1676   1664   1588
   1730   1722   1655
   1784   1777   1720
   1836   1832   1784
   1124   1077   873
   1129   1082   879
   1156   1111   916
   1190   1148   962
   1232   1193   1019
   1281   1246   1084
   1335   1303   1155
   1392   1364   1229
   1451   1426   1305
   1509   1489   1379
   1567   1550   1453
   1623   1609   1523
   1678   1667   1591
   1732   1723   1657
   1784   1778   1720
   1836   1832   1783
   1887   1885   1844
   1215   1175   996
   1221   1182   1004
   1246   1208   1037
   1278   1243   1080
   1318   1286   1133
   1365   1335   1193
   1415   1389   1259
   1469   1445   1328
   1524   1504   1398
   1580   1564   1469
   1635   1621   1537
   1688   1677   1603
   1741   1733   1668
   1792   1786   1730
   1843   1839   1792
   1892   1891   1851
   1942   1942   1910
   1306   1272   1116
   1314   1281   1127
   1337   1306   1158
   1368   1339   1198
   1406   1379   1247
   1449   1425   1303
   1497   1476   1364
   1548   1530   1428
   1601   1586   1495
   1654   1641   1561
   1706   1696   1625
   1757   1750   1688
   1808   1803   1749
   1857   1854   1809
   1906   1905   1867
   1954   1955   1924
   2002   2004   1980
   1395   1367   1233
   1405   1378   1246
   1428   1402   1275
   1457   1434   1313
   1494   1473   1360
   1536   1517   1413
   1581   1565   1470
   1630   1616   1531
   1680   1668   1593
   1731   1722   1655
   1780   1773   1716
   1829   1825   1775
   1877   1875   1833
   1925   1925   1890
   1972   1973   1945
   2018   2021   2000
   2064   2069   2053
   1483   1461   1346
   1495   1474   1362
   1517   1497   1390
   1547   1529   1428
   1582   1566   1472
   1622   1608   1521
   1666   1654   1576
   1712   1702   1633
   1760   1753   1691
   1808   1803   1750
   1856   1853   1807
   1903   1902   1864
   1950   1950   1919
   1995   1997   1972
   2040   2044   2026
   2085   2090   2077
   2130   2137   2130
   1571   1554   1458
   1586   1570   1476
   1608   1593   1504
   1637   1624   1540
   1672   1660   1583
   1711   1701   1631
   1753   1745   1682
   1797   1791   1736
   1843   1840   1792
   1890   1888   1847
   1935   1935   1902
   1980   1982   1955
   2025   2028   2007
   2068   2073   2058
   2112   2118   2109
   2155   2163   2159
   2198   2208   2209
   1662   1649   1570
   1679   1668   1592
   1703   1692   1621
   1731   1722   1656
   1765   1758   1697
   1803   1797   1743
   1843   1840   1792
   1886   1884   1843
   1931   1931   1896
   1975   1976   1949
   2018   2022   2000
   2061   2066   2050
   2104   2110   2100
   2146   2154   2149
   2190   2198   2198
   2231   2241   2246
   2273   2285   2294
   1758   1750   1688
   1775   1769   1710
   1799   1793   1738
   1828   1823   1773
   1861   1858   1813
   1898   1896   1857
   1937   1937   1904
   1979   1980   1953
   2021   2025   2003
   2063   2068   2052
   2105   2111   2101
   2146   2154   2149
   2188   2197   2197
   2230   2240   2244
   2270   2281   2290
   2312   2324   2337
   2352   2365   2382
   1853   1850   1804
   1872   1870   1827
   1897   1895   1856
   1926   1925   1890
   1958   1959   1929
   1995   1997   1973
   2034   2038   2018
   2074   2079   2064
   2114   2121   2112
   2155   2163   2159
   2195   2205   2205
   2236   2246   2251
   2276   2287   2297
   2316   2328   2342
   2356   2369   2387
   2396   2410   2432
   2435   2450   2474
   1950   1951   1920
   1970   1972   1943
   1996   1998   1973
   2025   2028   2007
   2057   2062   2045
   2094   2100   2089
   2132   2139   2133
   2170   2179   2176
   2210   2220   2222
   2250   2261   2268
   2289   2301   2311
   2329   2342   2356
   2367   2381   2399
   2406   2420   2442
   2444   2459   2485
   2484   2500   2529
   2523   2540   2572
   847   775   481
   848   776   483
   883   815   534
   928   864   598
   983   924   677
   1045   991   764
   1111   1063   855
   1181   1138   950
   1251   1214   1044
   1321   1288   1136
   1388   1360   1224
   1453   1429   1307
   1515   1494   1386
   1575   1558   1462
   1633   1620   1535
   1691   1680   1606
   1747   1739   1675
   881   812   531
   882   814   533
   916   850   581
   958   897   642
   1011   954   716
   1071   1019   799
   1135   1089   888
   1203   1162   979
   1271   1235   1071
   1340   1308   1161
   1406   1379   1247
   1469   1446   1328
   1531   1512   1407
   1590   1574   1482
   1648   1635   1554
   1705   1694   1623
