Resources/LUT/Sepia.3dl
# 17x17x17 .3dl lookup table from LUT Buddy
   0   64   128   192   256   320   384   448   512   576   640   704   768   832   896   960   1023
   37   0   0
   37   0   0
   42   0   0
   111   7   6
   250   53   32
   423   168   89
   605   329   188
   777   480   325
   931   617   457
   1077   745   582
   1212   864   700
   1340   977   812
   1460   1082   917
   1573   1182   1016
   1677   1274   1108
   1779   1364   1198
   1875   1447   1282
   52   0   0
   52   0   0
   115   8   6
   222   40   25
   369   126   69
   534   266   143
   700   412   262
   856   550   392
   1000   678   516
   1139   800   636
   1271   916   751
   1393   1024   858
   1510   1127   961
   1618   1222   1056
   1722   1313   1148
   1818   1397   1231
   1910   1479   1314
   165   20   13
   164   19   13
   254   55   33
   369   126   69
   509   244   129
   658   376   228
   807   507   351
   947   630   470
   1083   750   587
   1215   867   702
   1342   978   813
   1459   1082   916
   1569   1178   1013
   1673   1270   1104
   1773   1358   1193
   1867   1440   1275
   1954   1517   1352
   364   122   67
   363   121   66
   453   194   102
   557   286   156
   679   394   245
   808   507   351
   936   621   460
   1063   733   570
   1189   844   680
   1315   956   790
   1435   1060   895
   1545   1158   992
   1649   1248   1083
   1749   1337   1171
   1843   1420   1254
   1931   1497   1332
   2018   1574   1409
   597   321   182
   596   320   181
   672   388   240
   761   466   312
   861   554   396
   967   649   488
   1081   749   586
   1199   853   689
   1318   957   792
   1434   1059   894
   1544   1156   991
   1647   1247   1081
   1746   1334   1169
   1839   1416   1250
   1926   1492   1327
   2009   1566   1401
   2093   1640   1476
   824   522   365
   823   521   364
   885   576   417
   956   638   477
   1042   714   551
   1137   798   635
   1241   890   726
   1349   985   820
   1458   1081   916
   1563   1173   1007
   1666   1263   1098
   1761   1348   1182
   1853   1428   1262
   1937   1502   1337
   2018   1574   1410
   2105   1651   1487
   2192   1727   1563
   1033   707   545
   1033   707   545
   1088   754   592
   1149   809   645
   1228   878   713
   1316   956   791
   1410   1038   873
   1507   1124   958
   1604   1209   1044
   1702   1295   1130
   1796   1378   1212
   1881   1453   1288
   1964   1526   1361
   2046   1599   1435
   2131   1674   1510
   2219   1751   1587
   2306   1827   1665
   1241   890   725
   1242   891   726
   1292   935   769
   1349   985   819
   1420   1047   881
   1498   1116   950
   1582   1190   1024
   1668   1265   1100
   1758   1345   1180
   1845   1422   1256
   1928   1494   1329
   2009   1565   1401
   2090   1637   1473
   2174   1711   1547
   2258   1786   1623
   2351   1868   1705
   2442   1946   1785
   1445   1069   903
   1449   1073   907
   1491   1110   944
   1542   1155   990
   1604   1209   1044
   1676   1272   1106
   1749   1338   1172
   1829   1407   1241
   1907   1476   1311
   1986   1546   1381
   2066   1616   1452
   2147   1687   1524
   2231   1761   1598
   2318   1839   1675
   2407   1916   1754
   2496   1995   1833
   2590   2076   1916
   1637   1238   1072
   1645   1245   1079
   1679   1276   1110
   1728   1318   1153
   1784   1368   1202
   1846   1422   1257
   1913   1481   1316
   1984   1544   1379
   2059   1610   1446
   2138   1680   1516
   2223   1754   1590
   2308   1829   1666
   2394   1905   1744
   2480   1980   1819
   2569   2058   1899
   2662   2140   1980
   2757   2223   2064
   1819   1399   1233
   1829   1407   1242
   1861   1436   1270
   1903   1473   1307
   1951   1515   1350
   2010   1566   1402
   2074   1623   1459
   2149   1688   1525
   2224   1755   1592
   2309   1829   1666
   2390   1902   1739
   2481   1981   1819
   2564   2055   1894
   2659   2138   1978
   2752   2220   2060
   2841   2308   2150
   2917   2399   2242
   1983   1543   1378
   1996   1554   1390
   2026   1581   1417
   2066   1616   1452
   2120   1664   1500
   2182   1719   1555
   2249   1777   1614
   2324   1844   1681
   2404   1914   1752
   2494   1993   1831
   2581   2069   1909
   2673   2150   1990
   2770   2237   2076
   2848   2316   2158
   2922   2406   2248
   2992   2495   2338
   3060   2584   2428
   2155   1695   1532
   2174   1711   1548
   2208   1741   1577
   2252   1779   1617
   2307   1828   1666
   2375   1887   1725
   2446   1950   1788
   2526   2021   1860
   2616   2100   1940
   2704   2177   2018
   2796   2261   2101
   2872   2344   2187
   2939   2427   2269
   3006   2513   2356
   3075   2603   2447
   3137   2688   2533
   3197   2773   2620
   2353   1868   1706
   2382   1895   1733
   2424   1932   1769
   2472   1973   1812
   2532   2026   1866
   2603   2088   1928
   2678   2155   1995
   2761   2227   2068
   2842   2308   2150
   2909   2390   2232
   2975   2473   2316
   3039   2555   2399
   3104   2643   2488
   3161   2722   2568
   3221   2807   2654
   3279   2893   2742
   3327   2960   2818
   2586   2074   1913
   2623   2106   1945
   2665   2144   1984
   2719   2189   2031
   2780   2244   2085
   2843   2311   2152
   2901   2379   2222
   2961   2455   2298
   3025   2537   2381
   3089   2622   2467
   3148   2703   2549
   3203   2782   2628
   3258   2863   2711
   3308   2939   2789
   3356   2996   2865
   3403   3051   2942
   3445   3103   3006
   2840   2306   2148
   2864   2335   2176
   2896   2374   2216
   2939   2427   2270
   2985   2485   2329
   3038   2554   2398
   3091   2625   2469
   3149   2704   2550
   3203   2782   2628
   3254   2856   2704
   3305   2933   2783
   3352   2990   2857
   3397   3045   2933
   3438   3096   2996
   3477   3142   3049
   3516   3190   3100
   3552   3235   3147
   3036   2553   2396
   3063   2587   2431
   3092   2626   2471
   3135   2685   2531
   3174   2740   2586
   3220   2806   2653
   3269   2880   2727
   3316   2947   2800
   3358   2999   2869
   3401   3050   2940
   3441   3098   2999
   3481   3146   3051
   3516   3190   3099
   3552   3235   3147
   3584   3275   3191
   3614   3316   3233
   3644   3353   3273
   37   0   0
   37   0   0
   49   0   0
   129   11   8
   269   62   37
   443   186   97
   623   345   201
   793   495   339
   945   629   469
   1090   757   594
   1226   877   712
   1354   989   824
   1473   1094   928
   1585   1193   1027
   1691   1286   1120
   1793   1375   1210
   1888   1459   1293
   66   1   1
   67   1   1
   141   13   10
   250   53   32
   398   149   79
   560   289   159
   724   434   282
   877   569   410
   1021   696   534
   1158   817   653
   1289   932   767
   1413   1041   876
   1526   1141   975
   1634   1235   1070
   1739   1328   1162
   1834   1412   1247
   1924   1491   1326
   196   30   20
   198   31   20
   289   74   43
   406   155   82
   543   274   148
   690   403   254
   834   531   374
   972   653   492
   1107   772   609
   1239   888   723
   1365   999   833
   1481   1101   935
   1590   1197   1032
   1694   1289   1123
   1794   1376   1211
   1887   1458   1293
   1973   1534   1370
   404   153   81
   405   154   82
   495   232   122
   597   322   183
   717   428   276
   842   537   380
   966   648   487
   1091   757   594
   1218   870   705
   1342   979   814
   1462   1084   918
   1570   1179   1014
   1675   1271   1106
   1772   1357   1191
   1866   1439   1274
   1952   1515   1350
   2039   1592   1428
   638   358   213
   640   359   214
   713   424   273
   800   500   345
   896   586   427
   1004   681   519
   1115   779   616
   1231   881   716
   1349   985   819
   1464   1085   920
   1573   1182   1017
   1676   1273   1107
   1774   1358   1193
   1864   1438   1273
   1951   1514   1350
   2038   1591   1427
   2125   1668   1505
   862   556   397
   864   557   399
   924   610   450
   994   672   510
   1079   747   584
   1175   832   668
   1279   923   758
   1387   1018   853
   1493   1111   946
   1597   1203   1037
   1698   1292   1127
   1793   1375   1210
   1882   1454   1289
   1967   1529   1364
   2049   1601   1436
   2136   1678   1515
   2226   1757   1594
   1072   741   578
   1073   742   579
   1128   790   627
   1193   847   683
   1271   916   751
   1356   991   825
   1449   1072   907
   1545   1157   992
   1642   1242   1077
   1737   1327   1161
   1830   1408   1243
   1914   1482   1317
   1999   1556   1392
   2081   1629   1465
   2167   1706   1542
   2254   1782   1619
   2351   1868   1705
   1282   926   761
   1285   928   763
   1335   972   807
   1391   1021   856
   1461   1084   918
   1540   1153   987
   1622   1225   1060
   1709   1301   1136
   1797   1379   1213
   1882   1454   1289
   1964   1526   1361
   2046   1599   1434
   2129   1671   1508
   2212   1745   1582
   2303   1825   1662
   2396   1907   1745
   2488   1987   1825
   1485   1104   939
   1492   1111   945
   1534   1147   982
   1585   1193   1027
   1647   1247   1081
   1718   1310   1144
   1793   1376   1210
   1869   1442   1277
   1945   1510   1346
   2025   1580   1416
   2110   1655   1491
   2194   1728   1565
   2279   1803   1640
   2366   1880   1718
   2457   1960   1798
   2551   2042   1882
   2647   2127   1967
   1676   1273   1107
   1687   1283   1117
   1724   1315   1149
   1772   1357   1192
   1827   1406   1240
   1888   1460   1295
   1955   1519   1353
   2028   1583   1418
   2104   1649   1486
   2187   1723   1560
   2273   1798   1635
   2360   1875   1713
   2449   1953   1791
   2538   2031   1870
   2630   2112   1953
   2724   2195   2035
   2822   2286   2126
   1857   1432   1266
   1869   1442   1277
   1903   1473   1307
   1946   1510   1345
   1995   1553   1389
   2055   1606   1442
   2121   1665   1501
   2199   1733   1570
   2278   1803   1640
   2364   1878   1716
   2452   1955   1794
   2541   2034   1873
   2631   2113   1954
   2725   2195   2036
   2816   2280   2121
   2890   2365   2208
   2961   2455   2298
   2023   1578   1413
   2039   1592   1428
   2072   1622   1458
   2116   1660   1496
   2170   1708   1545
   2234   1764   1601
   2307   1828   1665
   2385   1897   1735
   2469   1971   1809
   2555   2046   1885
   2646   2125   1966
   2741   2209   2050
   2827   2291   2133
   2897   2374   2216
   2966   2461   2304
   3033   2548   2392
   3103   2641   2486
   2201   1735   1572
   2225   1755   1592
   2264   1790   1628
   2310   1831   1668
   2369   1883   1721
   2436   1943   1781
   2510   2007   1845
   2593   2079   1919
   2680   2156   1996
   2770   2237   2077
   2848   2316   2158
   2918   2401   2243
   2986   2487   2330
   3051   2572   2417
   3118   2662   2507
   3179   2747   2593
   3237   2830   2677
   2411   1919   1758
   2439   1945   1783
   2478   1978   1817
   2532   2026   1865
   2592   2078   1918
   2663   2141   1982
   2741   2209   2050
   2821   2284   2126
   2889   2364   2206
   2956   2448   2292
   3022   2533   2377
   3087   2619   2464
   3148   2702   2548
   3206   2785   2631
   3259   2864   2712
   3312   2945   2795
   3362   3003   2875
   2641   2123   1963
   2672   2149   1990
   2723   2194   2035
   2772   2237   2078
   2833   2298   2139
   2889   2364   2206
   2947   2437   2279
   3011   2517   2362
   3071   2598   2442
   3135   2684   2530
   3191   2764   2610
   3243   2841   2689
   3297   2922   2771
   3346   2984   2848
   3392   3037   2922
   3436   3092   2992
   3477   3142   3049
   2877   2350   2193
   2902   2382   2223
   2939   2427   2270
   2980   2480   2323
   3030   2544   2387
   3083   2614   2458
   3136   2686   2532
   3193   2766   2612
   3244   2843   2690
   3295   2919   2768
   3343   2980   2843
   3389   3034   2919
   3430   3086   2986
   3470   3134   3039
   3509   3182   3091
   3546   3227   3139
   3582   3273   3188
   3069   2594   2438
   3097   2632   2478
   3136   2685   2531
   3171   2736   2582
   3217   2801   2648
   3261   2866   2713
   3307   2937   2787
   3351   2990   2856
   3397   3044   2933
   3437   3093   2994
   3476   3141   3046
   3513   3187   3095
   3548   3230   3141
   3582   3272   3188
   3610   3310   3227
   3641   3349   3269
   3669   3386   3310
   83   3   2
   84   3   3
   167   20   14
   279   68   40
   427   172   90
   587   313   176
   747   454   301
   897   587   427
   1038   711   549
   1176   832   668
   1305   946   781
   1428   1054   889
   1540   1153   987
   1646   1246   1081
   1750   1337   1172
   1847   1423   1258
   1935   1500   1336
   198   30   20
   199   31   20
   291   75   44
   407   156   83
   544   275   149
   691   404   254
   836   533   375
   973   654   492
   1108   773   609
   1240   889   724
   1365   999   834
   1482   1101   936
   1591   1198   1033
   1695   1290   1124
   1795   1377   1211
   1888   1459   1293
   1974   1535   1371
   353   115   63
   354   116   64
   446   189   99
   552   282   154
   676   392   243
   807   507   350
   933   618   458
   1063   733   570
   1190   845   681
   1317   957   792
   1437   1062   897
   1549   1161   995
   1653   1253   1087
   1753   1340   1175
   1848   1424   1259
   1935   1500   1335
   2023   1578   1414
   552   281   153
   553   282   154
   631   352   208
   725   435   283
   830   527   370
   941   625   465
   1056   727   565
   1178   834   670
   1299   941   776
   1417   1045   880
   1528   1143   977
   1634   1236   1071
   1735   1325   1159
   1830   1408   1242
   1917   1485   1320
   2004   1562   1397
   2087   1635   1471
   761   466   312
   763   468   314
   828   525   369
   904   592   433
   994   672   510
   1092   759   595
   1200   854   689
   1311   952   787
   1425   1051   886
   1535   1148   983
   1638   1239   1073
   1737   1326   1160
   1831   1409   1244
   1916   1484   1319
   2003   1560   1396
   2086   1634   1470
   2177   1714   1551
   959   642   481
   962   644   483
   1019   694   532
   1087   754   591
   1166   824   660
   1260   906   742
   1356   991   826
   1460   1083   917
   1562   1172   1006
   1662   1260   1094
   1759   1346   1180
   1850   1425   1260
   1933   1499   1335
   2017   1573   1409
   2103   1649   1485
   2191   1726   1562
   2282   1807   1644
   1159   817   653
   1161   819   655
   1213   865   701
   1276   920   755
   1351   987   821
   1433   1059   894
   1521   1136   970
   1612   1217   1051
   1707   1300   1134
   1800   1382   1216
   1885   1457   1292
   1969   1530   1366
   2052   1604   1440
   2136   1678   1514
   2224   1755   1592
   2315   1836   1673
   2410   1919   1757
   1360   994   829
   1365   999   834
   1410   1039   873
   1466   1088   923
   1533   1147   981
   1608   1213   1048
   1687   1283   1117
   1773   1357   1192
   1858   1433   1267
   1938   1503   1338
   2019   1575   1410
   2100   1647   1483
   2187   1722   1559
   2275   1800   1637
   2365   1879   1717
   2457   1960   1798
   2551   2042   1882
   1553   1164   999
   1561   1172   1006
   1602   1207   1042
   1652   1252   1086
   1713   1305   1139
   1780   1364   1199
   1853   1428   1263
   1926   1492   1327
   2002   1560   1396
   2082   1630   1466
   2167   1705   1542
   2254   1781   1618
   2341   1859   1696
   2431   1938   1776
   2523   2018   1857
   2618   2101   1941
   2717   2187   2029
   1741   1330   1163
   1752   1339   1174
   1788   1371   1205
   1833   1410   1245
   1885   1458   1292
   1947   1511   1346
   2012   1569   1404
   2087   1634   1471
   2164   1702   1539
   2249   1777   1615
   2336   1854   1691
   2425   1932   1770
   2515   2011   1849
   2607   2092   1932
   2701   2175   2015
   2795   2259   2100
   2876   2350   2191
   1913   1480   1316
   1927   1494   1328
   1959   1522   1357
   2001   1559   1395
   2055   1606   1442
   2114   1659   1495
   2184   1721   1557
   2263   1790   1627
   2344   1861   1699
   2432   1938   1776
   2520   2015   1854
   2612   2096   1936
   2702   2176   2016
   2795   2259   2100
   2873   2346   2188
   2946   2435   2278
   3015   2524   2368
   2078   1627   1463
   2100   1646   1482
   2132   1674   1511
   2180   1716   1553
   2235   1765   1602
   2301   1824   1660
   2377   1889   1727
   2455   1959   1797
   2542   2034   1873
   2628   2110   1951
   2721   2192   2032
   2811   2275   2117
   2885   2360   2202
   2955   2447   2290
   3023   2534   2378
   3090   2624   2469
   3155   2712   2558
   2265   1791   1628
   2293   1815   1652
   2326   1845   1683
   2380   1892   1730
   2438   1944   1782
   2508   2005   1843
   2583   2071   1911
   2667   2144   1985
   2755   2222   2063
   2840   2306   2148
   2908   2388   2230
   2976   2474   2316
   3044   2562   2405
   3108   2648   2494
   3170   2735   2581
   3229   2819   2666
   3284   2901   2749
   2477   1978   1816
   2506   2004   1842
   2549   2041   1881
   2603   2088   1928
   2665   2143   1983
   2741   2209   2050
   2817   2281   2122
   2881   2355   2198
   2948   2438   2281
   3016   2525   2369
   3079   2609   2453
   3142   2695   2541
   3198   2775   2621
   3255   2857   2705
   3307   2936   2787
   3358   2999   2869
   3406   3055   2948
   2717   2188   2030
   2747   2214   2055
   2796   2258   2100
   2844   2311   2153
   2894   2372   2214
   2947   2437   2279
   3008   2515   2359
   3068   2593   2438
   3132   2680   2526
   3187   2759   2605
   3242   2839   2687
   3294   2917   2767
   3346   2983   2848
   3391   3037   2922
   3435   3091   2992
   3475   3140   3044
   3516   3190   3099
   2931   2417   2260
   2961   2455   2298
   2998   2501   2345
   3038   2554   2398
   3087   2620   2465
   3141   2693   2538
   3193   2766   2612
   3245   2843   2691
   3295   2919   2768
   3345   2983   2847
   3391   3037   2921
   3433   3087   2989
   3472   3136   3040
   3510   3182   3091
   3546   3227   3139
   3582   3273   3188
   3612   3312   3230
   3126   2672   2517
   3149   2705   2551
   3186   2756   2602
   3226   2813   2661
   3268   2879   2727
   3311   2943   2794
   3355   2995   2863
   3400   3048   2937
   3439   3096   2997
   3478   3143   3049
   3516   3190   3099
   3552   3235   3147
   3584   3275   3190
   3615   3316   3233
   3644   3353   3273
   3672   3390   3313
   3698   3424   3349
   252   54   33
   253   55   33
   350   113   62
   464   204   107
   597   322   183
   738   447   294
   877   568   410
   1010   687   525
   1142   803   639
   1274   919   754
   1397   1027   861
   1512   1128   963
   1619   1222   1057
   1724   1315   1149
   1819   1398   1233
   1910   1479   1314
   1997   1556   1392
   386   139   75
   388   140   75
   478   217   113
   584   310   174
   704   416   265
   830   527   370
   956   638   478
   1083   751   587
   1211   863   698
   1337   974   809
   1454   1076   911
   1565   1175   1010
   1670   1267   1101
   1769   1354   1188
   1862   1436   1271
   1951   1514   1350
