Resources/LUT/Sepia.3dl
# 17x17x17 .3dl lookup table from LUT Buddy
0 128 256 384 512 640 768 896 1023
   37   0   0
   42   0   0
   250   53   32
   605   329   188
   931   617   457
   1212   864   700
   1460   1082   917
   1677   1274   1108
   1875   1447   1282
   165   20   13
   254   55   33
   509   244   129
   807   507   351
   1083   750   587
   1342   978   813
   1569   1178   1013
   1773   1358   1193
   1954   1517   1352
   597   321   182
   672   388   240
   861   554   396
   1081   749   586
   1318   957   792
   1544   1156   991
   1746   1334   1169
   1926   1492   1327
   2093   1640   1476
   1033   707   545
   1088   754   592
   1228   878   713
   1410   1038   873
   1604   1209   1044
   1796   1378   1212
   1964   1526   1361
   2131   1674   1510
   2306   1827   1665
   1445   1069   903
   1491   1110   944
   1604   1209   1044
   1749   1338   1172
   1907   1476   1311
   2066   1616   1452
   2231   1761   1598
   2407   1916   1754
   2590   2076   1916
   1819   1399   1233
   1861   1436   1270
   1951   1515   1350
   2074   1623   1459
   2224   1755   1592
   2390   1902   1739
   2564   2055   1894
   2752   2220   2060
   2917   2399   2242
   2155   1695   1532
   2208   1741   1577
   2307   1828   1666
   2446   1950   1788
   2616   2100   1940
   2796   2261   2101
   2939   2427   2269
   3075   2603   2447
   3197   2773   2620
   2586   2074   1913
   2665   2144   1984
   2780   2244   2085
   2901   2379   2222
   3025   2537   2381
   3148   2703   2549
   3258   2863   2711
   3356   2996   2865
   3445   3103   3006
   3036   2553   2396
   3092   2626   2471
   3174   2740   2586
   3269   2880   2727
   3358   2999   2869
   3441   3098   2999
   3516   3190   3099
   3584   3275   3191
   3644   3353   3273
   83   3   2
   167   20   14
   427   172   90
   747   454   301
   1038   711   549
   1305   946   781
   1540   1153   987
   1750   1337   1172
   1935   1500   1336
   353   115   63
   446   189   99
   676   392   243
   933   618   458
   1190   845   681
   1437   1062   897
   1653   1253   1087
   1848   1424   1259
   2023   1578   1414
   761   466   312
   828   525   369
   994   672   510
   1200   854   689
   1425   1051   886
   1638   1239   1073
   1831   1409   1244
   2003   1560   1396
   2177   1714   1551
   1159   817   653
   1213   865   701
   1351   987   821
   1521   1136   970
   1707   1300   1134
   1885   1457   1292
   2052   1604   1440
   2224   1755   1592
   2410   1919   1757
   1553   1164   999
   1602   1207   1042
   1713   1305   1139
   1853   1428   1263
   2002   1560   1396
   2167   1705   1542
   2341   1859   1696
   2523   2018   1857
   2717   2187   2029
   1913   1480   1316
   1959   1522   1357
   2055   1606   1442
   2184   1721   1557
   2344   1861   1699
   2520   2015   1854
   2702   2176   2016
   2873   2346   2188
   3015   2524   2368
   2265   1791   1628
   2326   1845   1683
   2438   1944   1782
   2583   2071   1911
   2755   2222   2063
   2908   2388   2230
   3044   2562   2405
   3170   2735   2581
   3284   2901   2749
   2717   2188   2030
   2796   2258   2100
   2894   2372   2214
   3008   2515   2359
   3132   2680   2526
   3242   2839   2687
   3346   2983   2848
   3435   3091   2992
   3516   3190   3099
   3126   2672   2517
   3186   2756   2602
   3268   2879   2727
   3355   2995   2863
   3439   3096   2997
   3516   3190   3099
   3584   3275   3190
   3644   3353   3273
   3698   3424   3349
   483   221   116
   571   299   165
   783   486   331
   1020   695   533
   1267   913   748
   1503   1121   955
   1712   1304   1139
   1899   1469   1304
   2071   1621   1457
   733   442   289
   802   502   346
   971   652   491
   1181   837   673
   1408   1037   871
   1624   1227   1061
   1820   1400   1234
   1992   1551   1387
   2170   1708   1545
   1038   712   549
   1095   761   598
   1238   887   722
   1422   1048   883
   1619   1222   1057
   1810   1391   1226
   1982   1542   1377
   2153   1692   1529
   2337   1854   1692
   1385   1017   851
   1439   1064   898
   1558   1169   1003
   1712   1304   1139
   1878   1450   1285
   2040   1594   1429
   2211   1744   1581
   2391   1902   1741
   2583   2071   1911
   1738   1327   1162
   1787   1370   1205
   1884   1456   1291
   2012   1569   1404
   2168   1706   1543
   2339   1857   1694
   2519   2015   1854
   2709   2181   2022
   2881   2355   2198
   2066   1616   1452
   2120   1664   1501
   2224   1756   1593
   2363   1878   1715
   2529   2024   1862
   2713   2185   2025
   2879   2353   2195
   3020   2530   2373
   3157   2715   2561
   2437   1943   1781
   2511   2007   1846
   2632   2113   1953
   2784   2250   2091
   2924   2408   2251
   3060   2584   2428
   3185   2755   2601
   3296   2919   2769
   3396   3044   2932
   2886   2360   2203
   2952   2443   2286
   3047   2566   2410
   3157   2716   2562
   3266   2875   2722
   3365   3007   2880
   3452   3111   3014
   3531   3209   3119
   3602   3298   3215
   3253   2855   2703
   3315   2946   2799
   3386   3032   2915
   3464   3127   3030
   3538   3218   3128
   3604   3302   3219
   3663   3378   3301
   3715   3446   3375
   3762   3509   3442
   936   621   461
   993   671   510
   1143   803   640
   1335   973   808
   1543   1156   990
   1744   1333   1167
   1924   1491   1326
   2092   1638   1474
   2277   1802   1640
   1107   772   609
   1160   819   655
   1299   941   776
   1477   1097   932
   1666   1264   1098
   1853   1428   1263
   2020   1575   1411
   2194   1729   1565
   2383   1895   1732
   1357   992   826
   1406   1035   870
   1528   1143   977
   1684   1279   1114
   1852   1427   1262
   2019   1574   1410
   2189   1724   1561
   2367   1881   1719
   2559   2050   1889
   1653   1252   1087
   1698   1292   1127
   1804   1385   1220
   1934   1500   1334
   2088   1635   1471
   2255   1783   1620
   2437   1943   1781
   2622   2105   1945
   2814   2279   2120
   1954   1517   1353
   2000   1558   1394
   2098   1644   1480
   2231   1761   1598
   2392   1904   1741
   2574   2063   1903
   2764   2230   2071
   2919   2401   2244
   3063   2587   2431
   2283   1808   1644
   2344   1861   1698
   2458   1961   1799
   2601   2086   1926
   2777   2243   2085
   2929   2414   2256
   3066   2590   2435
   3193   2767   2614
   3307   2936   2788
   2673   2151   1991
   2760   2226   2067
   2867   2338   2180
   2986   2486   2329
   3113   2656   2501
   3229   2820   2667
   3338   2974   2836
   3432   3086   2987
   3515   3190   3098
   3071   2599   2443
   3136   2685   2531
   3223   2810   2657
   3318   2949   2804
   3410   3060   2954
   3492   3161   3068
   3566   3253   3166
   3632   3337   3257
   3689   3413   3337
   3393   3039   2926
   3448   3107   3009
   3511   3182   3091
   3578   3269   3184
   3640   3347   3268
   3694   3418   3345
   3742   3483   3414
   3785   3541   3476
   3824   3593   3534
   1339   976   810
   1385   1016   851
   1505   1121   956
   1660   1259   1093
   1831   1409   1243
   1997   1555   1391
   2167   1705   1542
   2347   1863   1700
   2535   2028   1867
   1479   1099   934
   1522   1137   971
   1632   1234   1069
   1778   1362   1197
   1934   1500   1335
   2099   1646   1482
   2275   1800   1637
   2456   1959   1797
   2652   2132   1972
   1681   1277   1111
   1724   1314   1149
   1824   1403   1237
   1953   1516   1352
   2103   1649   1485
   2272   1798   1634
   2453   1957   1796
   2643   2123   1964
   2835   2300   2142
   1925   1492   1327
   1965   1528   1363
   2058   1609   1445
   2187   1723   1560
   2350   1866   1704
   2531   2025   1864
   2717   2189   2029
   2886   2362   2203
   3034   2548   2392
   2205   1737   1575
   2257   1785   1622
   2364   1879   1717
   2508   2004   1843
   2679   2155   1995
   2854   2324   2165
   2995   2499   2342
   3131   2678   2524
   3254   2857   2705
   2553   2044   1883
   2628   2110   1950
   2748   2215   2056
   2879   2354   2196
   3012   2520   2364
   3142   2695   2542
   3259   2865   2712
   3365   3007   2880
   3458   3118   3023
   2929   2414   2257
   2995   2498   2341
   3087   2620   2465
   3193   2768   2614
   3300   2924   2777
   3399   3047   2935
   3485   3152   3058
   3562   3248   3160
   3631   3336   3254
   3259   2865   2712
   3320   2953   2807
   3393   3040   2925
   3469   3133   3037
   3546   3229   3141
   3614   3314   3232
   3672   3391   3315
   3725   3459   3389
   3772   3522   3456
   3527   3204   3114
   3577   3267   3181
   3629   3334   3254
   3683   3404   3328
   3734   3471   3401
   3777   3529   3465
   3816   3582   3521
   3850   3630   3574
   3880   3672   3619
   1714   1306   1140
   1750   1338   1172
   1846   1422   1257
   1969   1531   1366
   2119   1663   1499
   2288   1812   1650
   2471   1973   1811
   2661   2139   1979
   2844   2310   2152
   1827   1405   1240
   1860   1435   1270
   1947   1512   1347
   2072   1622   1457
   2225   1756   1593
   2399   1909   1747
   2581   2069   1909
   2776   2241   2082
   2933   2420   2262
   1988   1547   1383
   2024   1579   1415
   2115   1660   1496
   2244   1772   1609
   2407   1916   1754
   2588   2075   1915
   2775   2241   2082
   2932   2418   2261
   3075   2603   2448
   2215   1748   1584
   2260   1787   1624
   2363   1877   1715
   2500   1998   1837
   2670   2147   1987
   2847   2315   2156
   2991   2493   2336
   3127   2673   2519
   3248   2847   2695
   2514   2010   1849
   2572   2061   1900
   2687   2162   2002
   2830   2297   2138
   2965   2460   2304
   3099   2636   2482
   3222   2810   2657
   3332   2966   2826
   3429   3083   2981
   2864   2335   2176
   2926   2411   2253
   3015   2524   2368
   3124   2671   2516
   3237   2832   2679
   3344   2980   2846
   3437   3093   2993
   3520   3195   3104
   3594   3289   3205
   3164   2726   2572
   3223   2810   2656
   3299   2924   2775
   3387   3033   2916
   3473   3137   3042
   3551   3233   3145
   3617   3319   3237
   3677   3396   3321
   3731   3467   3397
   3435   3091   2992
   3483   3149   3055
   3544   3226   3138
   3606   3304   3221
   3665   3381   3304
   3719   3452   3380
   3766   3515   3448
   3806   3570   3508
   3843   3620   3562
   3647   3358   3280
   3687   3410   3335
   3731   3469   3399
   3776   3528   3462
   3814   3580   3519
   3848   3628   3571
   3880   3671   3618
   3906   3709   3659
   3932   3746   3698
   2054   1606   1442
   2082   1630   1466
   2173   1710   1547
   2299   1822   1659
   2459   1962   1800
   2641   2121   1962
   2826   2290   2131
   2967   2462   2306
   3112   2653   2498
   2152   1692   1529
   2186   1722   1559
   2277   1802   1639
   2411   1920   1758
   2573   2061   1901
   2758   2224   2066
   2915   2397   2240
   3053   2573   2417
   3188   2760   2606
   2318   1837   1675
   2358   1873   1711
   2458   1961   1799
   2597   2082   1922
   2768   2235   2075
   2919   2402   2244
   3058   2581   2425
   3187   2758   2605
   3303   2932   2781
   2561   2051   1891
   2611   2096   1935
   2722   2193   2034
   2854   2324   2165
   2984   2484   2326
   3116   2660   2505
   3237   2831   2678
   3347   2985   2850
   3443   3100   3002
   2861   2331   2173
   2909   2390   2232
   2997   2501   2344
   3104   2644   2488
   3218   2804   2650
   3326   2960   2817
   3422   3075   2972
   3506   3178   3085
   3582   3274   3189
   3129   2676   2521
   3180   2748   2595
   3258   2864   2711
   3346   2984   2849
   3434   3090   2990
   3517   3191   3099
   3590   3284   3199
   3653   3365   3287
   3710   3439   3367
   3374   3018   2895
   3420   3072   2968
   3482   3149   3054
   3552   3234   3147
   3617   3319   3237
   3675   3394   3318
   3728   3463   3393
   3774   3526   3462
   3816   3582   3521
   3586   3278   3193
   3624   3328   3247
   3672   3390   3314
   3722   3456   3385
   3767   3517   3450
   3808   3571   3509
   3843   3620   3562
   3874   3663   3609
   3903   3703   3652
   3751   3495   3427
   3782   3537   3472
   3818   3586   3525
   3852   3632   3575
   3881   3674   3620
   3907   3711   3660
   3933   3747   3701
   3956   3780   3735
   3978   3811   3770
   2429   1934   1773
   2462   1965   1803
   2556   2046   1886
   2692   2167   2007
   2847   2314   2155
   2988   2488   2332
   3120   2664   2510
   3240   2836   2684
   3350   2988   2853
   2529   2024   1863
   2568   2057   1896
   2667   2145   1985
   2806   2269   2110
   2936   2423   2265
   3067   2592   2437
   3194   2769   2615
   3305   2934   2784
   3407   3057   2949
   2710   2182   2024
   2753   2221   2062
   2847   2315   2156
   2955   2446   2289
   3077   2606   2451
   3199   2775   2621
   3311   2941   2793
   3408   3059   2952
   3496   3165   3073
   2923   2407   2250
   2964   2459   2302
   3044   2562   2406
   3146   2700   2546
   3253   2854   2702
   3355   2994   2863
   3446   3103   3006
   3529   3207   3116
   3601   3298   3215
   3147   2702   2547
   3190   2763   2609
   3261   2868   2715
   3346   2984   2849
   3433   3088   2988
   3514   3188   3097
   3586   3278   3194
   3650   3361   3282
   3707   3435   3362
   3363   3005   2878
   3404   3053   2944
   3463   3125   3028
   3530   3207   3118
   3599   3295   3211
   3660   3373   3296
   3713   3443   3371
   3761   3508   3441
   3803   3565   3504
   3550   3233   3145
   3586   3278   3192
   3634   3339   3259
   3685   3407   3332
   3735   3473   3404
   3779   3532   3467
   3817   3585   3526
   3853   3634   3578
   3884   3678   3625
   3708   3436   3363
   3738   3477   3408
   3776   3527   3462
   3813   3579   3519
   3848   3627   3571
   3878   3670   3616
   3906   3709   3658
   3931   3744   3696
   3953   3777   3733
   3833   3606   3547
   3859   3643   3587
   3886   3681   3628
   3913   3719   3669
   3937   3753   3706
   3959   3785   3741
   3979   3814   3771
   3999   3841   3803
   4017   3868   3829
   2851   2320   2161
   2875   2346   2189
   2950   2440   2282
   3048   2567   2411
   3161   2721   2567
   3271   2882   2729
   3373   3016   2893
   3462   3123   3026
   3545   3224   3136
   2925   2410   2253
   2953   2444   2288
   3028   2540   2383
   3126   2673   2518
   3233   2825   2672
   3335   2971   2831
   3428   3083   2983
   3512   3185   3093
   3586   3279   3195
   3052   2572   2417
   3087   2620   2464
   3157   2716   2562
   3246   2844   2691
   3341   2978   2840
   3432   3087   2988
   3513   3187   3096
   3586   3279   3194
   3650   3361   3282
   3220   2806   2653
   3253   2855   2702
   3317   2949   2802
   3392   3038   2924
   3469   3133   3038
   3548   3230   3141
   3614   3315   3232
   3675   3393   3318
   3728   3464   3394
   3388   3033   2918
   3421   3074   2970
   3476   3141   3046
   3540   3220   3131
   3604   3301   3218
   3664   3378   3301
   3718   3450   3378
   3765   3513   3446
   3805   3568   3506
   3552   3234   3147
   3580   3269   3185
   3625   3329   3247
   3675   3393   3317
   3725   3460   3389
   3771   3520   3455
   3810   3576   3514
   3846   3625   3569
   3877   3669   3615
   3688   3410   3335
   3713   3444   3372
   3751   3495   3427
   3790   3547   3483
   3827   3598   3539
   3861   3644   3588
   3889   3684   3632
   3916   3721   3672
   3941   3759   3711
   3807   3570   3509
   3828   3599   3541
   3857   3640   3583
   3885   3679   3626
   3911   3716   3667
   3935   3750   3704
   3959   3783   3739
   3979   3813   3771
   3999   3841   3803
   3900   3698   3647
   3920   3729   3680
   3943   3763   3716
   3965   3792   3749
   3985   3820   3779
   4003   3848   3809
   4020   3871   3835
   4035   3894   3858
   4041   3904   3869
