Resources/LUT/Sepia.3dl
# 17x17x17 .3dl lookup table from LUT Buddy
0 256 512 768 1023
   37   0   0
   250   53   32
   931   617   457
   1460   1082   917
   1875   1447   1282
   597   321   182
   861   554   396
   1318   957   792
   1746   1334   1169
   2093   1640   1476
   1445   1069   903
   1604   1209   1044
   1907   1476   1311
   2231   1761   1598
   2590   2076   1916
   2155   1695   1532
   2307   1828   1666
   2616   2100   1940
   2939   2427   2269
   3197   2773   2620
   3036   2553   2396
   3174   2740   2586
   3358   2999   2869
   3516   3190   3099
   3644   3353   3273
   483   221   116
   783   486   331
   1267   913   748
   1712   1304   1139
   2071   1621   1457
   1038   712   549
   1238   887   722
   1619   1222   1057
   1982   1542   1377
   2337   1854   1692
   1738   1327   1162
   1884   1456   1291
   2168   1706   1543
   2519   2015   1854
   2881   2355   2198
   2437   1943   1781
   2632   2113   1953
   2924   2408   2251
   3185   2755   2601
   3396   3044   2932
   3253   2855   2703
   3386   3032   2915
   3538   3218   3128
   3663   3378   3301
   3762   3509   3442
   1339   976   810
   1505   1121   956
   1831   1409   1243
   2167   1705   1542
   2535   2028   1867
   1681   1277   1111
   1824   1403   1237
   2103   1649   1485
   2453   1957   1796
   2835   2300   2142
   2205   1737   1575
   2364   1879   1717
   2679   2155   1995
   2995   2499   2342
   3254   2857   2705
   2929   2414   2257
   3087   2620   2465
   3300   2924   2777
   3485   3152   3058
   3631   3336   3254
   3527   3204   3114
   3629   3334   3254
   3734   3471   3401
   3816   3582   3521
   3880   3672   3619
   2054   1606   1442
   2173   1710   1547
   2459   1962   1800
   2826   2290   2131
   3112   2653   2498
   2318   1837   1675
   2458   1961   1799
   2768   2235   2075
   3058   2581   2425
   3303   2932   2781
   2861   2331   2173
   2997   2501   2344
   3218   2804   2650
   3422   3075   2972
   3582   3274   3189
   3374   3018   2895
   3482   3149   3054
   3617   3319   3237
   3728   3463   3393
   3816   3582   3521
   3751   3495   3427
   3818   3586   3525
   3881   3674   3620
   3933   3747   3701
   3978   3811   3770
   2851   2320   2161
   2950   2440   2282
   3161   2721   2567
   3373   3016   2893
   3545   3224   3136
   3052   2572   2417
   3157   2716   2562
   3341   2978   2840
   3513   3187   3096
   3650   3361   3282
   3388   3033   2918
   3476   3141   3046
   3604   3301   3218
   3718   3450   3378
   3805   3568   3506
   3688   3410   3335
   3751   3495   3427
   3827   3598   3539
   3889   3684   3632
   3941   3759   3711
   3900   3698   3647
   3943   3763   3716
   3985   3820   3779
   4020   3871   3835
   4041   3904   3869
