Resources/LUT/Soft Faded.3dl
# 17x17x17 .3dl lookup table from LUT Buddy
   0   64   128   192   256   320   384   448   512   576   640   704   768   832   896   960   1023
   0   0   0
   0   0   112
   0   0   759
   0   0   1101
   0   0   1398
   0   0   1663
   0   0   1906
   0   0   2129
   0   0   2338
   0   0   2532
   0   0   2707
   0   0   2869
   0   8   3021
   0   13   3164
   0   18   3298
   0   25   3427
   0   29   3553
   0   667   0
   0   667   0
   0   667   739
   0   667   1085
   0   666   1383
   0   666   1649
   0   666   1892
   0   666   2117
   0   666   2327
   0   666   2520
   0   666   2696
   0   666   2858
   0   666   3011
   0   666   3154
   0   666   3290
   0   666   3420
   0   666   3544
   0   984   0
   0   984   0
   0   984   726
   0   983   1074
   0   983   1372
   0   983   1639
   0   983   1884
   0   983   2109
   0   983   2318
   0   982   2513
   0   982   2689
   0   982   2852
   0   982   3005
   0   982   3148
   0   981   3282
   0   981   3412
   0   981   3536
   0   1269   0
   0   1269   0
   0   1268   720
   0   1268   1068
   0   1268   1367
   0   1267   1634
   0   1267   1878
   0   1267   2103
   0   1267   2312
   0   1266   2506
   0   1266   2684
   0   1266   2848
   0   1265   2999
   0   1265   3142
   0   1265   3278
   0   1264   3406
   0   1264   3531
   0   1534   0
   0   1533   0
   0   1533   719
   0   1533   1066
   0   1532   1365
   0   1532   1633
   0   1531   1876
   0   1531   2101
   0   1530   2310
   0   1530   2504
   0   1529   2682
   0   1528   2846
   0   1528   2998
   0   1527   3140
   0   1527   3274
   0   1526   3403
   0   1525   3527
   0   1782   0
   0   1781   0
   0   1780   723
   0   1780   1071
   0   1779   1368
   0   1779   1635
   0   1778   1879
   0   1777   2103
   0   1777   2312
   0   1776   2506
   0   1775   2682
   0   1774   2846
   0   1773   2996
   0   1773   3140
   0   1772   3274
   0   1771   3403
   0   1770   3526
   0   2017   0
   0   2016   0
   0   2015   735
   0   2015   1080
   0   2014   1377
   0   2013   1642
   0   2012   1886
   0   2011   2108
   0   2010   2316
   0   2009   2509
   0   2008   2686
   0   2007   2848
   0   2006   2999
   0   2005   3141
   0   2004   3274
   0   2003   3403
   0   2001   3527
   0   2239   0
   0   2238   60
   0   2237   753
   0   2237   1095
   0   2235   1390
   0   2234   1654
   0   2233   1896
   0   2232   2118
   0   2231   2325
   0   2230   2517
   0   2228   2692
   0   2227   2853
   0   2225   3004
   0   2224   3145
   0   2223   3279
   0   2221   3405
   0   2219   3527
   0   2453   0
   0   2451   225
   0   2450   778
   0   2449   1116
   0   2447   1408
   0   2446   1671
   0   2445   1911
   0   2443   2132
   0   2441   2337
   0   2440   2529
   0   2439   2702
   0   2437   2861
   0   2435   3011
   0   2433   3151
   0   2431   3284
   0   2431   3411
   0   2427   3532
   0   2655   0
   0   2654   327
   0   2652   811
   0   2651   1144
   0   2649   1433
   0   2648   1693
   0   2647   1931
   0   2645   2150
   0   2643   2354
   0   2640   2543
   0   2639   2715
   0   2636   2874
   0   2636   3022
   0   2633   3161
   0   2631   3292
   0   2628   3418
   0   2625   3539
   0   2847   0
   0   2845   414
   0   2843   852
   0   2843   1179
   0   2841   1465
   0   2839   1722
   0   2837   1957
   0   2834   2174
   0   2833   2376
   0   2831   2562
   0   2828   2733
   0   2827   2889
   0   2823   3036
   42   2822   3175
   146   2818   3304
   230   2817   3429
   287   2813   3549
   0   3029   0
   0   3028   504
   0   3026   902
   0   3023   1222
   0   3021   1502
   0   3019   1756
   0   3017   1989
   0   3014   2202
   0   3011   2402
   30   3010   2587
   113   3007   2754
   209   3003   2909
   273   3003   3054
   322   2999   3191
   362   2995   3320
   397   2993   3443
   428   2989   3561
   0   3206   0
   0   3203   582
   0   3202   961
   0   3199   1273
   0   3197   1548
   23   3194   1798
   72   3191   2027
   182   3188   2238
   254   3186   2434
   306   3182   2615
   348   3178   2780
   385   3176   2933
   418   3172   3075
   447   3170   3209
   475   3166   3337
   501   3162   3460
   525   3158   3576
   20   3384   0
   98   3382   668
   177   3378   1028
   232   3374   1332
   274   3372   1602
   310   3368   1847
   340   3365   2072
   370   3361   2280
   405   3359   2473
   436   3353   2649
   465   3351   2812
   491   3347   2961
   516   3343   3102
   539   3338   3235
   562   3335   3360
   586   3330   3480
   610   3325   3596
   317   3559   25
   347   3555   762
   373   3551   1106
   397   3547   1401
   420   3545   1664
   442   3540   1904
   462   3536   2123
   481   3533   2328
   505   3528   2518
   529   3524   2689
   552   3519   2847
   576   3514   2994
   600   3510   3133
   624   3504   3262
   649   3500   3386
   673   3495   3504
   699   3490   3620
   446   3728   440
   466   3724   867
   485   3720   1194
   503   3716   1480
   520   3711   1736
   537   3707   1970
   553   3703   2184
   570   3698   2384
   588   3692   2567
   612   3687   2736
   637   3683   2890
   662   3677   3033
   688   3672   3168
   713   3666   3296
   739   3660   3418
   766   3654   3534
   794   3648   3646
   541   3893   603
   557   3888   982
   573   3883   1294
   590   3878   1569
   607   3874   1817
   624   3868   2044
   642   3864   2254
   659   3858   2448
   677   3852   2625
   701   3847   2788
   727   3841   2938
   754   3835   3078
   781   3827   3208
   809   3821   3335
   837   3813   3453
   865   3807   3567
   895   3799   3677
   162   0   0
   172   0   0
   182   0   748
   192   0   1092
   200   0   1389
   209   0   1655
   219   0   1898
   229   0   2122
   236   0   2332
   245   7   2526
   254   12   2702
   262   17   2864
   270   22   3016
   280   28   3158
   289   32   3294
   296   38   3423
   305   44   3547
   211   667   0
   220   667   0
   228   667   732
   237   666   1079
   247   666   1377
   254   666   1643
   263   666   1888
   271   666   2112
   279   666   2322
   287   666   2514
   296   666   2692
   304   666   2856
   312   666   3007
   320   667   3150
   328   667   3286
   337   666   3414
   346   667   3540
   254   984   0
   262   984   0
   270   983   722
   279   983   1070
   285   983   1368
   294   983   1636
   302   983   1880
   309   983   2105
   318   983   2315
   326   983   2508
   335   982   2685
   343   982   2848
   350   982   3001
   359   982   3144
   367   982   3280
   375   982   3408
   387   982   3533
   292   1269   0
   300   1268   0
   309   1268   717
   316   1267   1065
   324   1267   1365
   331   1267   1632
   339   1267   1876
   347   1267   2100
   355   1267   2310
   363   1266   2504
   371   1266   2682
   381   1266   2845
   393   1265   2997
   403   1265   3140
   414   1265   3274
   425   1264   3404
   434   1264   3528
   328   1533   0
   336   1533   0
   344   1532   719
   351   1532   1067
   359   1532   1365
   367   1532   1632
   375   1531   1876
   386   1530   2099
   398   1530   2309
   408   1530   2504
   418   1528   2680
   428   1528   2844
   438   1528   2995
   448   1527   3138
   457   1526   3273
   467   1526   3402
   477   1525   3526
   361   1781   0
   371   1780   0
   379   1780   726
   391   1779   1073
   401   1779   1370
   411   1778   1636
   422   1778   1880
   431   1777   2103
   440   1776   2312
   450   1775   2505
   460   1775   2682
   470   1774   2844
   479   1773   2996
   489   1772   3138
   498   1771   3273
   507   1770   3400
   516   1769   3523
   404   2016   0
   414   2015   0
   423   2015   739
   433   2014   1084
   443   2013   1380
   452   2012   1644
   461   2011   1887
   471   2010   2109
   480   2009   2318
   490   2008   2511
   499   2007   2686
   508   2006   2848
   518   2005   2998
   527   2004   3140
   537   2003   3274
   547   2002   3401
   556   2000   3525
   444   2238   0
   453   2237   128
   463   2237   760
   471   2235   1101
   481   2234   1395
   490   2233   1658
   499   2232   1900
   509   2231   2120
   518   2230   2328
   528   2228   2519
   537   2227   2692
   547   2226   2855
   557   2224   3004
   567   2223   3145
   577   2221   3279
   588   2220   3405
   599   2218   3527
   481   2451   0
   490   2451   263
   499   2449   788
   508   2447   1125
   517   2446   1415
   527   2445   1677
   536   2443   1916
   546   2442   2136
   556   2441   2341
   566   2439   2532
   576   2438   2704
   587   2436   2863
   598   2434   3012
   609   2431   3152
   621   2431   3285
   633   2429   3411
   645   2426   3532
   516   2654   0
   525   2652   357
   534   2651   823
   544   2649   1155
   554   2648   1442
   564   2647   1701
   575   2645   1938
   585   2643   2156
   596   2641   2360
   607   2639   2547
   619   2637   2719
   630   2636   2877
   643   2633   3024
   655   2631   3163
   668   2629   3294
   681   2626   3419
   695   2624   3539
   552   2845   0
   561   2844   445
   572   2843   868
   582   2841   1191
   593   2839   1475
   604   2837   1731
   616   2835   1966
   627   2833   2182
   639   2831   2383
   652   2829   2568
   665   2827   2737
   677   2824   2893
   691   2822   3039
   705   2819   3176
   719   2817   3306
   733   2813   3431
   748   2812   3549
   589   3028   0
   600   3026   529
   611   3023   920
   624   3021   1237
   635   3020   1516
   647   3017   1768
   660   3015   1999
   673   3011   2212
   687   3011   2411
   700   3007   2593
   714   3004   2759
   728   3003   2914
   743   2999   3058
   759   2997   3193
   774   2993   3321
   790   2991   3445
   807   2987   3563
   630   3203   0
   642   3202   609
   654   3199   981
   667   3197   1291
   680   3194   1563
   694   3191   1811
   708   3188   2038
   722   3186   2249
   737   3183   2445
   753   3180   2624
   768   3177   2788
   784   3173   2939
   800   3170   3080
   818   3166   3215
   835   3162   3342
   852   3160   3463
   870   3155   3580
   674   3382   0
   687   3378   697
   701   3374   1051
   715   3372   1353
   731   3368   1619
   745   3366   1863
   761   3362   2086
   777   3359   2293
   793   3355   2485
   810   3351   2660
   827   3347   2820
   845   3343   2968
   862   3339   3107
   881   3335   3239
   900   3330   3364
   919   3325   3484
   940   3323   3600
   722   3555   247
   737   3551   794
   752   3547   1133
   768   3545   1424
   784   3539   1685
   801   3537   1923
   818   3533   2141
   836   3528   2343
   854   3524   2532
   872   3519   2701
   891   3515   2858
   911   3511   3004
   930   3505   3140
   951   3500   3268
   972   3496   3392
   993   3491   3510
   1014   3484   3622
   774   3724   497
   791   3720   902
   808   3716   1224
   825   3711   1506
   844   3707   1759
   862   3703   1992
   881   3698   2203
   900   3693   2401
   920   3688   2583
   940   3683   2750
   961   3677   2900
   982   3672   3044
   1004   3666   3177
   1026   3660   3304
   1049   3654   3424
   1073   3648   3540
   1095   3642   3652
   832   3887   650
   850   3882   1020
   869   3878   1328
   888   3874   1599
   908   3868   1844
   929   3862   2068
   949   3858   2276
   970   3852   2468
   993   3846   2642
   1015   3841   2803
   1037   3835   2951
   1060   3828   3090
   1085   3821   3221
   1109   3813   3343
   1134   3807   3463
   1160   3800   3575
   1186   3793   3683
   706   0   0
   708   0   0
   709   0   739
   711   0   1085
   713   0   1382
   715   0   1648
   717   5   1892
   719   10   2116
   721   17   2326
   724   21   2520
   726   24   2695
   729   30   2858
   731   36   3011
   734   41   3154
   737   45   3289
   740   52   3419
   744   58   3542
   715   666   0
   717   666   0
   719   667   726
   721   667   1073
   724   666   1372
   726   666   1638
   728   667   1883
   731   667   2107
   733   667   2317
   736   667   2511
   739   667   2688
   743   667   2850
   746   667   3003
   749   667   3147
   753   668   3282
   756   667   3411
   761   668   3534
   725   984   0
   727   983   0
   730   983   718
   733   983   1066
   736   983   1365
   738   983   1632
   741   983   1877
   744   983   2101
   748   983   2311
   751   983   2505
   755   983   2682
   758   983   2846
   762   982   2998
   766   982   3142
   770   982   3276
   775   982   3404
   779   982   3528
   737   1268   0
   740   1268   0
   743   1268   716
   746   1268   1064
   749   1267   1363
   753   1267   1630
   757   1267   1874
   760   1267   2098
   764   1267   2308
   768   1266   2502
   772   1266   2680
   777   1266   2842
   781   1266   2995
   786   1265   3137
   791   1265   3272
   796   1265   3402
   801   1264   3526
   751   1533   0
   754   1533   0
   758   1532   719
   762   1532   1067
   766   1532   1365
   769   1531   1632
   774   1531   1875
   778   1530   2099
   783   1530   2308
   787   1529   2502
   792   1528   2680
   797   1528   2842
   803   1528   2993
   808   1527   3136
   814   1526   3270
   820   1526   3398
   826   1525   3522
   767   1780   0
   771   1780   0
   775   1780   729
   779   1779   1075
   784   1778   1372
   788   1778   1638
   793   1777   1881
   799   1776   2104
   804   1776   2312
   809   1775   2505
   815   1775   2681
   821   1774   2844
   827   1773   2995
   833   1772   3136
   840   1771   3271
   847   1770   3398
   854   1769   3521
   784   2015   0
   789   2015   0
   794   2014   745
   799   2013   1088
   804   2012   1383
   810   2012   1648
   815   2011   1890
   821   2010   2112
   827   2009   2319
   833   2008   2512
   840   2007   2686
   847   2006   2848
   854   2004   2998
   862   2004   3140
   869   2003   3273
   877   2001   3401
   885   2000   3523
   804   2237   0
   809   2237   180
   815   2235   768
   821   2235   1107
   827   2233   1400
   833   2232   1663
   840   2232   1903
   847   2230   2124
   854   2228   2331
   861   2228   2521
   868   2226   2694
   876   2225   2856
   884   2223   3006
   893   2222   3145
   902   2220   3278
   911   2218   3403
   920   2218   3527
   826   2450   0
   832   2449   295
   839   2447   799
   846   2447   1133
   853   2445   1423
   860   2445   1684
   867   2443   1922
   875   2441   2141
   883   2439   2345
   891   2439   2534
   900   2437   2706
   909   2435   2867
   918   2433   3014
   927   2431   3153
   937   2429   3285
   948   2427   3410
   958   2425   3532
   851   2653   0
   858   2651   382
   866   2649   837
   873   2648   1165
   881   2648   1451
   889   2646   1709
   898   2643   1946
   907   2642   2162
   916   2640   2365
   925   2637   2551
   935   2636   2723
   945   2635   2879
   955   2632   3026
   966   2630   3164
   977   2627   3295
   989   2624   3420
   1001   2624   3539
   878   2844   0
   886   2843   474
   895   2841   883
   904   2839   1205
   912   2837   1487
   922   2835   1741
   932   2833   1974
   941   2832   2190
   952   2829   2390
   962   2827   2575
   973   2825   2742
   985   2823   2898
   996   2820   3043
   1008   2817   3179
   1020   2815   3308
   1033   2813   3432
   1046   2810   3551
   908   3026   0
   918   3024   553
   927   3021   938
   937   3021   1252
   947   3018   1529
   958   3015   1780
   969   3013   2010
   980   3011   2222
   992   3008   2419
   1003   3005   2600
   1016   3003   2766
   1028   3001   2919
   1041   2997   3062
   1054   2993   3197
   1068   2991   3325
   1083   2987   3447
   1097   2984   3564
   942   3202   0
   953   3200   636
   963   3197   1002
   975   3194   1309
   986   3192   1580
   998   3189   1826
   1010   3186   2052
   1022   3183   2261
   1035   3180   2455
   1048   3178   2632
   1062   3174   2794
   1076   3170   2946
   1090   3168   3086
   1106   3163   3219
   1121   3160   3344
   1137   3156   3466
   1154   3152   3581
   979   3378   0
   991   3374   727
   1003   3372   1076
   1015   3368   1374
   1028   3366   1639
   1041   3362   1880
   1055   3360   2101
   1069   3355   2306
   1083   3352   2496
   1098   3348   2669
   1114   3345   2829
   1130   3339   2976
   1146   3336   3115
   1163   3331   3245
   1180   3327   3370
   1197   3323   3488
   1216   3318   3602
   1019   3553   354
   1033   3548   827
   1046   3545   1161
   1061   3541   1448
   1075   3537   1707
   1090   3533   1942
   1105   3529   2158
   1121   3524   2359
   1137   3521   2544
   1154   3516   2713
   1171   3512   2868
   1188   3506   3012
   1206   3502   3148
   1225   3497   3276
   1244   3490   3398
   1264   3485   3516
   1284   3481   3626
   1066   3720   547
   1080   3716   938
   1095   3712   1256
   1111   3708   1534
   1127   3704   1785
   1144   3698   2013
   1160   3693   2224
   1178   3689   2419
   1196   3684   2599
   1215   3678   2762
   1234   3672   2913
   1253   3666   3053
   1274   3662   3186
   1294   3656   3312
   1315   3650   3431
   1337   3644   3545
   1359   3636   3658
   1116   3883   701
   1132   3878   1060
   1149   3874   1362
   1166   3868   1629
   1185   3864   1872
   1203   3858   2093
   1222   3852   2298
   1242   3846   2489
   1262   3840   2661
   1283   3835   2819
   1303   3829   2965
   1325   3821   3104
   1347   3815   3231
   1370   3807   3353
   1394   3800   3469
   1418   3793   3581
   1442   3786   3691
   1003   0   0
   1005   0   0
   1006   0   731
   1008   0   1078
   1009   6   1376
   1010   12   1643
   1012   20   1887
   1014   24   2111
   1016   27   2320
   1018   35   2514
   1020   39   2692
   1022   44   2854
   1024   50   3006
   1027   54   3150
   1029   60   3284
   1032   64   3414
   1034   72   3538
   1010   667   0
   1011   666   0
   1013   667   720
   1015   667   1069
   1016   667   1368
   1019   667   1635
   1020   668   1878
   1023   667   2103
   1025   668   2313
   1028   668   2507
   1031   668   2684
   1033   668   2848
   1036   668   2999
   1039   669   3142
   1042   669   3278
   1046   669   3406
