Resources/LUT/Soft Faded.3dl
# 17x17x17 .3dl lookup table from LUT Buddy
0 256 512 768 1023
   0   0   0
   0   0   1398
   0   0   2338
   0   8   3021
   0   29   3553
   0   1534   0
   0   1532   1365
   0   1530   2310
   0   1528   2998
   0   1525   3527
   0   2453   0
   0   2447   1408
   0   2441   2337
   0   2435   3011
   0   2427   3532
   0   3206   0
   0   3197   1548
   254   3186   2434
   418   3172   3075
   525   3158   3576
   541   3893   603
   607   3874   1817
   677   3852   2625
   781   3827   3208
   895   3799   3677
   1262   0   0
   1266   20   1371
   1273   41   2316
   1280   63   3002
   1290   86   3533
   1293   1533   0
   1305   1532   1367
   1319   1530   2307
   1336   1528   2989
   1356   1526   3517
   1351   2449   0
   1374   2445   1438
   1400   2439   2353
   1430   2431   3017
   1465   2423   3530
   1445   3198   0
   1484   3188   1613
   1527   3177   2475
   1577   3162   3096
   1633   3146   3585
   1592   3875   802
   1654   3854   1931
   1724   3830   2698
   1803   3803   3254
   1891   3772   3703
   2105   67   0
   2109   87   1356
   2115   105   2300
   2121   125   2988
   2129   151   3517
   2127   1537   0
   2137   1537   1375
   2149   1536   2308
   2164   1534   2985
   2181   1532   3507
   2168   2452   0
   2188   2447   1473
   2210   2441   2371
   2237   2433   3022
   2268   2425   3525
   2237   3198   285
   2271   3186   1684
   2310   3173   2518
   2355   3159   3118
   2406   3141   3589
   2352   3865   1010
   2409   3841   2055
   2473   3813   2775
   2546   3781   3300
   2629   3745   3725
   2797   147   0
   2800   169   1347
   2805   190   2289
   2811   207   2972
   2818   221   3499
   2807   1549   0
   2817   1549   1384
   2828   1548   2307
   2842   1547   2978
   2858   1545   3493
   2834   2461   0
   2851   2456   1507
   2872   2451   2387
   2897   2445   3023
   2926   2435   3515
   2882   3205   556
   2911   3193   1759
   2948   3178   2560
   2990   3162   3136
   3037   3145   3589
   2966   3859   1235
   3019   3834   2199
   3080   3800   2867
   3151   3763   3353
   3232   3719   3748
   3401   243   0
   3401   260   1339
   3406   278   2276
   3411   293   2957
   3417   307   3479
   3399   1569   0
   3407   1570   1392
   3416   1571   2304
   3427   1572   2964
   3443   1571   3471
   3405   2481   61
   3420   2477   1541
   3438   2472   2400
   3461   2466   3020
   3486   2458   3498
   3424   3222   843
   3451   3210   1841
   3483   3195   2605
   3521   3179   3153
   3565   3159   3582
   3471   3865   1549
   3519   3830   2378
   3575   3791   2983
   3642   3741   3427
   3725   3669   3781
