Resources/LUT/Soft Faded.3dl
# 17x17x17 .3dl lookup table from LUT Buddy
0 128 256 384 512 640 768 896 1023
   0   0   0
   0   0   759
   0   0   1398
   0   0   1906
   0   0   2338
   0   0   2707
   0   8   3021
   0   18   3298
   0   29   3553
   0   984   0
   0   984   726
   0   983   1372
   0   983   1884
   0   983   2318
   0   982   2689
   0   982   3005
   0   981   3282
   0   981   3536
   0   1534   0
   0   1533   719
   0   1532   1365
   0   1531   1876
   0   1530   2310
   0   1529   2682
   0   1528   2998
   0   1527   3274
   0   1525   3527
   0   2017   0
   0   2015   735
   0   2014   1377
   0   2012   1886
   0   2010   2316
   0   2008   2686
   0   2006   2999
   0   2004   3274
   0   2001   3527
   0   2453   0
   0   2450   778
   0   2447   1408
   0   2445   1911
   0   2441   2337
   0   2439   2702
   0   2435   3011
   0   2431   3284
   0   2427   3532
   0   2847   0
   0   2843   852
   0   2841   1465
   0   2837   1957
   0   2833   2376
   0   2828   2733
   0   2823   3036
   146   2818   3304
   287   2813   3549
   0   3206   0
   0   3202   961
   0   3197   1548
   72   3191   2027
   254   3186   2434
   348   3178   2780
   418   3172   3075
   475   3166   3337
   525   3158   3576
   317   3559   25
   373   3551   1106
   420   3545   1664
   462   3536   2123
   505   3528   2518
   552   3519   2847
   600   3510   3133
   649   3500   3386
   699   3490   3620
   541   3893   603
   573   3883   1294
   607   3874   1817
   642   3864   2254
   677   3852   2625
   727   3841   2938
   781   3827   3208
   837   3813   3453
   895   3799   3677
   706   0   0
   709   0   739
   713   0   1382
   717   5   1892
   721   17   2326
   726   24   2695
   731   36   3011
   737   45   3289
   744   58   3542
   725   984   0
   730   983   718
   736   983   1365
   741   983   1877
   748   983   2311
   755   983   2682
   762   982   2998
   770   982   3276
   779   982   3528
   751   1533   0
   758   1532   719
   766   1532   1365
   774   1531   1875
   783   1530   2308
   792   1528   2680
   803   1528   2993
   814   1526   3270
   826   1525   3522
   784   2015   0
   794   2014   745
   804   2012   1383
   815   2011   1890
   827   2009   2319
   840   2007   2686
   854   2004   2998
   869   2003   3273
   885   2000   3523
   826   2450   0
   839   2447   799
   853   2445   1423
   867   2443   1922
   883   2439   2345
   900   2437   2706
   918   2433   3014
   937   2429   3285
   958   2425   3532
   878   2844   0
   895   2841   883
   912   2837   1487
   932   2833   1974
   952   2829   2390
   973   2825   2742
   996   2820   3043
   1020   2815   3308
   1046   2810   3551
   942   3202   0
   963   3197   1002
   986   3192   1580
   1010   3186   2052
   1035   3180   2455
   1062   3174   2794
   1090   3168   3086
   1121   3160   3344
   1154   3152   3581
   1019   3553   354
   1046   3545   1161
   1075   3537   1707
   1105   3529   2158
   1137   3521   2544
   1171   3512   2868
   1206   3502   3148
   1244   3490   3398
   1284   3481   3626
   1116   3883   701
   1149   3874   1362
   1185   3864   1872
   1222   3852   2298
   1262   3840   2661
   1303   3829   2965
   1347   3815   3231
   1394   3800   3469
   1442   3786   3691
   1262   0   0
   1264   11   725
   1266   20   1371
   1269   29   1882
   1273   41   2316
   1276   53   2687
   1280   63   3002
   1285   75   3281
   1290   86   3533
   1275   984   0
   1278   984   713
   1282   984   1361
   1287   984   1872
   1292   985   2306
   1298   984   2677
   1304   984   2991
   1311   984   3270
   1318   984   3522
   1293   1533   0
   1299   1533   723
   1305   1532   1367
   1312   1531   1876
   1319   1530   2307
   1327   1530   2677
   1336   1528   2989
   1345   1527   3266
   1356   1526   3517
   1318   2015   0
   1327   2014   758
   1335   2012   1392
   1344   2010   1895
   1355   2009   2323
   1366   2007   2688
   1378   2004   2998
   1391   2002   3271
   1404   1999   3519
   1351   2449   0
   1362   2447   821
   1374   2445   1438
   1386   2441   1933
   1400   2439   2353
   1415   2435   2712
   1430   2431   3017
   1447   2428   3285
   1465   2423   3530
   1393   2843   0
   1407   2839   915
   1423   2835   1511
   1439   2832   1993
   1457   2827   2404
   1475   2823   2751
   1496   2817   3049
   1517   2812   3312
   1540   2807   3551
   1445   3198   0
   1464   3194   1046
   1484   3188   1613
   1504   3183   2078
   1527   3177   2475
   1551   3170   2810
   1577   3162   3096
   1604   3155   3351
   1633   3146   3585
   1510   3547   487
   1534   3539   1217
   1559   3531   1751
   1586   3523   2194
   1614   3514   2572
   1645   3504   2889
   1677   3494   3164
   1712   3484   3408
   1748   3471   3634
   1592   3875   802
   1622   3866   1434
   1654   3854   1931
   1688   3843   2346
   1724   3830   2698
   1762   3817   2994
   1803   3803   3254
   1845   3788   3487
   1891   3772   3703
   1712   31   0
   1714   42   714
   1716   51   1362
   1718   58   1873
   1721   71   2308
   1725   82   2679
   1729   93   2995
   1733   104   3273
   1738   118   3526
   1722   986   0
   1725   987   711
   1729   987   1358
   1733   987   1868
   1738   987   2302
   1743   988   2672
   1749   988   2988
   1755   988   3264
   1762   987   3517
   1737   1534   0
   1743   1534   729
   1748   1534   1370
   1754   1533   1878
   1761   1532   2307
   1768   1532   2675
   1777   1531   2988
   1786   1529   3262
   1796   1528   3513
   1759   2016   0
   1766   2015   772
   1774   2013   1401
   1782   2012   1902
   1792   2010   2327
   1802   2008   2690
   1813   2006   2998
   1825   2004   3269
   1838   2000   3517
   1786   2450   0
   1797   2447   844
   1806   2445   1455
   1818   2441   1946
   1831   2439   2362
   1845   2435   2717
   1859   2431   3019
   1875   2428   3285
   1892   2423   3528
   1822   2843   0
   1835   2839   949
   1849   2835   1536
   1864   2831   2012
   1881   2826   2418
   1899   2822   2761
   1918   2817   3055
   1938   2810   3314
   1959   2805   3551
   1867   3198   21
   1884   3193   1091
   1902   3186   1648
   1922   3180   2105
   1944   3174   2496
   1966   3168   2823
   1990   3160   3107
   2015   3152   3358
   2042   3144   3589
   1924   3544   583
   1946   3536   1277
   1969   3527   1798
   1994   3518   2232
   2022   3509   2601
   2049   3498   2911
   2080   3488   3180
   2112   3476   3421
   2147   3464   3640
   1997   3869   904
   2024   3859   1510
   2054   3848   1992
   2086   3834   2395
   2119   3821   2736
   2156   3807   3025
   2196   3792   3276
   2236   3775   3504
   2280   3758   3713
   2105   67   0
   2107   77   708
   2109   87   1356
   2111   95   1867
   2115   105   2300
   2117   113   2671
   2121   125   2988
   2125   137   3265
   2129   151   3517
   2113   990   0
   2117   990   711
   2121   991   1357
   2124   991   1866
   2129   991   2298
   2133   992   2668
   2139   992   2982
   2145   992   3257
   2152   992   3508
   2127   1537   0
   2131   1537   736
   2137   1537   1375
   2143   1536   1880
   2149   1536   2308
   2156   1535   2674
   2164   1534   2985
   2172   1533   3257
   2181   1532   3507
   2145   2018   0
   2151   2017   788
   2159   2016   1412
   2167   2014   1909
   2176   2013   2331
   2186   2010   2691
   2196   2009   2997
   2207   2006   3266
   2220   2004   3512
   2168   2452   0
   2177   2449   868
   2188   2447   1473
   2198   2444   1958
   2210   2441   2371
   2223   2437   2722
   2237   2433   3022
   2252   2429   3285
   2268   2425   3525
   2198   2843   0
   2211   2841   984
   2225   2836   1561
   2239   2833   2031
   2255   2827   2433
   2271   2822   2771
   2289   2817   3061
   2309   2812   3317
   2329   2805   3551
   2237   3198   285
   2254   3193   1138
   2271   3186   1684
   2290   3180   2134
   2310   3173   2518
   2333   3166   2840
   2355   3159   3118
   2380   3150   3365
   2406   3141   3589
   2288   3542   674
   2308   3533   1338
   2332   3524   1846
   2356   3515   2270
   2382   3505   2630
   2409   3496   2933
   2438   3484   3196
   2470   3470   3431
   2503   3458   3647
   2352   3865   1010
   2380   3854   1590
   2409   3841   2055
   2440   3828   2448
   2473   3813   2775
   2508   3798   3055
   2546   3781   3300
   2586   3764   3522
   2629   3745   3725
   2466   105   0
   2466   115   703
   2468   125   1351
   2471   134   1862
   2473   142   2295
   2476   150   2666
   2480   161   2980
   2484   173   3257
   2488   187   3509
   2472   994   0
   2474   995   713
   2478   996   1357
   2482   997   1865
   2486   998   2295
   2490   998   2664
   2495   998   2976
   2501   999   3251
   2508   999   3501
   2482   1542   0
   2486   1542   745
   2491   1542   1379
   2496   1541   1882
   2503   1540   2308
   2509   1540   2672
   2516   1539   2980
   2525   1538   3253
   2534   1537   3499
   2496   2023   0
   2502   2022   804
   2510   2020   1422
   2517   2019   1916
   2525   2018   2335
   2534   2015   2692
   2545   2013   2996
   2556   2011   3263
   2568   2008   3506
   2514   2455   0
   2524   2453   893
   2534   2451   1490
   2544   2447   1971
   2555   2445   2379
   2568   2441   2727
   2582   2437   3022
   2596   2433   3283
   2610   2429   3520
   2540   2847   0
   2552   2843   1019
   2564   2839   1587
   2578   2834   2051
   2594   2830   2447
   2609   2825   2781
   2628   2820   3065
   2646   2813   3319
   2666   2807   3549
   2574   3200   433
   2589   3194   1187
   2605   3188   1721
   2623   3182   2161
   2643   3175   2539
   2664   3168   2855
   2687   3160   3128
   2711   3152   3369
   2737   3142   3591
   2617   3543   765
   2637   3533   1403
   2658   3524   1898
   2682   3515   2310
   2707   3504   2661
   2734   3492   2955
   2762   3482   3211
   2792   3468   3441
   2825   3454   3651
   2674   3861   1119
   2701   3850   1675
   2729   3836   2124
   2759   3822   2504
   2791   3806   2820
   2826   3790   3089
   2863   3772   3326
   2902   3753   3538
   2946   3733   3736
   2797   147   0
   2798   158   699
   2800   169   1347
   2803   180   1857
   2805   190   2289
   2807   198   2660
   2811   207   2972
   2815   213   3249
   2818   221   3499
   2801   1002   0
   2805   1003   715
   2805   1004   1357
   2810   1005   1863
   2815   1006   2292
   2818   1007   2660
   2824   1007   2970
   2829   1008   3244
   2835   1008   3493
   2807   1549   0
   2813   1549   753
   2817   1549   1384
   2823   1549   1884
   2828   1548   2307
   2835   1548   2669
   2842   1547   2978
   2849   1546   3247
   2858   1545   3493
   2819   2028   0
   2825   2027   820
   2832   2026   1433
   2839   2025   1923
   2847   2024   2338
   2856   2022   2692
   2866   2020   2994
   2877   2018   3258
   2888   2015   3499
   2834   2461   0
   2843   2459   918
   2851   2456   1507
   2862   2453   1983
   2872   2451   2387
   2885   2447   2731
   2897   2445   3023
   2912   2440   3281
   2926   2435   3515
   2854   2853   53
   2865   2849   1055
   2877   2844   1614
   2890   2840   2071
   2905   2835   2461
   2920   2830   2789
   2937   2825   3070
   2956   2818   3319
   2974   2812   3545
   2882   3205   556
   2896   3198   1236
   2911   3193   1759
   2929   3186   2192
   2948   3178   2560
   2968   3170   2870
   2990   3162   3136
   3013   3154   3373
   3037   3145   3589
   2917   3545   858
   2937   3537   1470
   2957   3525   1952
   2980   3517   2354
   3004   3504   2693
   3031   3494   2979
   3058   3482   3227
   3086   3468   3451
   3120   3452   3655
   2966   3859   1235
   2991   3848   1766
   3019   3834   2199
   3048   3818   2564
   3080   3800   2867
   3114   3783   3126
   3151   3763   3353
   3191   3743   3557
   3232   3719   3748
   3108   195   0
   3108   206   696
   3110   217   1343
   3112   225   1852
   3114   234   2282
   3116   243   2653
   3120   250   2966
   3122   256   3241
   3128   262   3491
   3110   1011   0
   3112   1012   717
   3114   1014   1357
   3117   1014   1861
   3122   1016   2288
   3126   1017   2655
   3130   1018   2964
   3136   1019   3235
   3142   1019   3483
   3114   1557   0
   3116   1557   762
   3121   1558   1389
   3126   1558   1886
   3132   1558   2306
   3138   1558   2667
   3145   1557   2970
   3152   1557   3241
   3161   1556   3483
   3120   2037   0
   3125   2035   835
   3132   2035   1442
   3139   2033   1928
   3146   2033   2340
   3155   2031   2692
   3164   2029   2990
   3174   2027   3252
   3185   2026   3490
   3131   2470   0
   3138   2468   943
   3146   2466   1525
   3155   2463   1996
   3166   2461   2394
   3177   2457   2734
   3190   2453   3022
   3202   2449   3277
   3218   2445   3508
   3144   2861   405
   3154   2856   1092
   3165   2853   1641
   3178   2848   2090
   3192   2843   2474
   3207   2838   2797
   3222   2832   3072
   3240   2827   3317
   3260   2821   3539
   3164   3211   696
   3178   3206   1288
   3192   3200   1799
   3209   3193   2222
   3228   3186   2583
   3246   3178   2884
   3268   3169   3145
   3290   3161   3377
   3313   3151   3587
   3192   3551   992
   3210   3541   1542
   3230   3531   2009
   3251   3522   2400
   3275   3509   2728
   3300   3497   3005
   3327   3484   3247
   3355   3470   3460
   3387   3454   3659
   3231   3861   1361
   3255   3848   1867
   3281   3832   2282
   3311   3815   2631
   3341   3796   2920
   3375   3776   3167
   3410   3754   3386
   3450   3731   3583
   3491   3701   3762
   3401   243   0
   3401   252   692
   3401   260   1339
   3403   270   1846
   3406   278   2276
   3409   285   2644
   3411   293   2957
   3415   300   3231
   3417   307   3479
   3399   1022   0
   3401   1024   718
   3403   1026   1355
   3407   1027   1858
   3409   1029   2284
   3413   1030   2648
   3417   1032   2956
   3423   1033   3227
   3429   1034   3471
   3399   1569   0
   3401   1569   769
   3407   1570   1392
   3411   1571   1886
   3416   1571   2304
   3422   1572   2661
   3427   1572   2964
   3435   1571   3231
   3443   1571   3471
   3401   2048   0
   3405   2047   850
   3411   2047   1451
   3417   2046   1933
   3425   2045   2341
   3433   2044   2690
   3441   2043   2985
   3451   2041   3245
   3462   2039   3479
   3405   2481   61
   3412   2479   968
   3420   2477   1541
   3430   2475   2006
   3438   2472   2400
   3449   2469   2735
   3461   2466   3020
   3473   2462   3271
   3486   2458   3498
   3412   2873   564
   3422   2867   1129
   3432   2863   1668
   3445   2859   2110
   3457   2855   2487
   3471   2850   2803
   3487   2844   3074
   3502   2838   3314
   3521   2832   3531
   3424   3222   843
   3437   3216   1343
   3451   3210   1841
   3466   3202   2255
   3483   3195   2605
   3502   3187   2900
   3521   3179   3153
   3541   3169   3379
   3565   3159   3582
   3444   3559   1162
   3459   3549   1621
   3477   3538   2071
   3498   3527   2450
   3519   3515   2765
   3544   3503   3032
   3569   3488   3264
   3597   3472   3472
   3627   3456   3661
   3471   3865   1549
   3493   3848   1983
   3519   3830   2378
   3546   3812   2709
   3575   3791   2983
   3607   3768   3221
   3642   3741   3427
   3682   3709   3614
   3725   3669   3781
