Resources/LUT/Sunset.3dl
# 17x17x17 .3dl lookup table from LUT Buddy
0 256 512 768 1023
   134   0   0
   139   0   124
   152   0   606
   156   0   1679
   135   0   2573
   87   373   0
   88   366   72
   97   336   531
   96   301   1567
   88   283   2468
   46   1647   0
   95   1614   0
   144   1608   408
   203   1561   1423
   223   1531   2313
   246   3025   0
   282   2996   0
   348   2978   351
   432   2962   1385
   494   2948   2235
   462   3751   0
   541   3726   0
   662   3711   486
   824   3695   1583
   1005   3671   2247
   1096   0   0
   1135   0   84
   1367   0   573
   1698   0   1612
   1698   0   2526
   1092   357   70
   1203   359   96
   1825   295   431
   1860   273   1480
   1825   265   2440
   1669   1625   0
   1983   1576   0
   2054   1508   326
   2056   1490   1310
   2062   1477   2244
   2135   2989   0
   2117   2991   0
   2223   2941   339
   2355   2919   1345
   2439   2906   2211
   2315   3708   0
   2365   3702   0
   2512   3673   520
   2674   3654   1627
   2819   3625   2284
   3439   0   0
   3456   0   4
   3481   0   419
   3571   0   1490
   3567   0   2476
   3246   445   75
   3393   385   63
   3592   240   330
   3576   252   1397
   3561   258   2421
   3367   1590   139
   3378   1589   189
   3376   1609   460
   3532   1521   1319
   3526   1530   2314
   3566   2981   0
   3543   2986   0
   3533   2980   402
   3564   2933   1546
   3598   2913   2260
   3564   3678   0
   3564   3686   2
   3515   3694   691
   3576   3681   1865
   3648   3653   2532
   4095   0   0
   4095   0   0
   4095   0   315
   4095   0   1315
   4095   0   2352
   4014   543   73
   4095   405   48
   4095   224   283
   4095   230   1262
   4095   243   2329
   3940   1771   219
   3933   1790   267
   4035   1710   448
   4095   1528   1244
   4095   1545   2285
   4070   2978   279
   4047   3005   429
   4030   3031   944
   3985   3054   1860
   4060   2999   2525
   4095   3648   0
   4095   3654   204
   4070   3696   942
   4017   3721   2244
   4095   3807   2975
   4095   0   0
   4095   0   0
   4095   0   278
   4095   0   1231
   4095   0   2269
   4095   620   75
   4095   450   48
   4095   238   267
   4095   242   1217
   4095   244   2263
   4095   1937   271
   4095   1957   328
   4095   1795   455
   4095   1580   1222
   4095   1569   2259
   4095   3065   487
   4095   3076   667
   4095   3123   1218
   4095   3142   2017
   4095   3188   2635
   4095   3615   496
   4095   3623   971
   4095   3664   1924
   4095   3841   2780
   4095   3933   3099
