Resources/LUT/Sunset.3dl
# 17x17x17 .3dl lookup table from LUT Buddy
   0   64   128   192   256   320   384   448   512   576   640   704   768   832   896   960   1023
   134   0   0
   134   0   0
   134   0   0
   135   0   55
   139   0   124
   144   0   199
   148   0   292
   150   0   425
   152   0   606
   153   0   835
   153   0   1101
   154   0   1384
   156   0   1679
   150   0   1970
   144   0   2227
   139   0   2432
   135   0   2573
   112   31   8
   112   32   8
   112   33   9
   131   25   48
   136   22   116
   141   19   189
   145   15   279
   148   12   409
   150   8   585
   151   7   809
   152   7   1068
   155   4   1345
   152   3   1654
   145   2   1949
   138   1   2198
   133   0   2407
   129   0   2550
   117   115   0
   116   116   0
   116   117   0
   120   112   35
   124   108   103
   129   102   174
   132   96   259
   135   90   383
   137   84   554
   137   78   773
   140   73   1024
   142   68   1295
   135   65   1610
   129   62   1905
   123   59   2162
   118   57   2372
   115   55   2513
   104   224   0
   104   224   0
   104   225   0
   109   219   18
   106   218   93
   112   211   166
   116   202   251
   119   193   374
   121   183   544
   121   174   759
   123   166   1006
   126   158   1277
   119   153   1589
   113   148   1887
   108   144   2141
   103   141   2350
   100   138   2492
   87   373   0
   87   373   0
   87   374   0
   91   368   5
   88   366   72
   87   366   153
   92   358   240
   95   347   363
   97   336   531
   98   325   745
   100   315   990
   102   308   1258
   96   301   1567
   90   296   1862
   84   291   2118
   85   287   2330
   88   283   2468
   63   583   0
   63   584   0
   64   584   0
   66   578   0
   63   575   49
   61   577   127
   61   577   226
   65   565   350
   67   552   517
   68   540   729
   80   526   969
   94   516   1236
   101   506   1537
   109   498   1832
   115   490   2084
   122   485   2292
   124   482   2434
   33   864   0
   33   866   0
   35   865   0
   36   857   0
   33   852   23
   37   854   97
   43   855   193
   56   853   328
   76   837   493
   96   821   698
   116   804   931
   128   792   1199
   135   781   1499
   142   772   1792
   148   762   2045
   153   756   2261
   155   753   2395
   13   1225   0
   21   1226   0
   35   1223   0
   48   1213   0
   54   1202   0
   65   1200   60
   76   1200   152
   87   1200   282
   103   1199   461
   128   1180   665
   151   1163   894
   160   1149   1168
   167   1136   1456
   175   1124   1746
   182   1113   2006
   183   1110   2224
   187   1104   2356
   46   1647   0
   54   1647   0
   74   1643   0
   90   1630   0
   95   1614   0
   107   1613   23
   119   1612   112
   132   1610   236
   144   1608   408
   163   1605   629
   187   1590   868
   195   1574   1136
   203   1561   1423
   213   1548   1710
   217   1539   1969
   219   1536   2189
   223   1531   2313
   88   2068   0
   98   2068   0
   126   2062   0
   141   2049   0
   148   2033   0
   158   2023   0
   171   2023   79
   184   2022   202
   198   2019   365
   212   2016   581
   227   2013   837
   239   2006   1114
   249   1994   1394
   259   1980   1681
   260   1978   1944
   262   1973   2162
   269   1965   2285
   145   2426   0
   161   2424   0
   174   2420   0
   181   2409   0
   188   2395   0
   199   2385   0
   213   2384   64
   229   2379   188
   244   2378   349
   259   2376   562
   276   2370   812
   292   2365   1093
   308   2359   1389
   314   2351   1680
   315   2352   1940
   319   2346   2147
   327   2341   2261
   197   2744   0
   209   2743   0
   221   2737   0
   230   2724   0
   239   2712   0
   250   2703   0
   266   2700   55
   282   2698   180
   300   2691   342
   316   2689   552
   335   2681   796
   355   2679   1071
   372   2675   1367
   379   2677   1678
   384   2678   1944
   391   2673   2145
   401   2667   2246
   246   3025   0
   253   3027   0
   264   3019   0
   274   3009   0
   282   2996   0
   293   2987   0
   311   2985   55
   329   2981   184
   348   2978   351
   368   2975   563
   389   2969   811
   410   2966   1082
   432   2962   1385
   454   2955   1678
   467   2956   1944
   479   2955   2155
   494   2948   2235
   285   3283   0
   294   3284   0
   304   3276   0
   315   3264   0
   328   3251   0
   340   3246   0
   360   3242   62
   381   3240   197
   403   3233   369
   426   3230   588
   450   3226   836
   476   3222   1117
   502   3218   1412
   528   3210   1699
   555   3204   1955
   578   3200   2146
   598   3190   2226
   332   3495   0
   343   3493   0
   356   3483   0
   368   3475   0
   383   3464   0
   400   3457   0
   423   3454   76
   445   3450   216
   471   3445   397
   498   3441   620
   526   3437   875
   554   3433   1160
   584   3427   1455
   617   3422   1743
   651   3415   1981
   683   3405   2159
   712   3397   2222
   392   3657   0
   403   3651   0
   420   3642   0
   436   3634   0
   453   3628   0
   473   3617   0
   500   3613   99
   526   3612   245
   556   3607   436
   588   3602   667
   620   3599   926
   657   3595   1214
   692   3590   1511
   729   3585   1791
   767   3579   2019
   806   3569   2177
   842   3558   2229
   462   3751   0
   482   3743   0
   501   3738   0
   518   3733   0
   541   3726   0
   565   3719   7
   598   3715   130
   630   3715   285
   662   3711   486
   700   3706   727
   739   3703   994
   781   3699   1288
   824   3695   1583
   870   3689   1858
   915   3683   2069
   963   3679   2200
   1005   3671   2247
   134   0   0
   134   0   0
   134   0   0
   135   0   55
   139   0   123
   144   0   198
   147   0   290
   150   0   423
   152   0   603
   153   0   831
   153   0   1095
   158   0   1378
   172   0   1673
   176   0   1964
   179   0   2219
   183   0   2428
   184   0   2569
   112   33   9
   111   34   9
   111   35   9
   131   27   47
   136   24   115
   141   21   188
   145   17   278
   148   14   408
   154   10   583
   166   6   807
   181   8   1061
   194   5   1341
   202   3   1647
   205   2   1941
   208   1   2191
   212   0   2402
   212   0   2546
   116   117   0
   116   118   0
   116   119   0
   120   114   34
   127   110   102
   138   104   173
   150   98   257
   163   91   381
   179   85   550
   195   78   765
   212   73   1012
   225   68   1288
   229   64   1602
   233   60   1896
   237   57   2150
   241   54   2366
   241   53   2510
   115   225   0
   120   226   0
   125   227   0
   137   220   17
   140   218   91
   154   210   162
   169   200   244
   186   190   365
   204   179   528
   224   169   736
   244   160   974
   255   152   1249
   260   147   1558
   265   142   1854
   270   137   2112
   273   134   2326
   273   133   2472
   130   374   0
   134   375   0
   141   374   0
   158   368   3
   160   361   68
   170   361   146
   190   352   230
   210   340   347
   232   327   507
   254   316   712
   277   305   945
   286   296   1223
   291   290   1524
   297   284   1819
   302   279   2074
   303   276   2295
   304   274   2446
   148   584   0
   153   585   0
   164   584   0
   184   576   0
   188   565   42
   196   565   116
   208   564   211
   234   552   328
   259   537   485
   285   522   685
   310   509   917
   317   499   1196
   323   490   1494
   331   483   1787
   336   476   2043
   335   474   2268
   338   471   2413
   171   863   0
   177   863   0
   191   861   0
   216   853   0
   222   838   14
   230   834   83
   241   834   175
   258   833   303
   288   818   461
   320   799   657
   343   785   890
   350   774   1164
   358   763   1456
   367   753   1751
   370   746   2015
   370   745   2235
   374   741   2377
   199   1221   0
   207   1221   0
   226   1217   0
   255   1205   0
   266   1189   0
   274   1177   47
   286   1178   135
   299   1179   261
   322   1173   432
   361   1158   627
   379   1141   864
   388   1127   1135
   399   1115   1420
   408   1103   1715
   408   1099   1984
   409   1097   2201
   415   1093   2333
   238   1643   0
   247   1642   0
   276   1636   0
   309   1622   0
   325   1603   0
   334   1589   11
   348   1585   96
   365   1582   217
   383   1581   380
   407   1577   596
   422   1567   842
   432   1551   1109
   445   1537   1388
   452   1530   1679
   452   1526   1954
   456   1521   2172
   463   1517   2301
   292   2059   0
   306   2058   0
   345   2053   0
   366   2038   0
   375   2023   0
   385   2007   0
   399   2000   70
   416   1998   192
   435   1996   352
   455   1993   563
   475   1991   814
   492   1983   1088
   506   1968   1366
   508   1966   1662
   511   1961   1928
   516   1960   2145
   525   1953   2265
   364   2418   0
   385   2414   0
   400   2410   0
   411   2399   0
   422   2383   0
   435   2370   0
   451   2360   57
   472   2359   179
   495   2356   338
   517   2351   547
   541   2348   793
   565   2341   1065
   581   2339   1364
   583   2340   1660
   587   2338   1926
   594   2334   2137
   608   2324   2249
   422   2735   0
   439   2731   0
   454   2727   0
   467   2714   0
   480   2701   0
   495   2689   0
   512   2679   49
   535   2679   175
   560   2676   335
   586   2670   542
   612   2664   786
   639   2661   1057
   661   2658   1359
   671   2667   1670
   679   2662   1932
   689   2661   2140
   706   2652   2235
   478   3014   0
   481   3024   0
   493   3014   0
   509   3003   0
   524   2992   0
   541   2981   0
   563   2972   52
   589   2968   182
   616   2966   348
   646   2959   560
   676   2955   805
   707   2953   1078
   737   2948   1379
   770   2942   1670
   786   2945   1939
   804   2945   2147
   825   2934   2232
   521   3272   0
   524   3278   0
   540   3269   0
   558   3259   0
   577   3249   0
   595   3239   0
   622   3230   62
   652   3226   196
   685   3224   368
   719   3218   584
   753   3214   834
   788   3210   1112
   824   3204   1404
   863   3200   1698
   900   3191   1950
   933   3188   2141
   965   3178   2219
   574   3487   0
   577   3486   0
   596   3479   0
   618   3469   0
   641   3459   0
   665   3449   0
   696   3442   78
   733   3437   217
   769   3434   398
   810   3429   621
   848   3425   874
   890   3420   1163
   934   3414   1455
   976   3409   1739
   1023   3403   1980
   1071   3390   2159
   1115   3382   2219
   635   3644   0
   645   3642   0
   668   3634   0
   695   3626   0
   721   3620   0
   750   3609   0
   789   3603   102
   829   3599   248
   873   3596   440
   917   3593   669
   967   3585   929
   1013   3582   1219
   1065   3577   1514
   1118   3571   1791
   1167   3565   2022
   1218   3559   2174
   1265   3549   2227
   710   3741   0
   728   3736   0
   758   3730   0
   788   3724   0
   820   3716   0
   856   3708   10
   901   3702   135
   950   3702   291
   1002   3699   495
   1053   3697   734
   1107   3691   1005
   1162   3688   1294
   1221   3681   1592
   1274   3677   1859
   1331   3673   2075
   1387   3665   2200
   1442   3654   2250
   281   0   0
   285   0   0
   290   0   0
   295   0   45
   306   0   120
   326   0   194
   347   0   285
   371   0   416
   396   0   594
   422   0   820
   449   0   1081
   474   0   1361
   502   0   1655
   506   0   1945
   510   0   2200
   508   0   2413
   506   0   2560
   274   37   9
   277   38   9
   281   39   9
   315   22   37
   325   21   110
   350   18   183
   374   14   272
   400   9   400
   430   8   574
   461   7   793
   492   2   1047
   522   0   1321
   536   0   1626
   539   0   1921
   541   0   2174
   534   0   2395
   532   0   2546
   270   116   31
   273   116   32
   278   118   32
   297   117   41
   352   103   93
   381   99   165
   409   93   248
   440   86   371
   475   79   536
   511   72   749
   547   66   993
   566   61   1273
   571   57   1586
   576   54   1879
   574   51   2141
   570   49   2364
   569   48   2516
   325   222   0
   329   223   0
   336   223   1
   352   215   35
   364   209   87
   418   200   146
   452   190   225
   490   181   341
   532   171   499
   576   161   701
   599   153   950
   605   147   1235
   611   141   1541
   617   136   1840
   613   133   2109
   609   131   2328
   610   129   2478
   355   372   0
   360   372   0
   370   372   0
   401   365   0
   432   355   56
   440   346   128
   478   336   205
   521   323   316
   567   312   469
   618   301   665
   635   293   912
   642   286   1191
   650   280   1490
   657   274   1788
   652   271   2057
   649   270   2286
   650   268   2432
   388   581   0
   395   582   0
   411   581   0
   448   572   0
   485   560   31
   491   549   100
   509   545   186
   560   532   297
   613   516   444
   664   501   635
   675   490   878
   685   480   1151
   695   472   1444
   699   467   1743
   694   464   2014
   692   462   2244
   695   460   2385
   429   860   0
   437   861   0
   461   858   0
   505   848   0
   552   832   5
   562   819   69
   571   810   151
   603   808   273
   666   792   422
   713   776   614
   724   764   854
   736   751   1122
   749   741   1409
   748   736   1715
   745   734   1987
   745   731   2214
   748   728   2355
   483   1216   0
   493   1215   0
   529   1212   0
   581   1199   0
   635   1181   0
   652   1164   36
   664   1151   113
   684   1148   233
   726   1144   393
   766   1131   593
   779   1116   831
   793   1103   1094
   806   1092   1376
   802   1089   1687
   799   1086   1957
   801   1084   2180
   807   1081   2311
   553   1636   0
   567   1637   0
   619   1629   0
   681   1613   0
   731   1594   0
   744   1578   5
   758   1561   82
   777   1554   197
   798   1553   356
   823   1550   570
   841   1540   810
   860   1525   1069
   865   1516   1354
   863   1515   1655
   862   1510   1930
   867   1507   2150
   877   1502   2282
   646   2051   0
   672   2048   0
   741   2045   0
   770   2027   0
   783   2012   0
   797   1999   0
   815   1981   63
   835   1973   179
   862   1970   334
   889   1968   542
   915   1964   785
   941   1957   1054
   939   1953   1344
   938   1951   1641
   941   1949   1914
   947   1944   2127
   961   1937   2251
   765   2405   0
   797   2404   0
   818   2400   0
   834   2384   0
   851   2371   0
   868   2360   0
   887   2343   51
   910   2333   167
   942   2328   323
   973   2324   525
   1006   2319   765
   1028   2319   1039
   1032   2326   1348
   1035   2325   1643
   1042   2323   1909
   1053   2318   2119
   1069   2314   2234
   847   2724   0
   868   2723   0
   865   2725   0
   882   2713   0
   903   2701   0
   924   2686   0
   944   2673   47
   971   2664   169
   1002   2659   328
   1038   2653   534
   1071   2652   776
   1108   2648   1046
   1137   2647   1346
   1150   2651   1655
   1161   2650   1918
   1174   2647   2124
   1198   2639   2222
   915   3007   0
   919   3013   0
   915   3011   0
   933   3002   0
   956   2991   0
   981   2978   0
   1003   2965   52
   1038   2958   178
   1074   2955   342
   1111   2950   554
   1150   2944   797
   1190   2939   1071
   1231   2933   1363
   1270   2930   1658
   1291   2929   1927
   1311   2927   2130
   1337   2921   2220
   967   3262   0
   968   3268   0
   970   3266   0
   994   3255   0
   1021   3247   0
   1050   3233   0
   1078   3223   61
   1115   3218   193
   1156   3212   366
   1200   3208   581
   1243   3203   829
   1286   3198   1109
   1327   3195   1398
   1371   3185   1693
   1417   3179   1940
   1452   3176   2131
   1486   3165   2214
   1029   3475   0
   1030   3477   0
   1040   3473   0
   1068   3464   0
   1102   3456   0
   1130   3445   0
   1165   3434   79
   1207   3430   217
   1253   3425   398
   1301   3420   619
   1347   3415   872
   1393   3410   1158
   1442   3405   1452
   1490   3397   1741
   1540   3391   1972
   1585   3385   2156
   1634   3372   2212
   1104   3634   0
   1105   3634   0
   1122   3632   0
   1158   3625   0
   1195   3614   0
   1231   3605   0
   1270   3596   103
   1314   3590   251
   1362   3587   444
   1417   3580   673
   1469   3578   934
   1522   3572   1225
   1571   3567   1520
   1629   3560   1795
   1680   3552   2025
   1736   3548   2186
   1783   3534   2230
   1185   3730   0
   1194   3729   0
   1226   3724   0
   1266   3718   0
   1304   3712   0
   1343   3702   18
   1389   3695   139
   1441   3692   297
   1495   3689   500
   1552   3684   740
   1611   3680   1014
   1669   3675   1305
   1725   3672   1601
   1782   3665   1865
   1844   3661   2082
   1900   3655   2206
   1956   3644   2249
   586   0   0
   591   0   0
   598   0   0
   605   0   30
   613   0   104
   636   0   186
   686   0   279
   738   0   408
   794   0   585
   852   0   808
   909   0   1065
   966   0   1342
   1017   0   1633
   1023   0   1924
   1030   0   2180
   1027   0   2393
   1020   0   2544
   579   37   5
   584   38   6
   592   39   6
   643   13   22
   652   14   94
   672   13   174
   731   9   265
   789   8   391
   850   5   562
   917   0   779
   979   0   1031
   1041   0   1301
   1064   0   1607
   1071   0   1898
   1066   0   2157
   1056   0   2384
