Resources/LUT/Sunset.3dl
# 17x17x17 .3dl lookup table from LUT Buddy
0 128 256 384 512 640 768 896 1023
   134   0   0
   134   0   0
   139   0   124
   148   0   292
   152   0   606
   153   0   1101
   156   0   1679
   144   0   2227
   135   0   2573
   117   115   0
   116   117   0
   124   108   103
   132   96   259
   137   84   554
   140   73   1024
   135   65   1610
   123   59   2162
   115   55   2513
   87   373   0
   87   374   0
   88   366   72
   92   358   240
   97   336   531
   100   315   990
   96   301   1567
   84   291   2118
   88   283   2468
   33   864   0
   35   865   0
   33   852   23
   43   855   193
   76   837   493
   116   804   931
   135   781   1499
   148   762   2045
   155   753   2395
   46   1647   0
   74   1643   0
   95   1614   0
   119   1612   112
   144   1608   408
   187   1590   868
   203   1561   1423
   217   1539   1969
   223   1531   2313
   145   2426   0
   174   2420   0
   188   2395   0
   213   2384   64
   244   2378   349
   276   2370   812
   308   2359   1389
   315   2352   1940
   327   2341   2261
   246   3025   0
   264   3019   0
   282   2996   0
   311   2985   55
   348   2978   351
   389   2969   811
   432   2962   1385
   467   2956   1944
   494   2948   2235
   332   3495   0
   356   3483   0
   383   3464   0
   423   3454   76
   471   3445   397
   526   3437   875
   584   3427   1455
   651   3415   1981
   712   3397   2222
   462   3751   0
   501   3738   0
   541   3726   0
   598   3715   130
   662   3711   486
   739   3703   994
   824   3695   1583
   915   3683   2069
   1005   3671   2247
   281   0   0
   290   0   0
   306   0   120
   347   0   285
   396   0   594
   449   0   1081
   502   0   1655
   510   0   2200
   506   0   2560
   270   116   31
   278   118   32
   352   103   93
   409   93   248
   475   79   536
   547   66   993
   571   57   1586
   574   51   2141
   569   48   2516
   355   372   0
   370   372   0
   432   355   56
   478   336   205
   567   312   469
   635   293   912
   650   280   1490
   652   271   2057
   650   268   2432
   429   860   0
   461   858   0
   552   832   5
   571   810   151
   666   792   422
   724   764   854
   749   741   1409
   745   734   1987
   748   728   2355
   553   1636   0
   619   1629   0
   731   1594   0
   758   1561   82
   798   1553   356
   841   1540   810
   865   1516   1354
   862   1510   1930
   877   1502   2282
   765   2405   0
   818   2400   0
   851   2371   0
   887   2343   51
   942   2328   323
   1006   2319   765
   1032   2326   1348
   1042   2323   1909
   1069   2314   2234
   915   3007   0
   915   3011   0
   956   2991   0
   1003   2965   52
   1074   2955   342
   1150   2944   797
   1231   2933   1363
   1291   2929   1927
   1337   2921   2220
   1029   3475   0
   1040   3473   0
   1102   3456   0
   1165   3434   79
   1253   3425   398
   1347   3415   872
   1442   3405   1452
   1540   3391   1972
   1634   3372   2212
   1185   3730   0
   1226   3724   0
   1304   3712   0
   1389   3695   139
   1495   3689   500
   1611   3680   1014
   1725   3672   1601
   1844   3661   2082
   1956   3644   2249
   1096   0   0
   1112   0   0
   1135   0   84
   1186   0   264
   1367   0   573
   1548   0   1048
   1698   0   1612
   1710   0   2164
   1698   0   2526
   984   130   32
   1005   131   33
   1293   77   58
   1341   76   223
   1554   65   514
   1750   50   959
   1793   41   1545
   1767   36   2124
   1755   33   2496
   1092   357   70
   1115   359   72
   1203   359   96
   1585   306   166
   1825   295   431
   1879   280   885
   1860   273   1480
   1833   268   2067
   1825   265   2440
   1393   851   0
   1470   844   0
   1614   809   60
   1744   790   180
   1945   753   369
   1978   736   810
   1946   730   1381
   1929   725   1971
   1934   719   2338
   1669   1625   0
   1802   1614   0
   1983   1576   0
   2016   1545   73
   2054   1508   326
   2077   1494   750
   2056   1490   1310
   2048   1487   1887
   2062   1477   2244
   2004   2384   0
   2068   2375   0
   2050   2367   0
   2091   2342   51
   2134   2311   312
   2189   2296   737
   2205   2303   1314
   2210   2297   1882
   2236   2286   2207
   2135   2989   0
   2123   2993   0
   2117   2991   0
   2169   2967   60
   2223   2941   339
   2287   2929   783
   2355   2919   1345
   2401   2915   1914
   2439   2906   2211
   2206   3457   0
   2202   3459   0
   2221   3454   0
   2280   3432   96
   2345   3411   403
   2421   3399   876
   2496   3387   1454
   2571   3373   1981
   2640   3356   2219
   2315   3708   0
   2320   3710   0
   2365   3702   0
   2438   3687   169
   2512   3673   520
   2595   3665   1037
   2674   3654   1627
   2748   3642   2104
   2819   3625   2284
   2506   0   0
   2515   0   0
   2540   0   42
   2565   0   198
   2615   0   520
   2797   0   1009
   2916   0   1573
   2921   0   2126
   2909   0   2496
   2395   123   19
   2425   122   19
   2699   44   19
   2727   43   161
   2767   41   458
   2935   30   910
   2958   24   1509
   2939   20   2088
   2928   17   2467
   2290   396   80
   2315   399   81
   2524   379   81
   2922   267   109
   2962   264   376
   2985   264   845
   2960   268   1466
   2941   263   2054
   2935   260   2433
   2522   827   99
   2560   830   102
   2655   831   121
   2711   828   189
   3003   716   325
   2985   734   797
   2964   742   1402
   2950   737   1989
   2950   732   2370
   2766   1581   1
   2841   1561   30
   2895   1541   109
   2873   1539   231
   2895   1529   424
   2998   1495   739
   2990   1505   1320
   2982   1500   1900
   2988   1491   2265
   3000   2374   0
   3025   2363   0
   3001   2362   0
   2990   2355   57
   3014   2325   327
   3038   2298   754
   3036   2299   1319
   3043   2290   1861
   3054   2281   2207
   3033   2981   0
   3020   2982   0
   3004   2988   0
   3005   2975   74
   3035   2953   365
   3068   2929   796
   3105   2912   1346
   3128   2911   1914
   3150   2900   2220
   3040   3447   0
   3037   3448   0
   3025   3452   0
   3043   3442   120
   3081   3421   442
   3121   3402   908
   3166   3384   1474
   3212   3370   1998
   3257   3350   2246
   3078   3688   0
   3079   3693   0
   3080   3699   0
   3113   3686   207
   3159   3674   579
   3200   3662   1093
   3241   3651   1683
   3285   3641   2164
   3329   3620   2351
   3439   0   0
   3443   0   0
   3456   0   4
   3471   0   135
   3481   0   419
   3499   0   917
   3571   0   1490
   3578   0   2080
   3567   0   2476
   3380   121   7
   3400   113   5
   3543   16   0
   3558   12   103
   3571   10   367
   3581   8   828
   3590   6   1427
   3578   7   2056
   3569   5   2453
   3246   445   75
   3261   446   75
   3393   385   63
   3577   247   79
   3592   240   330
   3596   243   780
   3576   252   1397
   3565   260   2032
   3561   258   2421
   3243   907   118
   3256   909   120
   3268   912   142
   3387   858   174
   3583   701   298
   3565   719   754
   3549   737   1367
   3540   749   1992
   3540   746   2375
   3367   1590   139
   3371   1590   147
   3378   1589   189
   3363   1603   287
   3376   1609   460
   3537   1505   722
   3532   1521   1319
   3526   1536   1938
   3526   1530   2314
   3503   2321   71
   3504   2323   82
   3482   2341   147
   3452   2354   318
   3438   2359   602
   3459   2349   946
   3522   2323   1337
   3549   2316   1902
   3557   2308   2260
   3566   2981   0
   3557   2981   0
   3543   2986   0
   3527   2992   90
   3533   2980   402
   3552   2955   890
   3564   2933   1546
   3574   2929   2008
   3598   2913   2260
   3553   3445   0
   3551   3446   0
   3543   3449   0
   3532   3454   148
   3543   3441   492
   3553   3426   992
   3577   3406   1570
   3604   3388   2078
   3632   3370   2339
   3564   3678   0
   3567   3679   0
   3564   3686   2
   3553   3695   257
   3515   3694   691
   3543   3685   1247
   3576   3681   1865
   3610   3670   2337
   3648   3653   2532
   3943   0   0
   3954   0   0
   3963   0   0
   3971   0   91
   3975   0   349
   3981   0   801
   3984   0   1394
   3985   0   1993
   3978   0   2410
   3862   127   3
   3883   111   0
   3972   4   0
   3981   0   75
   3988   0   327
   3994   0   765
   3997   0   1345
   3984   0   1976
   3975   0   2398
   3703   496   73
   3722   492   72
   3846   391   53
   3980   236   59
   3996   224   297
   3993   229   728
   3976   238   1323
   3963   246   1956
   3960   250   2377
   3638   1005   141
   3647   1006   143
   3675   994   156
   3801   887   164
   3960   700   281
   3959   705   709
   3943   723   1302
   3934   737   1928
   3932   742   2343
   3694   1675   188
   3700   1677   197
   3707   1680   231
   3694   1703   325
   3762   1667   452
   3911   1513   703
   3904   1527   1289
   3899   1541   1905
   3901   1545   2312
   3791   2356   213
   3790   2363   231
   3777   2378   288
   3763   2399   429
   3747   2417   702
   3765   2418   1018
   3879   2341   1336
   3894   2336   1913
   3875   2338   2324
   3886   2953   59
   3874   2960   90
   3855   2970   201
   3831   2983   441
   3806   2998   850
   3814   2996   1281
   3813   2992   1726
   3838   2974   2085
   3855   2953   2394
   3919   3448   0
   3914   3446   0
   3905   3451   0
   3893   3455   184
   3868   3463   561
   3827   3463   1117
   3833   3448   1752
   3846   3435   2320
   3857   3422   2621
   3918   3671   0
   3914   3673   0
   3913   3676   28
   3888   3686   309
   3823   3709   798
   3801   3714   1435
   3826   3709   2057
   3855   3698   2511
   3886   3678   2719
   4095   0   0
   4095   0   0
   4095   0   0
   4095   0   67
   4095   0   315
   4095   0   746
   4095   0   1315
   4095   0   1923
   4095   0   2352
   4095   136   0
   4095   113   0
   4095   0   0
   4095   0   54
   4095   0   297
   4095   0   716
   4095   0   1276
   4095   0   1908
   4095   0   2343
   4014   543   73
   4037   529   69
   4095   405   48
   4095   239   49
   4095   224   283
   4095   225   698
   4095   230   1262
   4095   238   1893
   4095   243   2329
   3921   1094   155
   3931   1094   156
   3955   1069   162
   4082   918   160
   4095   717   273
   4095   711   681
   4095   720   1246
   4095   733   1872
   4095   738   2300
   3940   1771   219
   3945   1770   227
   3933   1790   267
   3927   1805   362
   4035   1710   448
   4095   1530   687
   4095   1528   1244
   4095   1541   1863
   4095   1545   2285
   4007   2409   287
   3998   2419   313
   3984   2439   384
   3972   2460   522
   3964   2486   770
   4013   2469   1027
   4095   2363   1341
   4095   2348   1919
   4095   2356   2354
   4070   2978   279
   4062   2988   323
   4047   3005   429
   4037   3017   623
   4030   3031   944
   4012   3043   1391
   3985   3054   1860
   4048   3019   2184
   4060   2999   2525
   4095   3432   28
   4095   3435   105
   4095   3441   275
   4095   3451   604
   4063   3462   1091
   4016   3482   1665
   3990   3487   2222
   3997   3493   2575
   4021   3485   2769
   4095   3648   0
   4095   3651   6
   4095   3654   204
   4095   3671   503
   4070   3696   942
   4028   3716   1613
   4017   3721   2244
   4056   3744   2741
   4095   3807   2975
   4095   0   0
   4095   0   0
   4095   0   0
   4095   0   49
   4095   0   290
   4095   0   705
   4095   0   1259
   4095   0   1862
   4095   0   2297
   4095   148   0
   4095   117   0
   4095   0   0
   4095   0   44
   4095   0   284
   4095   0   694
   4095   0   1243
   4095   0   1859
   4095   0   2302
   4095   587   73
   4095   560   69
   4095   428   46
   4095   249   45
   4095   230   274
   4095   231   685
   4095   232   1231
   4095   236   1840
   4095   241   2287
   4095   1169   164
   4095   1171   166
   4095   1132   167
   4095   952   159
   4095   738   268
   4095   731   673
   4095   731   1222
   4095   736   1825
   4095   743   2275
   4095   1859   247
   4095   1870   258
   4095   1887   302
   4095   1884   385
   4095   1756   450
   4095   1568   686
   4095   1551   1225
   4095   1552   1825
   4095   1556   2265
   4095   2491   340
   4095   2499   362
   4095   2516   432
   4095   2537   579
   4095   2555   827
   4095   2511   1055
   4095   2400   1399
   4095   2379   1975
   4095   2378   2391
   4095   3018   401
   4095   3025   449
   4095   3036   571
   4095   3052   795
   4095   3069   1129
   4095   3099   1565
   4095   3112   1967
   4095   3053   2263
   4095   3088   2594
   4095   3449   282
   4095   3449   378
   4095   3456   586
   4095   3468   911
   4095   3487   1335
   4095   3510   1860
   4095   3527   2331
   4095   3592   2694
   4095   3636   2842
   4095   3629   201
   4095   3627   354
   4095   3635   656
   4095   3653   1059
   4095   3675   1639
   4095   3702   2218
   4095   3791   2655
   4095   3875   2935
   4095   3910   3060
   4095   0   0
   4095   0   0
   4095   0   0
   4095   0   40
   4095   0   278
   4095   0   685
   4095   0   1231
   4095   0   1830
   4095   0   2269
   4095   162   0
   4095   127   0
   4095   0   0
   4095   0   39
   4095   0   276
   4095   0   683
   4095   0   1226
   4095   0   1829
   4095   0   2273
   4095   620   75
   4095   593   71
   4095   450   48
   4095   262   43
   4095   238   267
   4095   240   673
   4095   242   1217
   4095   242   1812
   4095   244   2263
   4095   1230   172
   4095   1232   174
   4095   1178   172
   4095   985   160
   4095   763   264
   4095   751   663
   4095   750   1211
   4095   751   1799
   4095   753   2247
   4095   1937   271
   4095   1944   283
   4095   1957   328
   4095   1939   399
   4095   1795   455
   4095   1603   688
   4095   1580   1222
   4095   1574   1814
   4095   1569   2259
   4095   2555   373
   4095   2557   395
   4095   2575   470
   4095   2592   623
   4095   2602   870
   4095   2548   1089
   4095   2438   1463
   4095   2413   2020
   4095   2452   2424
   4095   3065   487
   4095   3064   538
   4095   3076   667
   4095   3094   880
   4095   3123   1218
   4095   3145   1675
   4095   3142   2017
   4095   3090   2311
   4095   3188   2635
   4095   3468   502
   4095   3465   601
   4095   3469   789
   4095   3488   1104
   4095   3510   1582
   4095   3535   2092
   4095   3594   2479
   4095   3674   2743
   4095   3709   2887
   4095   3615   496
   4095   3611   674
   4095   3623   971
   4095   3645   1404
   4095   3664   1924
   4095   3740   2424
   4095   3841   2780
   4095   3904   2985
   4095   3933   3099
