Resources/LUT/Vintage Color.3dl
# 17x17x17 .3dl lookup table from LUT Buddy
   0   64   128   192   256   320   384   448   512   576   640   704   768   832   896   960   1023
   197   197   743
   203   203   772
   251   251   1026
   287   287   1245
   317   317   1443
   344   344   1628
   368   368   1799
   391   391   1957
   412   412   2105
   432   432   2239
   450   450   2363
   466   466   2478
   481   482   2584
   496   496   2684
   509   510   2778
   522   523   2871
   535   535   2957
   197   260   743
   200   263   758
   249   302   1015
   286   333   1235
   316   361   1434
   342   387   1619
   367   411   1790
   390   434   1950
   411   455   2097
   431   474   2232
   449   492   2356
   465   508   2472
   481   523   2578
   495   538   2678
   509   551   2773
   521   564   2863
   534   576   2952
   258   452   772
   259   452   778
   291   468   1031
   318   483   1249
   342   500   1446
   366   516   1629
   388   532   1798
   409   549   1957
   429   565   2103
   447   579   2239
   464   593   2362
   480   607   2477
   495   619   2583
   508   631   2682
   521   642   2778
   533   653   2868
   546   663   2956
   390   835   856
   390   835   856
   413   843   1105
   434   852   1316
   454   859   1510
   472   868   1689
   489   876   1856
   506   884   2013
   522   892   2156
   536   901   2290
   550   908   2411
   563   915   2524
   575   923   2629
   587   928   2726
   598   934   2822
   608   941   2911
   618   946   2995
   517   1172   933
   517   1170   933
   528   1177   1178
   544   1184   1388
   562   1189   1579
   580   1196   1755
   596   1201   1919
   611   1207   2073
   626   1213   2216
   639   1218   2348
   651   1223   2467
   662   1228   2580
   673   1233   2682
   683   1237   2781
   693   1242   2873
   702   1246   2961
   711   1249   3046
   664   1479   1014
   662   1478   1017
   647   1484   1251
   656   1489   1457
   665   1493   1646
   680   1497   1822
   696   1502   1985
   710   1507   2136
   724   1511   2277
   737   1515   2408
   749   1520   2527
   759   1523   2638
   769   1526   2740
   779   1530   2836
   787   1533   2928
   796   1535   3014
   804   1538   3099
   835   1765   1110
   830   1763   1120
   767   1768   1327
   765   1772   1528
   773   1776   1714
   781   1780   1888
   792   1784   2049
   804   1788   2199
   817   1791   2340
   829   1795   2469
   841   1798   2587
   851   1801   2696
   861   1802   2798
   870   1805   2892
   878   1808   2983
   887   1810   3070
   894   1811   3152
   995   2030   1216
   987   2030   1234
   915   2034   1414
   873   2038   1601
   877   2042   1783
   884   2045   1954
   891   2048   2111
   898   2051   2262
   907   2054   2400
   917   2056   2528
   928   2058   2646
   937   2060   2754
   947   2062   2854
   956   2064   2949
   964   2066   3038
   972   2068   3125
   979   2068   3205
   1140   2278   1324
   1128   2278   1349
   1060   2283   1510
   1003   2288   1681
   975   2289   1853
   980   2293   2021
   987   2295   2176
   992   2295   2324
   999   2297   2461
   1005   2300   2587
   1012   2303   2703
   1020   2304   2811
   1028   2306   2910
   1036   2307   3004
   1044   2308   3092
   1052   2308   3177
   1058   2307   3258
   1272   2512   1430
   1256   2512   1464
   1194   2517   1610
   1134   2520   1767
   1086   2521   1928
   1071   2524   2087
   1076   2526   2242
   1081   2529   2388
   1087   2530   2522
   1092   2531   2648
   1097   2532   2760
   1101   2532   2865
   1107   2534   2964
   1114   2535   3058
   1120   2534   3145
   1127   2534   3229
   1134   2535   3309
   1393   2728   1531
   1373   2729   1576
   1315   2732   1712
   1255   2735   1855
   1202   2737   2006
   1166   2739   2158
   1159   2741   2307
   1164   2742   2450
   1170   2743   2583
   1174   2744   2706
   1178   2743   2817
   1182   2745   2921
   1187   2745   3018
   1192   2745   3111
   1199   2745   3197
   1206   2744   3279
   1213   2744   3359
   1506   2934   1629
   1481   2934   1688
   1427   2939   1814
   1370   2941   1948
   1315   2943   2089
   1270   2945   2234
   1245   2946   2376
   1244   2946   2517
   1249   2947   2648
   1254   2946   2766
   1259   2947   2874
   1264   2946   2978
   1270   2945   3073
   1275   2945   3162
   1280   2945   3248
   1285   2944   3329
   1290   2943   3408
   1617   3138   1728
   1586   3138   1801
   1535   3140   1918
   1480   3142   2045
   1426   3143   2177
   1379   3144   2314
   1344   3145   2450
   1328   3145   2585
   1333   3146   2712
   1338   3146   2829
   1343   3145   2936
   1348   3143   3036
   1353   3142   3128
   1358   3142   3217
   1362   3140   3299
   1367   3139   3380
   1372   3137   3458
   1723   3332   1822
   1688   3334   1912
   1641   3336   2024
   1589   3336   2143
   1538   3338   2270
   1490   3338   2399
   1449   3338   2530
   1423   3338   2659
   1414   3338   2779
   1419   3336   2892
   1423   3336   2997
   1429   3334   3095
   1433   3332   3186
   1437   3330   3274
   1442   3328   3355
   1446   3326   3433
   1451   3324   3510
   1823   3517   1919
   1784   3517   2022
   1739   3518   2129
   1689   3519   2241
   1639   3522   2363
   1592   3523   2487
   1549   3520   2612
   1518   3519   2734
   1499   3517   2850
   1495   3516   2958
   1499   3515   3061
   1504   3512   3155
   1509   3510   3245
   1513   3507   3329
   1518   3505   3410
   1522   3501   3486
   1526   3499   3559
   1909   3686   2027
   1870   3686   2124
   1825   3688   2228
   1777   3688   2339
   1730   3688   2456
   1683   3688   2575
   1641   3688   2695
   1606   3686   2810
   1583   3684   2922
   1570   3681   3024
   1571   3678   3125
   1576   3678   3215
   1580   3673   3302
   1585   3670   3384
   1589   3666   3463
   1593   3664   3537
   1596   3658   3610
   1979   3829   2121
   1939   3831   2220
   1894   3830   2322
   1850   3831   2432
   1801   3831   2542
   1757   3831   2659
   1716   3831   2774
   1681   3828   2886
   1656   3826   2990
   1641   3823   3090
   1636   3821   3184
   1639   3820   3275
   1644   3817   3358
   1648   3813   3439
   1653   3811   3514
   1657   3805   3591
   1662   3801   3659
   207   197   743
   212   202   765
   259   250   1020
   294   286   1240
   324   316   1438
   350   343   1623
   375   367   1794
   398   390   1954
   420   412   2101
   440   431   2235
   458   449   2359
   475   466   2473
   491   481   2581
   506   496   2682
   519   509   2776
   533   522   2867
   545   535   2954
   209   260   743
   211   262   752
   259   301   1011
   295   332   1231
   324   360   1430
   351   386   1615
   376   410   1786
   399   433   1947
   421   454   2094
   441   474   2230
   459   491   2353
   476   508   2467
   492   523   2575
   507   537   2674
   521   551   2771
   533   564   2859
   547   576   2950
   269   451   772
   269   451   774
   301   467   1029
   328   483   1246
   353   500   1444
   376   516   1626
   399   532   1796
   421   549   1955
   441   565   2100
   460   580   2236
   477   594   2360
   493   606   2473
   508   619   2581
   522   631   2681
   536   642   2774
   549   653   2866
   561   663   2953
   401   835   856
   401   834   855
   425   843   1104
   446   852   1315
   465   859   1508
   484   867   1688
   502   875   1855
   519   884   2011
   536   893   2155
   551   901   2287
   565   908   2409
   579   915   2522
   591   922   2627
   603   928   2725
   615   935   2818
   626   941   2909
   637   947   2995
   529   1170   933
   530   1170   933
   541   1177   1178
   557   1183   1388
   577   1189   1579
   594   1194   1755
   611   1201   1919
   627   1206   2073
   642   1213   2216
   656   1218   2347
   668   1223   2466
   680   1228   2578
   692   1233   2681
   702   1237   2779
   713   1242   2872
   722   1246   2959
   732   1249   3044
   678   1478   1014
   677   1478   1020
   662   1483   1252
   671   1488   1458
   682   1491   1647
   697   1497   1822
   713   1502   1985
   729   1507   2136
   743   1511   2277
   757   1515   2408
   769   1518   2526
   780   1523   2636
   791   1526   2739
   801   1530   2834
   811   1533   2928
   820   1535   3013
   829   1538   3097
   851   1763   1110
   845   1763   1123
   784   1768   1330
   784   1772   1530
   792   1776   1716
   801   1780   1889
   811   1783   2049
   825   1786   2200
   839   1790   2340
   852   1794   2469
   864   1797   2587
   875   1799   2695
   886   1802   2797
   896   1805   2892
   905   1807   2982
   914   1808   3068
   923   1810   3150
   1012   2030   1216
   1004   2029   1236
   934   2033   1418
   893   2037   1604
   898   2041   1786
   906   2044   1956
   914   2047   2113
   922   2050   2263
   932   2053   2401
   943   2055   2530
   954   2057   2647
   965   2059   2754
   975   2060   2854
   985   2063   2948
   995   2064   3038
   1004   2066   3124
   1012   2067   3204
   1159   2277   1324
   1147   2277   1353
   1081   2282   1514
   1024   2285   1685
   999   2288   1857
   1005   2291   2024
   1012   2294   2180
   1019   2295   2326
   1026   2297   2464
   1034   2299   2589
   1042   2301   2705
   1051   2303   2811
   1060   2304   2910
   1069   2305   3004
   1078   2306   3092
   1087   2307   3176
   1095   2307   3258
   1294   2510   1429
   1278   2511   1468
   1217   2515   1615
   1157   2518   1771
   1112   2520   1932
   1099   2523   2092
   1106   2525   2246
   1112   2528   2391
   1119   2530   2525
   1124   2530   2650
   1130   2531   2762
   1136   2532   2868
   1144   2532   2966
   1151   2533   3058
   1159   2532   3145
   1167   2533   3228
   1175   2533   3309
   1418   2726   1531
   1397   2728   1581
   1340   2730   1716
   1281   2733   1861
   1231   2736   2012
   1198   2738   2164
   1193   2739   2313
   1199   2740   2454
   1205   2741   2586
   1211   2743   2709
   1217   2743   2818
   1222   2743   2923
   1228   2743   3020
   1233   2743   3112
   1238   2742   3197
   1245   2743   3279
   1252   2742   3359
   1535   2932   1628
   1509   2934   1694
   1456   2936   1819
   1400   2939   1954
   1347   2941   2095
   1305   2943   2238
   1282   2944   2383
   1283   2944   2520
   1288   2945   2650
   1294   2945   2771
   1299   2945   2878
   1304   2945   2979
   1309   2945   3074
   1314   2944   3164
   1318   2942   3249
   1323   2941   3331
   1328   2940   3408
   1649   3134   1726
   1617   3136   1807
   1568   3139   1925
   1513   3142   2051
   1461   3142   2185
   1414   3142   2320
   1382   3142   2458
   1368   3144   2591
   1371   3143   2717
   1376   3142   2832
   1381   3142   2939
   1386   3142   3037
   1390   3140   3131
   1395   3139   3219
   1399   3137   3301
   1403   3135   3380
   1407   3132   3458
   1758   3330   1821
   1719   3332   1920
   1672   3334   2031
   1621   3334   2151
   1570   3336   2277
   1522   3336   2408
   1484   3336   2537
   1459   3336   2666
   1452   3336   2787
   1455   3334   2899
   1460   3333   3000
   1465   3330   3099
   1470   3330   3188
   1474   3326   3276
   1478   3324   3356
   1482   3322   3435
   1486   3318   3510
   1852   3513   1926
   1813   3515   2029
   1767   3515   2135
   1718   3517   2251
   1669   3517   2372
   1622   3517   2496
   1581   3517   2620
   1551   3517   2742
   1534   3515   2857
   1532   3513   2965
   1536   3511   3066
   1540   3507   3160
   1545   3506   3249
   1548   3503   3333
   1552   3499   3412
   1556   3497   3488
   1561   3495   3561
   1935   3682   2035
   1896   3682   2131
   1852   3684   2237
   1805   3684   2349
   1757   3685   2467
   1712   3685   2585
   1671   3684   2705
   1638   3682   2819
   1615   3679   2929
   1605   3678   3033
   1606   3676   3129
   1610   3671   3220
   1614   3668   3307
   1619   3666   3390
   1622   3662   3466
   1626   3658   3541
   1630   3654   3610
   2002   3825   2131
   1962   3824   2228
   1921   3829   2334
   1873   3827   2440
   1828   3827   2555
   1783   3827   2670
   1744   3826   2786
   1711   3825   2896
   1688   3822   2999
   1673   3821   3100
   1669   3818   3192
   1672   3814   3280
   1678   3812   3366
   1682   3809   3445
   1686   3804   3520
   1691   3800   3591
   1694   3796   3660
   270   197   743
   273   200   757
   311   249   1015
   342   286   1235
   370   316   1434
   396   342   1618
   420   367   1789
   443   390   1950
   465   411   2097
   484   431   2232
   502   449   2356
   519   466   2470
   534   481   2577
   548   495   2678
   562   509   2772
   575   522   2863
   588   535   2951
   272   260   743
   273   261   747
   311   301   1008
   342   332   1228
   370   360   1427
   396   386   1611
   421   410   1783
   444   433   1944
   465   454   2090
   485   473   2226
   503   491   2350
   519   507   2466
   535   523   2572
   550   537   2672
   564   550   2768
   577   564   2859
   590   576   2946
   320   451   772
   320   451   772
   348   467   1027
   374   484   1244
   398   500   1441
   422   517   1625
   444   533   1794
   465   549   1953
   485   565   2099
   504   580   2234
   520   594   2357
   536   607   2472
   551   619   2579
   565   631   2679
   579   643   2773
   592   653   2862
   604   663   2951
   445   834   855
   446   834   855
   469   843   1103
   490   851   1314
   509   859   1508
   528   868   1687
   545   876   1853
   562   884   2009
   578   893   2153
   594   901   2285
   608   909   2409
   621   916   2520
   633   922   2625
   645   929   2724
   657   935   2816
   668   941   2906
   679   947   2993
   572   1170   933
   573   1170   933
   584   1176   1179
   600   1183   1388
   619   1189   1579
   637   1194   1755
   653   1201   1919
   669   1206   2071
   683   1213   2214
   697   1218   2345
   710   1223   2466
   721   1228   2576
   733   1233   2680
   743   1237   2778
   753   1242   2871
   763   1245   2957
   773   1249   3042
   719   1478   1014
   717   1477   1022
   703   1483   1254
   712   1488   1460
   723   1491   1649
   738   1497   1823
   754   1502   1986
   769   1506   2136
   784   1511   2277
   797   1515   2408
   809   1518   2526
   820   1523   2635
   831   1526   2738
   841   1530   2834
   851   1533   2926
   860   1535   3012
   869   1538   3095
   890   1762   1110
   884   1763   1126
   824   1767   1332
   824   1771   1533
   832   1775   1718
   841   1779   1891
   851   1782   2051
   865   1786   2201
   878   1790   2340
   891   1794   2469
   904   1796   2587
   914   1799   2695
   925   1801   2796
   935   1804   2891
   944   1807   2982
   953   1808   3067
   961   1810   3150
   1050   2029   1215
   1040   2029   1239
   971   2033   1422
   933   2037   1608
   937   2040   1789
   945   2044   1959
   953   2047   2117
   961   2050   2265
   970   2052   2404
   982   2055   2531
   993   2056   2648
   1003   2058   2755
   1013   2060   2855
   1023   2062   2948
   1032   2064   3036
   1041   2065   3123
   1049   2067   3203
   1197   2276   1324
   1183   2277   1357
   1116   2281   1518
   1060   2284   1689
   1037   2287   1861
   1043   2291   2027
   1050   2293   2182
   1057   2294   2329
   1064   2295   2465
   1071   2298   2591
   1079   2300   2705
   1089   2303   2813
   1098   2303   2912
   1106   2303   3003
   1115   2304   3092
   1124   2305   3175
   1132   2305   3257
   1331   2509   1429
   1312   2511   1473
   1251   2515   1620
   1192   2517   1776
   1148   2519   1937
   1136   2521   2097
   1143   2524   2250
   1149   2526   2394
   1155   2527   2528
   1162   2529   2650
   1168   2531   2764
   1174   2531   2869
   1180   2531   2967
   1188   2532   3058
   1196   2532   3146
   1203   2532   3228
   1212   2533   3309
   1454   2724   1530
   1430   2726   1587
   1374   2730   1721
   1315   2733   1867
   1265   2735   2018
   1233   2736   2169
   1230   2737   2318
   1236   2740   2460
   1241   2740   2591
   1248   2741   2713
   1253   2742   2822
   1258   2742   2925
   1263   2742   3022
   1268   2742   3112
   1274   2741   3198
   1281   2741   3279
   1287   2740   3358
   1569   2931   1627
   1541   2932   1699
   1487   2934   1825
   1432   2937   1961
   1380   2941   2102
   1338   2941   2246
   1316   2942   2389
   1318   2942   2527
   1324   2943   2655
   1329   2943   2773
   1335   2943   2881
   1339   2943   2982
   1345   2942   3076
   1349   2942   3164
   1354   2940   3248
   1359   2940   3331
   1363   2938   3409
   1683   3132   1726
   1648   3134   1813
   1598   3138   1932
   1544   3140   2058
   1493   3141   2192
   1447   3142   2328
   1415   3142   2465
   1402   3142   2599
   1406   3142   2723
   1411   3141   2838
   1416   3140   2943
   1421   3140   3041
   1425   3139   3133
   1430   3136   3221
   1434   3133   3303
   1438   3132   3382
   1442   3130   3458
   1790   3327   1821
   1749   3329   1926
   1701   3331   2040
   1651   3333   2158
   1599   3334   2285
   1553   3334   2415
   1515   3334   2546
   1492   3335   2673
   1485   3333   2792
   1490   3330   2903
   1494   3328   3007
   1499   3328   3102
   1504   3326   3192
   1507   3324   3278
   1511   3322   3357
   1516   3318   3435
   1521   3314   3510
   1882   3511   1935
   1842   3513   2036
   1795   3513   2143
   1746   3517   2260
   1697   3515   2381
   1651   3515   2504
   1612   3515   2630
   1582   3512   2749
   1566   3511   2864
   1565   3509   2971
   1569   3507   3071
   1574   3505   3165
   1578   3502   3251
   1584   3499   3334
   1590   3497   3414
   1596   3493   3490
   1603   3491   3563
   1963   3678   2044
   1924   3680   2141
   1879   3682   2247
   1831   3682   2359
   1784   3682   2477
   1739   3681   2597
   1699   3680   2714
   1668   3678   2830
   1649   3678   2937
   1640   3674   3040
   1642   3671   3137
   1648   3668   3227
   1655   3666   3312
   1663   3662   3392
   1670   3658   3469
   1680   3656   3545
   1690   3650   3614
   2030   3823   2143
   1990   3823   2241
   1944   3822   2342
   1899   3823   2452
   1856   3823   2568
   1815   3822   2684
   1780   3822   2798
   1751   3821   2908
   1730   3820   3011
   1718   3817   3109
   1716   3815   3201
   1722   3811   3288
   1732   3810   3371
   1742   3805   3450
   1754   3803   3526
   1766   3799   3600
   1779   3795   3667
   317   197   743
   318   199   752
   353   249   1011
   383   285   1231
   411   315   1430
   437   342   1614
   461   366   1786
   483   389   1945
   505   411   2093
   524   431   2229
   542   449   2353
   558   465   2466
   574   481   2574
   588   495   2674
   602   509   2770
   614   522   2859
   627   534   2948
   318   260   743
   318   260   743
   353   300   1004
   384   332   1225
   411   359   1425
   437   385   1608
   461   410   1781
   484   433   1941
   505   454   2088
   525   473   2225
   542   491   2348
   559   507   2464
   574   523   2570
   589   537   2669
   603   550   2766
   616   563   2857
