Resources/LUT/Vintage Color.3dl
# 17x17x17 .3dl lookup table from LUT Buddy
0 256 512 768 1023
   197   197   743
   317   317   1443
   412   412   2105
   481   482   2584
   535   535   2957
   517   1172   933
   562   1189   1579
   626   1213   2216
   673   1233   2682
   711   1249   3046
   1140   2278   1324
   975   2289   1853
   999   2297   2461
   1028   2306   2910
   1058   2307   3258
   1617   3138   1728
   1426   3143   2177
   1333   3146   2712
   1353   3142   3128
   1372   3137   3458
   1979   3829   2121
   1801   3831   2542
   1656   3826   2990
   1644   3817   3358
   1662   3801   3659
   452   214   750
   516   322   1432
   594   416   2094
   657   485   2574
   710   539   2947
   717   1175   938
   767   1195   1583
   826   1219   2218
   877   1239   2681
   922   1257   3043
   1337   2276   1352
   1179   2292   1876
   1216   2302   2476
   1267   2309   2917
   1319   2314   3260
   1814   3132   1754
   1682   3142   2232
   1592   3147   2743
   1640   3144   3150
   1692   3139   3472
   2197   3821   2214
   2109   3825   2638
   2013   3825   3051
   2028   3817   3400
   2102   3801   3687
   1533   453   865
   1556   497   1513
   1588   581   2155
   1618   633   2628
   1646   673   2997
   1707   1257   1012
   1714   1278   1656
   1745   1303   2277
   1777   1323   2736
   1809   1339   3092
   2003   2332   1437
   2033   2343   1980
   2040   2361   2538
   2082   2369   2966
   2123   2372   3300
   2348   3172   1838
   2387   3176   2370
   2346   3192   2818
   2382   3191   3208
   2440   3183   3518
   2684   3849   2329
   2735   3848   2796
   2723   3851   3160
   2729   3846   3469
   2801   3828   3738
   2323   656   980
   2342   677   1593
   2366   718   2226
   2388   772   2692
   2411   822   3052
   2451   1347   1102
   2463   1373   1733
   2490   1395   2342
   2514   1422   2789
   2538   1444   3133
   2707   2425   1276
   2739   2432   2019
   2735   2429   2603
   2767   2438   3014
   2804   2443   3341
   2926   3254   1879
   2961   3239   2469
   3002   3242   2916
   3026   3242   3263
   3076   3237   3557
   3195   3892   2471
   3244   3890   2921
   3300   3881   3281
   3334   3871   3548
   3379   3851   3782
   2963   822   1086
   2979   835   1667
   2998   864   2284
   3017   895   2743
   3035   924   3099
   3061   1446   1189
   3070   1478   1806
   3097   1496   2398
   3118   1516   2839
   3140   1533   3180
   3308   2479   1281
   3328   2492   2081
   3299   2505   2661
   3330   2512   3064
   3360   2517   3379
   3474   3347   1898
   3504   3341   2460
   3533   3326   2950
   3537   3305   3312
   3579   3296   3590
   3633   3971   2573
   3674   3948   3037
   3716   3921   3382
   3762   3891   3631
   3815   3849   3821
