Resources/LUT/Vintage Color.3dl
# 17x17x17 .3dl lookup table from LUT Buddy
0 128 256 384 512 640 768 896 1023
   197   197   743
   251   251   1026
   317   317   1443
   368   368   1799
   412   412   2105
   450   450   2363
   481   482   2584
   509   510   2778
   535   535   2957
   258   452   772
   291   468   1031
   342   500   1446
   388   532   1798
   429   565   2103
   464   593   2362
   495   619   2583
   521   642   2778
   546   663   2956
   517   1172   933
   528   1177   1178
   562   1189   1579
   596   1201   1919
   626   1213   2216
   651   1223   2467
   673   1233   2682
   693   1242   2873
   711   1249   3046
   835   1765   1110
   767   1768   1327
   773   1776   1714
   792   1784   2049
   817   1791   2340
   841   1798   2587
   861   1802   2798
   878   1808   2983
   894   1811   3152
   1140   2278   1324
   1060   2283   1510
   975   2289   1853
   987   2295   2176
   999   2297   2461
   1012   2303   2703
   1028   2306   2910
   1044   2308   3092
   1058   2307   3258
   1393   2728   1531
   1315   2732   1712
   1202   2737   2006
   1159   2741   2307
   1170   2743   2583
   1178   2743   2817
   1187   2745   3018
   1199   2745   3197
   1213   2744   3359
   1617   3138   1728
   1535   3140   1918
   1426   3143   2177
   1344   3145   2450
   1333   3146   2712
   1343   3145   2936
   1353   3142   3128
   1362   3140   3299
   1372   3137   3458
   1823   3517   1919
   1739   3518   2129
   1639   3522   2363
   1549   3520   2612
   1499   3517   2850
   1499   3515   3061
   1509   3510   3245
   1518   3505   3410
   1526   3499   3559
   1979   3829   2121
   1894   3830   2322
   1801   3831   2542
   1716   3831   2774
   1656   3826   2990
   1636   3821   3184
   1644   3817   3358
   1653   3811   3514
   1662   3801   3659
   270   197   743
   311   249   1015
   370   316   1434
   420   367   1789
   465   411   2097
   502   449   2356
   534   481   2577
   562   509   2772
   588   535   2951
   320   451   772
   348   467   1027
   398   500   1441
   444   533   1794
   485   565   2099
   520   594   2357
   551   619   2579
   579   643   2773
   604   663   2951
   572   1170   933
   584   1176   1179
   619   1189   1579
   653   1201   1919
   683   1213   2214
   710   1223   2466
   733   1233   2680
   753   1242   2871
   773   1249   3042
   890   1762   1110
   824   1767   1332
   832   1775   1718
   851   1782   2051
   878   1790   2340
   904   1796   2587
   925   1801   2796
   944   1807   2982
   961   1810   3150
   1197   2276   1324
   1116   2281   1518
   1037   2287   1861
   1050   2293   2182
   1064   2295   2465
   1079   2300   2705
   1098   2303   2912
   1115   2304   3092
   1132   2305   3257
   1454   2724   1530
   1374   2730   1721
   1265   2735   2018
   1230   2737   2318
   1241   2740   2591
   1253   2742   2822
   1263   2742   3022
   1274   2741   3198
   1287   2740   3358
   1683   3132   1726
   1598   3138   1932
   1493   3141   2192
   1415   3142   2465
   1406   3142   2723
   1416   3140   2943
   1425   3139   3133
   1434   3133   3303
   1442   3130   3458
   1882   3511   1935
   1795   3513   2143
   1697   3515   2381
   1612   3515   2630
   1566   3511   2864
   1569   3507   3071
   1578   3502   3251
   1590   3497   3414
   1603   3491   3563
   2030   3823   2143
   1944   3822   2342
   1856   3823   2568
   1780   3822   2798
   1730   3820   3011
   1716   3815   3201
   1732   3810   3371
   1754   3803   3526
   1779   3795   3667
   452   214   750
   475   259   1013
   516   322   1432
   556   372   1786
   594   416   2094
   627   453   2353
   657   485   2574
   684   513   2770
   710   539   2947
   501   461   780
   521   477   1031
   557   508   1445
   593   541   1796
   628   572   2100
   660   601   2358
   690   627   2578
   717   649   2772
   743   671   2949
   717   1175   938
   732   1183   1186
   767   1195   1583
   798   1207   1922
   826   1219   2218
   853   1230   2467
   877   1239   2681
   899   1249   2872
   922   1257   3043
   1038   1765   1129
   968   1772   1346
   971   1781   1728
   995   1788   2059
   1026   1796   2347
   1054   1803   2591
   1079   1808   2799
   1103   1814   2984
   1126   1818   3150
   1337   2276   1352
   1269   2283   1546
   1179   2292   1876
   1195   2297   2195
   1216   2302   2476
   1240   2306   2713
   1267   2309   2917
   1293   2312   3097
   1319   2314   3260
   1589   2725   1561
   1534   2730   1763
   1433   2739   2043
   1385   2742   2335
   1406   2745   2604
   1428   2748   2833
   1449   2749   3033
   1474   2748   3207
   1502   2748   3366
   1814   3132   1754
   1769   3136   1986
   1682   3142   2232
   1608   3146   2492
   1592   3147   2743
   1616   3145   2960
   1640   3144   3150
   1665   3141   3318
   1692   3139   3472
   2021   3510   1988
   1986   3513   2211
   1915   3516   2435
   1843   3517   2668
   1800   3517   2893
   1806   3515   3094
   1834   3509   3274
   1864   3505   3433
   1896   3498   3581
   2197   3821   2214
   2166   3823   2427
   2109   3825   2638
   2050   3827   2852
   2013   3825   3051
   2005   3821   3234
   2028   3817   3400
   2063   3811   3551
   2102   3801   3687
   1050   339   808
   1060   367   1058
   1081   416   1467
   1101   453   1818
   1121   487   2123
   1140   517   2381
   1158   544   2600
   1174   569   2795
   1191   592   2972
   1081   530   830
   1091   548   1076
   1112   581   1481
   1132   607   1829
   1152   634   2133
   1172   659   2389
   1190   682   2607
   1209   703   2800
   1227   723   2975
   1237   1215   978
   1249   1223   1225
   1268   1234   1617
   1286   1246   1954
   1305   1257   2247
   1323   1268   2495
   1341   1278   2710
   1360   1286   2897
   1378   1295   3067
   1441   1790   1189
   1447   1798   1406
   1427   1812   1764
   1451   1820   2090
   1472   1828   2375
   1493   1834   2616
   1513   1840   2821
   1533   1845   3005
   1553   1850   3171
   1653   2297   1396
   1665   2303   1622
   1612   2317   1919
   1610   2324   2229
   1631   2330   2507
   1658   2335   2741
   1682   2336   2942
   1705   2337   3118
   1730   2340   3281
   1857   2742   1591
   1873   2745   1838
   1833   2757   2101
   1782   2766   2374
   1796   2770   2638
   1819   2772   2864
   1844   2773   3059
   1871   2773   3231
   1900   2773   3388
   2055   3148   1782
   2072   3149   2058
   2045   3156   2300
   1993   3166   2540
   1968   3169   2779
   1989   3167   2993
   2016   3166   3177
   2043   3163   3344
   2072   3159   3495
   2250   3524   2034
   2269   3524   2285
   2250   3527   2512
   2205   3530   2729
   2171   3533   2937
   2168   3532   3129
   2196   3527   3303
   2229   3523   3461
   2263   3517   3604
   2423   3831   2266
   2444   3831   2507
   2431   3835   2719
   2398   3837   2919
   2373   3839   3102
   2366   3837   3274
   2384   3832   3434
   2421   3824   3581
   2462   3815   3715
   1533   453   865
   1540   466   1106
   1556   497   1513
   1572   544   1857
   1588   581   2155
   1603   609   2411
   1618   633   2628
   1632   654   2821
   1646   673   2997
   1555   616   882
   1564   626   1125
   1581   651   1527
   1596   689   1868
   1613   719   2165
   1630   742   2418
   1645   762   2635
   1661   780   2827
   1677   797   3001
   1707   1257   1012
   1698   1266   1268
   1714   1278   1656
   1728   1293   1986
   1745   1303   2277
   1762   1314   2524
   1777   1323   2736
   1793   1331   2923
   1809   1339   3092
   1847   1853   1168
   1851   1849   1434
   1859   1848   1802
   1876   1855   2122
   1893   1864   2404
   1911   1871   2645
   1928   1876   2849
   1945   1881   3030
   1964   1885   3196
   2003   2332   1437
   2017   2336   1672
   2033   2343   1980
   2018   2356   2266
   2040   2361   2538
   2061   2365   2769
   2082   2369   2966
   2102   2371   3140
   2123   2372   3300
   2174   2771   1629
   2190   2774   1887
   2209   2778   2170
   2185   2791   2419
   2183   2798   2674
   2205   2800   2896
   2228   2800   3087
   2254   2800   3255
   2281   2799   3409
   2348   3172   1838
   2368   3174   2108
   2387   3176   2370
   2374   3184   2599
   2346   3192   2818
   2357   3192   3025
   2382   3191   3208
   2410   3188   3369
   2440   3183   3518
   2524   3544   2087
   2544   3543   2339
   2566   3543   2583
   2562   3548   2795
   2537   3551   2986
   2529   3552   3167
   2549   3549   3335
   2581   3541   3490
   2613   3535   3629
   2684   3849   2329
   2709   3849   2568
   2735   3848   2796
   2734   3849   2990
   2723   3851   3160
   2717   3851   3320
   2729   3846   3469
   2760   3839   3611
   2801   3828   3738
   1951   559   923
   1959   566   1154
   1972   588   1553
   1986   613   1895
   1998   649   2193
   2011   685   2446
   2024   713   2659
   2035   736   2850
   2048   756   3023
   1967   705   937
   1977   712   1173
   1990   731   1569
   2006   752   1908
   2019   785   2204
   2033   816   2452
   2047   841   2666
   2061   861   2855
   2074   878   3026
   2098   1300   1056
   2092   1314   1313
   2109   1324   1695
   2123   1335   2025
   2134   1351   2308
   2148   1365   2551
   2163   1375   2759
   2177   1383   2944
   2193   1391   3112
   2244   1878   1131
   2256   1884   1447
   2237   1886   1842
   2254   1894   2158
   2268   1903   2432
   2283   1910   2669
   2299   1915   2874
   2316   1920   3054
   2333   1924   3218
   2361   2397   1340
   2375   2401   1655
   2382   2396   2006
   2387   2389   2303
   2405   2394   2570
   2423   2399   2796
   2440   2401   2992
   2459   2404   3165
   2479   2406   3323
   2487   2816   1623
   2505   2807   1935
   2525   2812   2216
   2544   2818   2476
   2536   2828   2708
   2557   2830   2927
   2582   2829   3111
   2605   2830   3276
   2627   2829   3427
   2644   3202   1896
   2662   3203   2162
   2682   3205   2420
   2704   3207   2661
   2701   3214   2865
   2696   3218   3057
   2720   3217   3236
   2746   3213   3393
   2775   3208   3538
   2801   3570   2148
   2821   3569   2397
   2844   3569   2638
   2867   3567   2859
   2873   3568   3042
   2865   3571   3206
   2873   3570   3366
   2903   3563   3514
   2934   3555   3652
   2946   3872   2397
   2972   3870   2633
   2998   3867   2857
   3025   3865   3059
   3038   3863   3224
   3040   3863   3369
   3045   3860   3506
   3068   3852   3641
   3107   3841   3761
   2323   656   980
   2330   661   1202
   2342   677   1593
   2355   697   1932
   2366   718   2226
   2376   743   2477
   2388   772   2692
   2399   799   2879
   2411   822   3052
   2336   792   992
   2344   798   1223
   2357   811   1609
   2370   830   1945
   2384   850   2238
   2395   872   2487
   2407   899   2700
   2421   924   2886
   2433   945   3054
   2451   1347   1102
   2448   1364   1359
   2463   1373   1733
   2477   1384   2058
   2490   1395   2342
   2502   1407   2585
   2514   1422   2789
   2526   1433   2970
   2538   1444   3133
   2605   1907   1149
   2615   1913   1480
   2581   1926   1881
   2597   1934   2192
   2613   1941   2468
   2624   1949   2700
   2638   1958   2898
   2652   1964   3073
   2668   1968   3235
   2707   2425   1276
   2723   2427   1629
   2739   2432   2019
   2721   2424   2338
   2735   2429   2603
   2751   2434   2822
   2767   2438   3014
   2786   2441   3185
   2804   2443   3341
   2814   2875   1516
   2832   2878   1884
   2848   2881   2219
   2852   2870   2500
   2859   2858   2742
   2877   2859   2954
   2896   2861   3135
   2917   2862   3299
   2939   2862   3447
   2926   3254   1879
   2943   3247   2189
   2961   3239   2469
   2983   3240   2706
   3002   3242   2916
   3011   3244   3092
   3026   3242   3263
   3051   3242   3416
   3076   3237   3557
   3062   3602   2202
   3085   3597   2459
   3107   3595   2692
   3129   3595   2909
   3153   3592   3097
   3169   3589   3255
   3169   3591   3397
   3191   3585   3539
   3222   3577   3672
   3195   3892   2471
   3220   3892   2704
   3244   3890   2921
   3272   3886   3114
   3300   3881   3281
   3324   3876   3423
   3334   3871   3548
   3348   3864   3668
   3379   3851   3782
   2660   743   1034
   2666   748   1248
   2679   759   1631
   2689   776   1965
   2699   794   2257
   2709   812   2507
   2719   829   2720
   2731   851   2908
   2740   873   3078
   2670   874   1045
   2677   879   1270
   2689   891   1650
   2701   906   1980
   2714   923   2268
   2726   940   2517
   2737   956   2727
   2748   976   2914
   2759   998   3080
   2773   1397   1146
   2770   1416   1404
   2782   1426   1770
   2798   1435   2089
   2811   1445   2372
   2821   1455   2613
   2834   1464   2817
   2845   1476   2997
   2856   1488   3161
   2929   1937   1164
   2927   1947   1521
   2892   1969   1919
   2906   1977   2224
   2922   1983   2498
   2935   1989   2729
   2949   1995   2928
   2961   2002   3102
   2974   2009   3256
   3024   2449   1242
   3038   2456   1660
   3054   2461   2048
   3021   2462   2373
   3034   2467   2634
   3050   2469   2853
   3065   2473   3042
   3079   2477   3207
   3095   2481   3357
   3116   2905   1537
   3130   2906   1871
   3147   2905   2205
   3163   2906   2515
   3161   2894   2773
   3162   2893   2982
   3180   2893   3162
   3198   2895   3317
   3217   2894   3461
   3213   3310   1838
   3231   3311   2146
   3249   3310   2452
   3269   3311   2722
   3273   3293   2938
   3277   3276   3118
   3299   3273   3287
   3321   3271   3437
   3345   3265   3573
   3311   3653   2201
   3331   3645   2476
   3350   3635   2736
   3368   3626   2960
   3390   3620   3140
   3414   3616   3298
   3437   3610   3438
   3448   3608   3562
   3474   3597   3688
   3421   3923   2528
   3446   3916   2773
   3470   3912   2988
   3494   3908   3171
   3522   3901   3330
   3547   3891   3470
   3575   3881   3594
   3593   3871   3700
   3613   3856   3800
   2963   822   1086
   2969   826   1291
   2979   835   1667
   2989   847   1996
   2998   864   2284
   3009   880   2532
   3017   895   2743
   3026   909   2932
   3035   924   3099
   2970   949   1097
   2975   956   1316
   2986   965   1687
   2998   977   2013
   3010   993   2298
   3020   1009   2543
   3031   1023   2751
   3041   1036   2936
   3051   1050   3103
   3061   1446   1189
   3060   1467   1446
   3070   1478   1806
   3084   1487   2119
   3097   1496   2398
   3107   1506   2636
   3118   1516   2839
   3130   1524   3019
   3140   1533   3180
   3218   1968   1181
   3204   1985   1562
   3171   2012   1955
   3183   2020   2256
   3199   2025   2523
   3212   2031   2752
   3224   2036   2948
   3236   2042   3121
   3249   2048   3277
   3308   2479   1281
   3321   2485   1692
   3328   2492   2081
   3289   2501   2406
   3299   2505   2661
   3315   2508   2877
   3330   2512   3064
   3345   2515   3230
   3360   2517   3379
   3389   2928   1519
   3403   2929   1868
   3419   2934   2235
   3436   2936   2545
   3419   2932   2807
   3415   2928   3007
   3434   2929   3183
   3450   2929   3340
   3469   2927   3482
   3474   3347   1898
   3490   3344   2164
   3504   3341   2460
   3522   3336   2720
   3533   3326   2950
   3541   3314   3142
   3537   3305   3312
   3557   3302   3458
   3579   3296   3590
   3557   3704   2207
   3572   3700   2459
   3592   3698   2733
   3613   3693   2969
   3634   3689   3166
   3642   3667   3320
   3647   3642   3451
   3671   3630   3581
   3693   3620   3703
   3633   3971   2573
   3653   3961   2809
   3674   3948   3037
   3695   3936   3227
   3716   3921   3382
   3738   3908   3515
   3762   3891   3631
   3788   3873   3735
   3815   3849   3821
