Resources/LUT/War.3dl
# 17x17x17 .3dl lookup table from LUT Buddy
0 256 512 768 1023
   0   0   32
   80   92   297
   257   289   690
   453   518   1128
   578   658   1381
   293   718   437
   373   767   686
   514   903   1064
   702   1060   1481
   811   1172   1710
   1357   2489   1791
   1401   2521   1939
   1509   2594   2216
   1654   2682   2509
   1750   2738   2690
   2124   3328   2473
   2156   3345   2574
   2256   3389   2778
   2349   3425   2979
   2413   3461   3104
   2393   3581   2682
   2425   3581   2790
   2505   3630   2995
   2586   3662   3164
   2634   3694   3260
   44   0   32
   120   104   297
   269   289   690
   469   526   1112
   606   674   1381
   325   718   437
   405   783   702
   542   907   1072
   726   1072   1481
   843   1188   1722
   1385   2489   1799
   1433   2521   1951
   1542   2594   2224
   1670   2674   2513
   1762   2722   2674
   2156   3316   2473
   2204   3349   2594
   2288   3397   2798
   2397   3445   2995
   2477   3477   3124
   2445   3577   2698
   2513   3610   2839
   2602   3642   3035
   2694   3678   3180
   2770   3690   3276
   650   273   329
   698   345   554
   795   506   899
   951   718   1333
   1044   851   1582
   963   971   775
   1024   1028   975
   1120   1124   1313
   1252   1269   1706
   1357   1381   1947
   1951   2658   2031
   2011   2698   2164
   2128   2770   2417
   2244   2831   2674
   2329   2875   2827
   2634   3433   2630
   2698   3461   2754
   2790   3501   2943
   2891   3545   3116
   2983   3569   3240
   2939   3670   2867
   3043   3710   2991
   3156   3750   3188
   3268   3782   3320
   3389   3806   3413
   1730   951   1104
   1762   1003   1244
   1851   1108   1529
   1995   1281   1911
   2088   1405   2148
   2039   1481   1465
   2088   1534   1614
   2168   1634   1899
   2313   1782   2240
   2397   1883   2441
   2967   3015   2489
   3003   3035   2586
   3059   3076   2766
   3144   3144   2975
   3216   3176   3108
   3401   3622   2927
   3449   3650   3019
   3513   3698   3168
   3565   3706   3316
   3630   3734   3413
   3602   3822   3100
   3662   3842   3212
   3730   3887   3361
   3794   3891   3457
   3826   3903   3533
   2377   1349   1574
   2425   1397   1686
   2521   1509   1951
   2654   1662   2288
   2762   1782   2489
   2686   1863   1903
   2750   1927   2031
   2814   2007   2260
   2927   2140   2541
   2995   2228   2706
   3429   3204   2722
   3461   3220   2806
   3485   3252   2947
   3545   3296   3132
   3581   3341   3236
   3746   3730   3071
   3762   3746   3152
   3794   3762   3272
   3838   3790   3405
   3859   3794   3485
   3838   3887   3212
   3871   3887   3308
   3903   3919   3437
   3935   3935   3517
   3951   3919   3565
