Resources/LUT/War.3dl
# 17x17x17 .3dl lookup table from LUT Buddy
0 128 256 384 512 640 768 896 1023
   0   0   32
   30   30   124
   80   92   297
   154   170   469
   257   289   690
   369   423   927
   453   518   1128
   530   596   1256
   578   658   1381
   44   168   76
   60   184   186
   126   247   361
   200   309   548
   295   417   752
   405   516   995
   495   622   1174
   560   700   1329
   610   750   1441
   293   718   437
   309   734   514
   373   767   686
   435   827   865
   514   903   1064
   624   985   1289
   702   1060   1481
   763   1120   1608
   811   1172   1710
   746   1509   1024
   763   1513   1076
   797   1554   1212
   849   1590   1377
   921   1652   1570
   999   1704   1766
   1074   1762   1945
   1130   1805   2082
   1170   1853   2170
   1357   2489   1791
   1365   2497   1831
   1401   2521   1939
   1447   2545   2052
   1509   2594   2216
   1580   2632   2365
   1654   2682   2509
   1702   2706   2610
   1750   2738   2690
   1839   3043   2244
   1849   3043   2276
   1887   3069   2363
   1929   3092   2463
   1983   3118   2580
   2041   3150   2716
   2090   3166   2806
   2142   3186   2891
   2170   3208   2951
   2124   3328   2473
   2140   3328   2519
   2156   3345   2574
   2200   3373   2666
   2256   3389   2778
   2317   3425   2901
   2349   3425   2979
   2397   3457   3055
   2413   3461   3104
   2268   3471   2588
   2284   3487   2648
   2331   3503   2712
   2357   3511   2788
   2411   3535   2901
   2459   3551   3009
   2491   3581   3086
   2523   3600   3150
   2555   3602   3198
   2393   3581   2682
   2409   3581   2744
   2425   3581   2790
   2457   3614   2885
   2505   3630   2995
   2553   3662   3090
   2586   3662   3164
   2604   3678   3212
   2634   3694   3260
   0   0   32
   32   30   110
   80   92   297
   154   170   469
   257   281   690
   359   413   917
   453   518   1116
   530   596   1256
   578   658   1381
   46   168   76
   60   184   186
   126   247   361
   202   309   548
   295   417   752
   405   516   987
   499   626   1178
   560   688   1317
   610   750   1427
   293   718   433
   311   734   516
   373   767   686
   437   827   865
   514   903   1060
   624   985   1289
   702   1060   1481
   763   1120   1618
   811   1172   1710
   746   1509   1024
   763   1513   1076
   797   1554   1222
   859   1600   1377
   921   1634   1552
   1005   1704   1770
   1074   1762   1945
   1130   1805   2082
   1170   1853   2170
   1357   2489   1791
   1371   2497   1837
   1395   2513   1933
   1453   2545   2066
   1509   2586   2208
   1580   2632   2373
   1654   2682   2509
   1702   2706   2612
   1734   2722   2682
   1843   3031   2238
   1849   3043   2290
   1885   3063   2357
   1929   3092   2463
   1977   3112   2574
   2041   3150   2716
   2094   3166   2806
   2144   3192   2893
   2170   3198   2951
   2112   3316   2461
   2136   3324   2519
   2164   3345   2578
   2200   3373   2670
   2264   3389   2786
   2304   3413   2899
   2359   3425   2989
   2385   3445   3053
   2423   3473   3116
   2268   3473   2604
   2284   3487   2650
   2331   3503   2726
   2371   3521   2804
   2417   3541   2909
   2459   3551   3011
   2491   3567   3073
   2535   3600   3150
   2557   3602   3200
   2393   3581   2682
   2409   3581   2746
   2425   3581   2806
   2471   3614   2901
   2519   3630   3011
   2559   3646   3090
   2600   3662   3164
   2632   3692   3226
   2664   3694   3260
   44   0   32
   60   32   122
   120   104   297
   186   172   471
   269   289   690
   375   417   927
   469   526   1112
   542   606   1270
   606   674   1381
   74   168   90
   106   196   198
   168   249   375
   234   313   562
   317   411   752
   419   530   993
   510   626   1178
   576   700   1329
   638   750   1427
   325   718   437
   353   746   528
   405   783   702
   465   831   877
   542   907   1072
   642   991   1295
   726   1072   1481
   791   1120   1612
   843   1188   1722
   773   1509   1026
   793   1530   1092
   839   1562   1234
   887   1608   1399
   939   1640   1566
   1022   1714   1780
   1100   1772   1965
   1160   1821   2090
   1206   1859   2186
   1385   2489   1799
   1401   2501   1851
   1433   2521   1951
   1481   2562   2078
   1542   2594   2224
   1610   2634   2385
   1670   2674   2513
   1738   2710   2612
   1762   2722   2674
   1861   3037   2244
   1883   3057   2290
   1915   3065   2375
   1951   3086   2473
   2015   3118   2590
   2076   3146   2722
   2134   3172   2823
   2176   3198   2903
   2204   3204   2951
   2156   3316   2473
   2164   3337   2521
   2204   3349   2594
   2248   3377   2686
   2288   3397   2798
   2351   3413   2915
   2397   3445   2995
   2441   3469   3067
   2477   3477   3124
   2317   3487   2618
   2345   3499   2666
   2385   3503   2742
   2423   3533   2823
   2471   3535   2933
   2525   3567   3033
   2557   3587   3106
   2604   3602   3166
   2638   3616   3224
   2445   3577   2698
   2469   3594   2762
   2513   3610   2839
   2547   3614   2919
   2602   3642   3035
   2658   3674   3112
   2694   3678   3180
   2742   3694   3244
   2770   3690   3276
   261   64   90
   271   88   182
   305   154   359
   367   244   550
   439   347   748
   534   465   979
   620   566   1176
   688   654   1321
   732   716   1439
   321   244   198
   339   261   273
   371   313   453
   439   385   628
   502   467   825
   596   586   1054
   670   680   1248
   734   744   1389
   779   799   1491
   570   807   554
   582   821   618
   628   859   791
   676   905   949
   730   975   1148
   823   1056   1371
   889   1134   1554
   955   1182   1676
   1007   1230   1784
   969   1590   1120
   995   1600   1176
   1024   1634   1311
   1082   1674   1477
   1146   1734   1668
   1206   1778   1855
   1281   1837   2029
   1337   1887   2154
   1383   1917   2250
   1556   2545   1865
   1594   2558   1921
   1610   2578   2017
   1668   2618   2148
   1730   2644   2289
   1809   2698   2443
   1863   2716   2556
   1929   2764   2660
   1963   2770   2730
   2033   3090   2309
   2056   3096   2345
   2096   3108   2427
   2130   3132   2521
   2192   3160   2640
   2254   3182   2768
   2313   3220   2865
   2359   3242   2941
   2393   3240   2999
   2311   3361   2525
   2337   3361   2572
   2379   3393   2656
   2421   3409   2744
   2459   3425   2837
   2533   3461   2959
   2576   3471   3037
   2614   3493   3112
   2666   3513   3162
   2489   3519   2662
   2527   3519   2714
   2570   3545   2792
   2610   3567   2877
   2658   3583   2981
   2722   3596   3080
   2764   3626   3144
   2808   3642   3214
   2859   3662   3262
   2622   3598   2756
   2658   3628   2825
   2712   3650   2897
   2770   3662   2981
   2825   3678   3086
   2879   3704   3174
   2937   3726   3238
   2975   3742   3294
   3017   3742   3335
   650   273   329
   656   289   391
   698   345   554
   746   425   716
   795   506   899
   873   608   1120
   951   718   1333
   1003   787   1463
   1044   851   1582
   704   421   421
   714   437   485
   765   498   640
   801   552   803
   857   630   991
   949   724   1206
   1014   819   1399
   1066   887   1538
   1122   943   1652
   963   971   775
   979   975   827
   1024   1028   975
   1058   1062   1128
   1120   1124   1313
   1188   1204   1525
   1252   1269   1706
   1305   1325   1833
   1357   1381   1947
   1355   1732   1313
   1397   1754   1379
   1423   1789   1507
   1483   1829   1664
   1534   1879   1833
   1594   1947   2029
   1652   1985   2186
   1712   2036   2294
   1752   2068   2377
   1951   2658   2031
   1983   2682   2080
   2011   2698   2164
   2056   2730   2282
   2128   2770   2417
   2176   2794   2551
   2244   2831   2674
   2290   2867   2748
   2329   2875   2827
   2375   3168   2415
   2413   3182   2469
   2443   3188   2543
   2471   3208   2632
   2533   3240   2744
   2582   3270   2863
   2634   3294   2957
   2684   3318   3025
   2726   3326   3082
   2634   3433   2630
   2662   3441   2678
   2698   3461   2754
   2738   3475   2835
   2790   3501   2943
   2851   3529   3051
   2891   3545   3116
   2943   3557   3186
   2983   3569   3240
   2794   3573   2754
   2835   3592   2819
   2877   3616   2885
   2925   3626   2965
   2989   3648   3069
   3043   3672   3162
   3098   3696   3238
   3144   3704   3288
   3198   3718   3335
   2939   3670   2867
   2983   3692   2929
   3043   3710   2991
   3094   3726   3076
   3156   3750   3188
   3216   3772   3258
   3268   3782   3320
   3325   3790   3365
   3389   3806   3413
   1134   570   678
   1170   596   732
   1196   644   865
   1234   702   1011
   1285   775   1176
   1353   859   1379
   1443   975   1590
   1485   1030   1716
   1533   1088   1827
   1216   698   762
   1226   712   815
   1256   750   927
   1309   815   1090
   1363   883   1252
   1433   977   1465
   1495   1064   1646
   1550   1128   1784
   1608   1194   1907
   1489   1196   1082
   1493   1206   1130
   1521   1244   1254
   1566   1291   1397
   1608   1349   1574
   1684   1423   1764
   1750   1495   1955
   1821   1566   2094
   1859   1614   2194
   1891   1963   1622
   1903   1969   1676
   1935   1995   1776
   1981   2035   1915
   2045   2096   2076
   2120   2154   2248
   2178   2218   2393
   2238   2260   2489
   2286   2288   2580
   2463   2825   2252
   2489   2839   2298
   2523   2861   2379
   2562   2883   2471
   2618   2915   2592
   2680   2957   2724
   2724   2979   2821
   2786   3023   2919
   2810   3039   2967
   2831   3290   2594
   2857   3304   2636
   2891   3310   2696
   2921   3322   2780
   2977   3353   2885
   3033   3391   2995
   3065   3403   3075
   3120   3429   3140
   3168   3455   3198
   3031   3527   2774
   3065   3537   2820
   3108   3555   2897
   3160   3575   2971
   3206   3598   3067
   3268   3624   3164
   3302   3638   3226
   3361   3670   3300
   3393   3672   3345
   3188   3670   2901
   3246   3680   2961
   3278   3696   3017
   3318   3702   3092
   3379   3734   3180
   3421   3762   3268
   3479   3776   3332
   3501   3790   3381
   3547   3792   3423
   3337   3758   2993
   3383   3774   3065
   3425   3786   3124
   3471   3796   3196
   3519   3828   3298
   3561   3844   3363
   3598   3844   3409
   3648   3861   3455
   3684   3877   3485
   1730   951   1104
   1734   959   1136
   1762   1003   1244
   1803   1052   1371
   1851   1108   1529
   1923   1202   1724
   1995   1281   1911
   2052   1355   2047
   2088   1405   2148
   1784   1038   1166
   1786   1052   1210
   1815   1086   1307
   1873   1146   1441
   1925   1210   1600
   1991   1291   1788
   2064   1385   1985
   2114   1437   2112
   2174   1497   2232
   2039   1481   1465
   2047   1509   1509
   2088   1534   1614
   2118   1580   1740
   2168   1634   1899
   2238   1702   2076
   2313   1782   2240
   2357   1839   2357
   2397   1883   2441
   2467   2242   1971
   2493   2252   2017
   2513   2278   2100
   2574   2317   2216
   2596   2339   2327
   2654   2397   2471
   2706   2445   2592
   2750   2473   2686
   2792   2519   2764
   2967   3015   2489
   2975   3011   2517
   3003   3035   2586
   3023   3047   2670
   3059   3076   2766
   3112   3110   2885
   3144   3144   2975
   3182   3158   3047
   3216   3176   3108
   3242   3431   2772
   3260   3427   2808
   3288   3437   2865
   3312   3453   2935
   3345   3471   3021
   3387   3487   3116
   3425   3507   3190
   3453   3531   3244
   3481   3545   3296
   3401   3622   2927
   3421   3638   2963
   3449   3650   3019
   3481   3676   3082
   3513   3698   3168
   3547   3702   3254
   3565   3706   3316
   3608   3718   3363
   3630   3734   3413
   3509   3744   3021
   3539   3760   3071
   3569   3770   3122
   3591   3776   3192
   3636   3792   3270
   3658   3810   3337
   3688   3826   3395
   3728   3840   3439
   3748   3840   3473
   3602   3822   3100
   3622   3826   3152
   3662   3842   3212
   3698   3871   3280
   3730   3887   3361
   3750   3887   3411
   3794   3891   3457
   3810   3903   3501
   3826   3903   3533
   2126   1206   1399
   2142   1208   1431
   2172   1240   1523
   2220   1289   1636
   2268   1353   1793
   2337   1439   1989
   2399   1529   2146
   2431   1576   2268
   2509   1640   2379
   2200   1301   1463
   2202   1303   1491
   2234   1349   1592
   2280   1397   1722
   2319   1445   1855
   2383   1531   2041
   2461   1610   2196
   2509   1668   2331
   2572   1722   2425
   2459   1728   1752
   2471   1750   1801
   2489   1776   1883
   2535   1821   2001
   2570   1863   2128
   2638   1935   2282
   2696   2005   2425
   2754   2056   2533
   2776   2106   2612
   2839   2421   2184
   2855   2429   2216
   2885   2447   2299
   2919   2481   2387
   2951   2511   2491
   3005   2578   2634
   3031   2610   2738
   3084   2652   2827
   3108   2670   2881
   3266   3140   2636
   3264   3132   2658
   3288   3148   2724
   3318   3174   2794
   3339   3186   2879
   3377   3214   2983
   3405   3232   3071
   3433   3262   3134
   3457   3270   3182
   3495   3499   2883
   3509   3509   2911
   3523   3515   2963
   3537   3531   3021
   3565   3547   3108
   3596   3567   3204
   3618   3579   3254
   3640   3594   3314
   3670   3606   3363
   3620   3698   3023
   3636   3698   3055
   3652   3700   3104
   3668   3714   3166
   3700   3744   3240
   3730   3762   3316
   3746   3764   3365
   3750   3764   3411
   3780   3778   3457
   3710   3792   3102
   3728   3808   3148
   3740   3818   3192
   3760   3824   3246
   3778   3840   3335
   3794   3857   3391
   3826   3871   3439
   3842   3871   3471
   3871   3887   3503
   3760   3871   3180
   3776   3871   3214
   3792   3873   3262
   3826   3889   3343
   3857   3905   3407
   3871   3917   3453
   3889   3919   3487
   3905   3919   3533
   3921   3921   3549
   2377   1349   1574
   2391   1377   1604
   2425   1397   1686
   2451   1449   1809
   2521   1509   1951
   2592   1596   2132
   2654   1662   2288
   2698   1734   2395
   2762   1782   2489
   2437   1441   1620
   2469   1471   1666
   2471   1501   1758
   2533   1548   1875
   2582   1600   2013
   2646   1680   2188
   2716   1750   2331
   2760   1811   2439
   2808   1861   2535
   2686   1863   1903
   2720   1883   1949
   2750   1927   2031
   2780   1971   2134
   2814   2007   2260
   2879   2084   2403
   2927   2140   2541
   2947   2184   2626
   2995   2228   2706
   3049   2527   2305
   3063   2533   2341
   3088   2568   2409
   3118   2592   2491
   3146   2620   2592
   3184   2668   2712
   3214   2704   2812
   3242   2732   2895
   3270   2754   2959
   3429   3204   2722
   3429   3204   2744
   3461   3220   2806
   3469   3238   2877
   3485   3252   2947
   3533   3276   3047
   3545   3296   3132
   3565   3325   3188
   3581   3341   3236
   3636   3561   2945
   3646   3561   2977
   3658   3567   3031
   3668   3571   3080
   3690   3594   3162
   3706   3610   3240
   3732   3636   3298
   3750   3652   3349
   3764   3652   3395
   3746   3730   3071
   3746   3734   3104
   3762   3746   3152
   3784   3758   3212
   3794   3762   3272
   3826   3778   3347
   3838   3790   3405
   3842   3794   3439
   3859   3794   3485
   3790   3822   3148
   3806   3838   3180
   3818   3840   3226
   3838   3855   3288
   3871   3871   3373
   3873   3873   3421
   3903   3887   3469
   3903   3887   3501
   3919   3889   3533
   3838   3887   3212
   3869   3887   3244
   3871   3887   3308
   3887   3903   3373
   3903   3919   3437
   3919   3919   3469
   3935   3935   3517
   3967   3935   3549
   3951   3919   3565
