Resources/LUT/War.3dl
# 17x17x17 .3dl lookup table from LUT Buddy
   0   64   128   192   256   320   384   448   512   576   640   704   768   832   896   960   1023
   0   0   32
   0   0   32
   30   30   124
   48   48   205
   80   92   297
   112   139   380
   154   170   469
   201   233   580
   257   289   690
   305   344   801
   369   423   927
   417   481   1038
   453   518   1128
   497   562   1204
   530   596   1256
   547   627   1319
   578   658   1381
   15   47   32
   15   47   32
   32   61   125
   48   94   220
   96   127   316
   128   159   406
   170   202   490
   207   256   587
   264   305   698
   312   375   817
   375   432   933
   422   486   1049
   453   534   1128
   496   580   1194
   532   612   1272
   563   657   1348
   594   674   1381
   44   168   76
   44   168   76
   60   184   186
   91   215   281
   126   247   361
   158   278   456
   200   309   548
   248   356   647
   295   417   752
   344   466   870
   405   516   995
   452   579   1098
   495   622   1174
   531   657   1242
   560   700   1329
   593   719   1380
   610   750   1441
   138   418   231
   138   418   231
   154   435   313
   186   466   421
   230   482   513
   262   513   607
   309   544   698
   331   579   783
   387   622   890
   441   669   1000
   481   719   1111
   532   775   1219
   579   807   1303
   620   839   1375
   641   860   1440
   671   903   1504
   703   925   1555
   293   718   437
   293   714   433
   309   734   514
   341   746   607
   373   767   686
   405   799   766
   435   827   865
   478   869   969
   514   903   1064
   561   939   1174
   624   985   1289
   667   1016   1383
   702   1060   1481
   733   1095   1549
   763   1120   1608
   795   1156   1663
   811   1172   1710
   510   1094   697
   510   1094   697
   526   1119   776
   553   1123   844
   570   1153   934
   601   1169   1030
   612   1180   1098
   648   1200   1180
   693   1248   1299
   735   1276   1396
   788   1319   1506
   831   1346   1602
   868   1388   1691
   900   1407   1749
   932   1438   1827
   964   1468   1881
   980   1484   1928
   746   1509   1024
   746   1509   1024
   763   1513   1076
   779   1532   1149
   797   1554   1212
   827   1570   1298
   849   1590   1377
   885   1622   1465
   921   1652   1570
   952   1666   1663
   999   1704   1766
   1042   1752   1866
   1074   1762   1945
   1099   1789   2009
   1130   1805   2082
   1154   1837   2128
   1170   1853   2170
   1025   1958   1371
   1025   1958   1371
   1039   1981   1424
   1054   1996   1489
   1073   2015   1556
   1098   2034   1634
   1122   2058   1709
   1162   2082   1791
   1185   2095   1876
   1222   2131   1977
   1269   2161   2088
   1301   2186   2168
   1325   2208   2224
   1362   2240   2293
   1385   2249   2335
   1410   2272   2390
   1426   2279   2422
   1357   2489   1791
   1357   2489   1798
   1365   2497   1831
   1373   2497   1884
   1401   2521   1939
   1421   2524   1997
   1447   2545   2052
   1485   2571   2130
   1509   2594   2216
   1542   2610   2303
   1580   2632   2365
   1622   2658   2446
   1654   2682   2509
   1678   2698   2557
   1702   2706   2610
   1718   2706   2627
   1750   2738   2690
   1625   2813   2059
   1625   2813   2059
   1641   2822   2098
   1656   2832   2141
   1666   2839   2185
   1698   2853   2239
   1721   2862   2289
   1739   2878   2345
   1785   2902   2430
   1802   2919   2492
   1843   2941   2564
   1884   2960   2637
   1920   2980   2696
   1939   2974   2731
   1962   3006   2783
   1978   3006   2806
   1989   3017   2834
   1839   3043   2244
   1848   3043   2250
   1849   3043   2276
   1872   3066   2322
   1887   3069   2363
   1897   3080   2400
   1929   3092   2463
   1951   3092   2510
   1983   3118   2580
   2000   3124   2643
   2041   3150   2716
   2074   3166   2764
   2090   3166   2806
   2125   3188   2858
   2142   3186   2891
   2165   3208   2930
   2170   3208   2951
   2001   3206   2371
   2001   3206   2386
   2017   3211   2403
   2038   3227   2448
   2038   3227   2477
   2055   3227   2526
   2082   3243   2580
   2098   3254   2621
   2130   3270   2687
   2164   3286   2756
   2199   3296   2810
   2215   3318   2869
   2235   3318   2916
   2261   3323   2949
   2279   3337   2981
   2295   3340   3013
   2318   3362   3051
   2124   3328   2473
   2136   3328   2481
   2140   3328   2519
   2149   3332   2538
   2156   3345   2574
   2172   3345   2617
   2200   3373   2666
   2224   3377   2723
   2256   3389   2778
   2284   3400   2838
   2317   3425   2901
   2333   3425   2944
   2349   3425   2979
   2369   3433   3023
   2397   3457   3055
   2398   3458   3088
   2413   3461   3104
   2203   3395   2537
   2206   3411   2543
   2222   3411   2574
   2235   3437   2621
   2247   3440   2653
   2254   3440   2685
   2280   3450   2737
   2309   3456   2787
   2335   3472   2846
   2368   3488   2901
   2393   3491   2961
   2414   3501   3003
   2429   3517   3038
   2444   3520   3070
   2473   3533   3116
   2476   3552   3135
   2479   3539   3151
   2268   3471   2588
   2268   3473   2606
   2284   3487   2648
   2312   3498   2676
   2331   3503   2712
   2342   3503   2748
   2357   3511   2788
   2388   3535   2854
   2411   3535   2901
   2432   3549   2962
   2459   3551   3009
   2475   3567   3053
   2491   3581   3086
   2509   3570   3119
   2523   3600   3150
   2538   3600   3167
   2555   3602   3198
   2329   3533   2650
   2344   3533   2665
   2346   3534   2683
   2361   3534   2715
   2373   3545   2758
   2393   3549   2805
   2410   3566   2844
   2434   3581   2900
   2450   3582   2948
   2490   3598   3010
   2505   3599   3051
   2511   3615   3085
   2526   3615   3117
   2554   3630   3149
   2571   3647   3181
   2572   3647   3213
   2587   3647   3229
   2393   3581   2682
   2393   3581   2713
   2409   3581   2744
   2409   3581   2759
   2425   3581   2790
   2441   3598   2843
   2457   3614   2885
   2473   3614   2932
   2505   3630   2995
   2528   3630   3042
   2553   3662   3090
   2558   3646   3116
   2586   3662   3164
   2589   3662   3183
   2604   3678   3212
   2619   3694   3229
   2634   3694   3260
   0   0   32
   0   0   32
   30   30   124
   48   48   205
   80   92   297
   112   139   380
   154   170   469
   201   227   565
   249   281   682
   305   344   801
   369   423   927
   417   481   1038
   453   518   1116
   484   549   1178
   530   596   1256
   547   627   1318
   578   658   1381
   15   47   32
   15   47   32
   31   61   125
   48   94   220
   95   126   304
   127   155   406
   170   202   490
   207   256   587
   264   305   698
   312   375   817
   375   432   933
   422   486   1048
   453   534   1128
   496   577   1194
   532   612   1272
   563   643   1334
   594   674   1381
   44   168   76
   44   168   76
   60   184   186
   91   215   281
   126   247   361
   158   278   456
   200   309   548
   248   356   640
   295   417   752
   344   466   870
   405   516   987
   452   579   1098
   495   622   1174
   531   657   1240
   560   688   1317
   592   719   1380
   610   750   1441
   138   418   231
   138   418   231
   154   435   312
   186   466   421
   231   482   500
   262   513   596
   309   544   698
   331   579   783
   387   622   885
   434   662   993
   483   719   1113
   532   772   1216
   579   807   1303
   620   839   1375
   641   862   1440
   671   903   1504
   700   922   1552
   293   714   433
   293   714   433
   309   734   514
   341   746   607
   373   767   686
   405   799   766
   435   827   865
   478   869   969
   514   903   1060
   561   939   1174
   624   985   1289
   667   1016   1383
   698   1056   1481
   733   1095   1549
   763   1120   1608
   795   1156   1663
   811   1172   1710
   510   1094   697
   510   1094   697
   526   1119   776
   553   1123   844
   570   1153   934
   601   1169   1030
   615   1178   1097
   648   1200   1180
   693   1248   1299
   735   1276   1396
   783   1314   1501
   831   1346   1602
   868   1388   1691
   900   1407   1749
   932   1436   1827
   964   1468   1881
   980   1484   1928
   746   1509   1024
   746   1509   1024
   763   1513   1076
   779   1532   1149
   797   1554   1212
   827   1570   1298
   859   1600   1377
   891   1628   1471
   913   1636   1554
   957   1666   1663
   999   1704   1766
   1042   1752   1866
   1074   1762   1945
   1099   1789   2009
   1130   1805   2082
   1154   1837   2128
   1170   1853   2170
   1025   1958   1371
   1025   1967   1371
   1040   1981   1424
   1054   1996   1493
   1073   2015   1556
   1098   2034   1634
   1122   2058   1709
   1144   2055   1772
   1184   2093   1874
   1229   2131   1977
   1269   2161   2088
   1291   2176   2154
   1325   2208   2224
   1362   2240   2293
   1385   2256   2335
   1410   2272   2390
   1426   2286   2429
   1357   2489   1791
   1357   2489   1798
   1365   2497   1831
   1373   2497   1884
   1393   2513   1931
   1421   2524   1997
   1447   2545   2060
   1485   2571   2130
   1509   2594   2216
   1541   2594   2286
   1580   2632   2373
   1627   2658   2446
   1654   2682   2509
   1662   2674   2548
   1702   2706   2612
   1718   2706   2627
   1750   2738   2690
   1625   2813   2051
   1625   2813   2067
   1642   2822   2099
   1656   2832   2141
   1657   2830   2180
   1698   2853   2248
   1721   2862   2289
   1739   2885   2366
   1778   2895   2423
   1818   2919   2501
   1843   2941   2574
   1884   2960   2637
   1920   2971   2687
   1939   2974   2731
   1962   3006   2783
   1973   3007   2807
   1989   3017   2834
   1839   3043   2244
   1842   3037   2244
   1849   3043   2276
   1872   3066   2322
   1887   3069   2363
   1897   3070   2395
   1929   3092   2463
   1951   3092   2510
   1977   3112   2574
   2009   3124   2644
   2041   3150   2716
   2074   3166   2764
   2090   3166   2806
   2125   3188   2858
   2134   3182   2883
   2165   3208   2930
   2179   3208   2960
   2001   3206   2371
   2016   3211   2387
   2017   3211   2417
   2027   3216   2448
   2038   3227   2484
   2055   3222   2526
   2082   3243   2580
   2098   3254   2621
   2130   3270   2687
   2158   3277   2747
   2194   3286   2810
   2220   3318   2869
   2246   3318   2916
   2263   3323   2949
   2279   3337   2981
   2291   3350   3023
   2318   3362   3051
   2124   3328   2473
   2112   3316   2481
   2140   3328   2519
   2149   3332   2538
   2156   3345   2578
   2172   3345   2617
   2200   3373   2666
   2224   3377   2723
   2264   3389   2786
   2284   3400   2841
   2305   3414   2900
   2334   3425   2948
   2349   3425   2979
   2369   3444   3023
   2385   3445   3043
   2398   3457   3088
   2413   3461   3104
   2203   3395   2537
   2218   3411   2555
   2222   3411   2576
   2235   3437   2621
   2247   3440   2653
   2265   3443   2699
   2284   3447   2734
   2309   3456   2787
   2340   3477   2851
   2368   3488   2901
   2396   3491   2961
   2414   3501   3003
   2429   3517   3038
   2456   3520   3070
   2473   3533   3116
   2476   3539   3135
   2479   3539   3151
   2268   3471   2602
   2281   3486   2619
   2284   3487   2648
   2314   3500   2680
   2331   3503   2712
   2347   3503   2757
   2365   3513   2790
   2394   3535   2854
   2409   3535   2907
   2432   3549   2962
   2459   3551   3011
   2475   3567   3053
   2491   3568   3074
   2509   3570   3119
   2523   3600   3150
   2538   3600   3167
   2555   3602   3198
   2329   3533   2650
   2344   3533   2665
   2346   3534   2683
   2361   3534   2715
   2373   3545   2758
   2393   3549   2805
   2410   3566   2844
   2441   3581   2901
   2450   3582   2955
   2490   3598   3010
   2505   3599   3052
   2511   3615   3085
   2526   3615   3117
   2556   3630   3151
   2571   3647   3181
   2572   3647   3213
   2587   3647   3229
   2393   3581   2682
   2393   3581   2713
   2408   3581   2744
   2422   3581   2775
   2425   3581   2805
   2441   3598   2843
   2467   3614   2891
   2482   3614   2947
   2505   3630   2995
   2536   3630   3051
   2553   3656   3100
   2570   3646   3116
   2586   3662   3164
   2602   3662   3183
   2618   3678   3212
   2633   3694   3244
   2634   3694   3260
   0   0   32
   0   0   32
   32   30   110
   48   48   205
   80   92   297
   112   139   380
   154   170   469
   201   226   571
   257   281   690
   305   344   801
   359   413   917
   406   481   1033
   453   518   1116
   497   549   1191
   530   596   1256
   547   627   1318
   578   658   1381
   16   47   32
   16   47   32
   32   61   125
   48   94   220
   96   126   304
   127   155   406
   170   202   490
   207   256   582
   264   297   698
   312   375   817
   375   432   933
   422   486   1048
   453   534   1128
   485   577   1194
   532   612   1270
   563   643   1334
   594   674   1381
   46   168   76
   46   168   76
   60   184   186
   92   215   281
   126   247   361
   158   267   445
   202   309   548
   248   356   651
   295   417   752
   351   466   870
   405   516   987
   447   572   1082
   499   626   1178
   531   657   1240
   560   688   1317
   592   719   1380
   610   750   1427
   138   418   231
   138   418   231
   168   437   311
   199   466   419
   231   482   500
   262   513   596
   309   544   698
   340   579   787
   387   622   890
   434   662   993
   497   719   1114
   532   772   1216
   588   807   1299
   620   839   1372
   641   860   1438
   672   903   1504
   700   922   1552
   293   718   433
   293   718   433
   311   734   516
   342   747   607
   373   767   686
   405   810   766
   437   827   865
   478   869   969
   514   903   1060
   561   939   1174
   624   985   1289
   667   1016   1383
   702   1060   1481
   733   1095   1549
   763   1120   1618
   795   1156   1674
   811   1172   1710
   510   1094   697
   510   1094   697
   526   1119   779
   553   1123   844
   585   1153   934
   595   1147   1007
   616   1178   1097
   657   1200   1189
   696   1248   1302
   746   1276   1403
   789   1314   1501
   831   1346   1602
   868   1388   1691
   900   1407   1749
   932   1438   1827
   964   1468   1881
   980   1484   1928
   746   1509   1024
   746   1509   1024
   763   1513   1076
   779   1532   1149
   797   1554   1222
   827   1570   1298
   859   1600   1377
   891   1628   1471
   921   1634   1552
   958   1666   1669
   1005   1704   1770
   1042   1752   1866
   1074   1762   1945
   1106   1789   2009
   1130   1805   2082
   1154   1837   2128
   1170   1853   2170
   1025   1958   1371
   1025   1967   1371
   1041   1981   1433
   1057   1996   1493
   1073   2015   1556
   1098   2034   1634
   1122   2058   1709
   1144   2055   1772
   1184   2093   1874
   1229   2131   1977
   1259   2146   2078
   1296   2176   2154
   1330   2208   2229
   1362   2240   2293
   1385   2256   2335
   1410   2272   2390
   1426   2286   2429
   1357   2489   1791
   1357   2489   1798
   1371   2497   1837
   1381   2505   1892
   1395   2513   1933
   1424   2524   1997
   1453   2545   2066
   1485   2571   2130
   1509   2586   2208
   1541   2594   2286
   1580   2632   2373
   1627   2658   2446
   1654   2682   2509
   1662   2674   2548
   1702   2706   2612
   1718   2706   2627
   1734   2722   2682
   1625   2813   2051
   1625   2813   2067
   1643   2822   2100
   1641   2830   2136
   1657   2830   2180
   1698   2853   2248
   1721   2862   2289
   1739   2887   2366
   1779   2895   2423
   1818   2919   2501
   1843   2941   2574
   1875   2942   2628
   1920   2971   2691
   1939   2974   2735
   1941   2985   2769
   1974   3008   2808
   1996   3017   2834
   1843   3031   2238
   1843   3037   2244
   1849   3043   2290
   1872   3066   2322
   1885   3063   2357
   1897   3069   2401
   1929   3092   2463
   1945   3086   2504
   1977   3112   2574
   2015   3124   2644
   2041   3150   2716
   2074   3166   2764
   2094   3166   2806
   2119   3182   2858
   2144   3192   2893
   2170   3208   2935
   2170   3198   2951
   2001   3206   2371
   2017   3211   2387
   2017   3211   2408
   2035   3224   2453
   2043   3227   2484
   2055   3222   2526
   2082   3243   2585
   2102   3254   2628
   2129   3269   2692
   2160   3277   2754
   2194   3286   2810
   2220   3318   2869
   2246   3318   2916
   2263   3323   2949
   2274   3331   2978
   2295   3351   3024
   2323   3362   3056
   2112   3316   2461
   2123   3316   2481
   2136   3324   2519
   2152   3332   2550
   2164   3345   2578
   2172   3345   2617
   2200   3373   2670
   2224   3377   2727
   2264   3389   2786
   2284   3400   2842
   2304   3413   2899
   2334   3425   2948
   2359   3425   2989
   2369   3445   3026
   2385   3445   3053
   2398   3457   3088
   2423   3473   3116
   2203   3395   2537
   2218   3411   2558
   2222   3411   2587
   2238   3438   2621
   2251   3440   2653
   2265   3440   2696
   2288   3447   2741
   2316   3456   2787
   2345   3477   2851
   2377   3485   2905
   2399   3501   2971
   2401   3488   2992
   2441   3517   3038
   2457   3520   3070
   2460   3520   3105
   2476   3539   3135
   2479   3539   3154
   2268   3473   2604
   2281   3486   2619
   2284   3487   2650
   2326   3501   2682
   2331   3503   2726
   2347   3503   2759
   2371   3521   2804
   2393   3533   2859
   2417   3541   2909
   2427   3535   2957
   2459   3551   3011
   2475   3567   3053
   2491   3567   3073
   2510   3570   3121
   2535   3600   3150
   2539   3600   3167
   2557   3602   3200
   2329   3533   2650
   2344   3533   2666
   2346   3534   2683
   2362   3534   2716
   2378   3549   2763
   2394   3551   2806
   2410   3566   2844
   2441   3581   2909
   2457   3581   2963
   2490   3592   3004
   2504   3602   3047
   2523   3615   3089
   2538   3615   3120
   2556   3631   3152
   2573   3647   3181
   2587   3647   3213
   2602   3662   3244
   2393   3581   2682
   2377   3565   2698
   2409   3581   2746
   2425   3581   2775
   2425   3581   2806
   2452   3609   2854
   2471   3614   2901
   2489   3614   2948
   2519   3630   3011
   2537   3630   3051
   2559   3646   3090
   2570   3646   3116
   2600   3662   3164
   2616   3676   3194
   2632   3692   3226
   2650   3694   3245
   2664   3694   3260
   16   0   32
   16   0   32
   32   30   110
   48   48   202
   92   92   297
   123   139   380
   170   170   469
   201   217   571
   257   281   690
   305   344   801
   359   413   917
   406   481   1033
   453   514   1112
   497   549   1191
   530   594   1254
   547   627   1318
   578   658   1381
   16   47   32
   16   47   32
   32   61   125
   61   94   220
   96   137   315
   127   155   406
   170   201   490
   207   256   580
   264   304   698
   312   374   816
   375   432   927
   422   486   1040
   453   534   1128
   500   577   1194
   532   612   1270
   563   643   1334
