Resources/LUT/Warm and Fuzzy.3dl
# 17x17x17 .3dl lookup table from LUT Buddy
0 256 512 768 1023
   0   0   0
   34   32   707
   149   143   1465
   273   267   2059
   371   365   2515
   162   967   169
   198   980   767
   287   1018   1491
   384   1066   2074
   467   1113   2521
   489   2031   432
   511   2032   960
   564   2046   1614
   628   2066   2160
   689   2084   2581
   822   2907   676
   841   2903   1230
   944   2907   1814
   1038   2910   2306
   1118   2913   2687
   1309   3581   1040
   1350   3572   1563
   1405   3564   2086
   1479   3555   2506
   1562   3543   2837
   802   61   80
   827   102   725
   885   212   1466
   956   323   2058
   1025   415   2511
   964   1007   242
   995   1022   808
   1051   1059   1511
   1121   1107   2086
   1191   1153   2526
   1246   2053   486
   1283   2059   1018
   1341   2074   1653
   1410   2094   2186
   1481   2110   2595
   1584   2921   725
   1634   2918   1306
   1700   2921   1873
   1775   2924   2346
   1855   2926   2712
   1978   3584   1145
   2043   3574   1664
   2124   3565   2167
   2212   3555   2562
   2307   3540   2874
   1843   291   298
   1859   319   820
   1894   387   1511
   1935   468   2086
   1980   544   2530
   1954   1109   404
   1977   1123   912
   2017   1160   1570
   2066   1204   2124
   2119   1247   2551
   2151   2113   602
   2185   2120   1124
   2234   2135   1724
   2291   2153   2232
   2350   2171   2626
   2402   2955   873
   2450   2955   1416
   2509   2956   1956
   2577   2959   2402
   2646   2960   2750
   2696   3601   1286
   2761   3591   1793
   2835   3580   2266
   2916   3566   2631
   3004   3550   2922
   2742   518   500
   2754   539   954
   2773   589   1586
   2802   649   2134
   2831   707   2562
   2806   1245   578
   2822   1260   1044
   2851   1293   1651
   2886   1332   2177
   2923   1371   2585
   2927   2198   736
   2953   2205   1248
   2991   2221   1808
   3034   2239   2289
   3082   2256   2663
   3090   3008   1040
   3128   3007   1539
   3177   3009   2048
   3230   3011   2465
   3286   3010   2790
   3288   3628   1449
   3342   3617   1938
   3403   3603   2375
   3470   3585   2706
   3543   3561   2968
   3414   709   661
   3422   727   1081
   3437   768   1665
   3453   817   2186
   3475   866   2596
   3446   1387   725
   3456   1402   1168
   3477   1431   1731
   3500   1467   2230
   3527   1502   2619
   3511   2297   869
   3530   2303   1365
   3557   2318   1891
   3586   2336   2343
   3620   2353   2696
   3603   3074   1221
   3630   3071   1660
   3664   3073   2139
   3705   3073   2524
   3745   3073   2824
   3719   3662   1649
   3758   3645   2100
   3804   3626   2495
   3856   3597   2789
   3915   3553   3017
