Resources/LUT/Warm Beauty.3dl
# 17x17x17 .3dl lookup table from LUT Buddy
   0   64   128   192   256   320   384   448   512   576   640   704   768   832   896   960   1023
   0   0   0
   0   0   0
   0   0   18
   0   0   51
   0   0   105
   0   0   186
   0   0   281
   0   0   382
   0   0   486
   0   0   591
   0   0   701
   0   0   818
   0   0   943
   0   0   1072
   0   0   1209
   0   0   1357
   0   0   1522
   0   21   0
   0   21   0
   0   22   26
   0   22   72
   0   22   147
   0   22   250
   0   23   360
   0   23   475
   0   23   592
   0   23   713
   0   23   838
   0   23   966
   0   23   1101
   0   24   1240
   0   24   1388
   0   24   1549
   0   24   1735
   0   79   0
   0   78   0
   0   82   30
   0   83   83
   0   84   172
   0   85   282
   0   85   400
   0   86   521
   0   86   645
   0   87   774
   0   87   904
   0   87   1038
   0   88   1175
   0   88   1319
   0   89   1472
   0   89   1641
   0   90   1834
   0   203   0
   0   202   0
   0   210   34
   0   212   95
   0   214   193
   0   216   309
   0   218   432
   0   218   559
   0   219   690
   0   220   824
   0   221   957
   0   222   1095
   0   223   1235
   0   223   1380
   0   225   1539
   0   225   1715
   0   227   1911
   0   374   0
   0   373   0
   0   383   38
   0   387   106
   0   390   213
   0   392   335
   0   394   462
   0   396   594
   0   396   730
   0   398   868
   0   399   1005
   0   400   1144
   0   401   1287
   0   402   1438
   0   403   1600
   0   404   1781
   0   405   1982
   0   573   1
   0   572   1
   0   585   44
   0   590   119
   0   594   234
   0   597   360
   0   598   493
   0   600   629
   0   601   769
   0   603   912
   0   604   1050
   0   605   1191
   0   606   1336
   0   607   1490
   0   608   1657
   0   609   1840
   0   610   2047
   0   803   1
   0   802   1
   0   818   50
   0   824   134
   0   828   256
   0   831   388
   0   833   523
   0   836   664
   0   837   808
   0   839   953
   0   840   1094
   0   842   1237
   0   843   1385
   0   844   1542
   0   845   1712
   0   846   1901
   0   846   2109
   0   1052   1
   0   1054   3
   0   1071   58
   0   1077   152
   0   1080   280
   0   1083   415
   0   1086   556
   0   1088   699
   0   1091   849
   0   1091   995
   0   1092   1139
   0   1093   1283
   0   1095   1432
   0   1096   1594
   0   1097   1769
   0   1098   1960
   0   1098   2167
   0   1309   2
   0   1313   8
   0   1328   69
   0   1334   173
   0   1339   307
   0   1342   446
   0   1344   589
   0   1347   738
   0   1348   891
   0   1349   1039
   0   1350   1182
   0   1351   1329
   0   1352   1481
   0   1352   1646
   0   1352   1825
   0   1353   2021
   0   1354   2226
   0   1577   3
   0   1586   14
   0   1599   82
   0   1606   198
   0   1612   336
   0   1614   480
   0   1617   627
   0   1618   780
   0   1620   935
   0   1620   1083
   0   1621   1229
   0   1621   1378
   0   1621   1533
   0   1622   1701
   0   1621   1883
   0   1622   2080
   0   1622   2286
   0   1882   3
   0   1892   22
   0   1905   101
   0   1910   229
   0   1914   372
   0   1917   519
   0   1920   671
   0   1920   829
   0   1921   984
   0   1923   1134
   0   1920   1282
   0   1920   1430
   1   1922   1591
   2   1926   1769
   5   1944   1973
   9   1954   2184
   12   1962   2395
   0   2199   4
   0   2213   34
   1   2222   126
   1   2226   265
   1   2228   413
   1   2231   565
   1   2232   721
   1   2231   883
   1   2232   1040
   2   2234   1194
   5   2250   1355
   9   2259   1521
   12   2267   1693
   16   2272   1880
   19   2274   2075
   24   2279   2279
   28   2281   2490
   1   2529   5
   1   2546   50
   1   2552   161
   1   2555   310
   1   2555   463
   2   2559   622
   4   2568   791
   8   2582   965
   12   2588   1131
   16   2591   1288
   20   2594   1448
   24   2598   1615
   28   2599   1793
   34   2602   1983
   39   2602   2178
   46   2602   2375
   53   2602   2583
   2   2870   6
   5   2895   78
   9   2909   218
   12   2914   379
   15   2917   545
   18   2919   713
   21   2919   888
   24   2922   1060
   29   2923   1223
   35   2924   1382
   41   2922   1546
   47   2922   1719
   55   2922   1901
   63   2918   2090
   72   2921   2284
   82   2916   2483
   93   2916   2683
   19   3213   10
   23   3227   125
   27   3227   290
   31   3230   459
   35   3227   631
   40   3227   812
   45   3226   990
   50   3225   1161
   57   3224   1325
   66   3220   1488
   75   3218   1658
   86   3214   1836
   97   3214   2023
   111   3210   2210
   125   3207   2401
   141   3203   2598
   160   3200   2791
   44   3504   48
   51   3506   198
   57   3505   376
   64   3504   555
   71   3501   739
   78   3498   926
   86   3497   1107
   94   3493   1279
   104   3488   1444
   118   3485   1614
   133   3477   1791
   151   3476   1972
   170   3473   2159
   191   3467   2342
   212   3461   2532
   235   3457   2720
   258   3451   2905
   90   3745   108
   100   3743   296
   111   3740   486
   121   3737   678
   133   3733   874
   146   3729   1064
   159   3726   1246
   172   3720   1421
   187   3715   1590
   207   3709   1767
   229   3705   1948
   252   3699   2128
   276   3693   2309
   302   3687   2493
   328   3681   2677
   355   3673   2856
   385   3667   3029
   0   0   0
   0   0   0
   0   0   18
   0   0   52
   0   0   107
   0   0   191
   0   0   288
   0   0   391
   0   0   497
   0   0   604
   0   0   716
   0   0   835
   0   0   962
   0   0   1095
   0   0   1234
   0   0   1384
   1   0   1558
   0   22   0
   0   22   0
   0   23   27
   1   23   74
   1   24   154
   1   24   259
   1   24   372
   1   24   489
   1   25   609
   2   25   733
   2   25   861
   2   25   992
   2   26   1128
   3   26   1270
   3   26   1421
   4   26   1588
   4   26   1774
   1   83   0
   2   83   0
   2   87   31
   2   88   88
   3   90   181
   3   91   294
   3   91   415
   3   92   539
   4   93   667
   4   94   800
   5   95   933
   5   95   1069
   5   96   1209
   6   97   1356
   7   97   1513
   7   98   1686
   8   99   1883
   3   215   0
   4   215   0
   4   223   36
   5   226   101
   5   229   205
   6   231   325
   6   233   452
   7   234   582
   7   236   718
   8   237   855
   8   238   993
   9   240   1132
   10   242   1276
   10   243   1426
   11   244   1590
   12   245   1772
   13   247   1974
   6   394   0
   6   394   0
   7   404   42
   8   409   115
   8   412   229
   9   415   355
   10   417   487
   10   420   623
   11   422   764
   12   424   908
   13   426   1047
   14   427   1189
   15   429   1335
   15   431   1490
   16   433   1659
   17   435   1845
   19   436   2053
   9   601   1
   10   601   1
   11   616   48
   12   622   131
   13   627   253
   14   630   385
   14   633   522
   15   635   663
   16   638   810
   17   640   956
   18   643   1098
   20   645   1243
   21   647   1392
   22   648   1552
   23   651   1725
   25   653   1916
   26   655   2126
   13   842   2
   14   844   2
   16   861   57
   17   868   150
   18   874   279
   19   877   416
   20   881   557
   21   884   704
   23   887   856
   24   890   1004
   26   893   1148
   27   895   1296
   29   897   1449
   31   900   1612
   33   903   1790
   35   905   1985
   37   907   2195
   18   1103   2
   19   1105   6
   21   1123   67
   23   1131   173
   24   1136   308
   26   1140   449
   28   1145   595
   29   1149   747
   31   1151   904
   33   1154   1053
   35   1155   1199
   38   1158   1349
   40   1161   1505
   43   1163   1672
   45   1165   1856
   49   1167   2054
   52   1171   2264
   25   1369   3
   26   1376   12
   29   1392   81
   31   1400   198
   33   1405   339
   35   1410   486
   38   1415   636
   40   1419   794
   43   1421   951
   45   1423   1102
   48   1426   1251
   52   1429   1403
   55   1431   1563
   59   1434   1737
   63   1435   1924
   67   1438   2122
   72   1441   2331
   33   1651   4
   36   1663   19
   39   1679   98
   42   1686   228
   45   1693   375
   48   1698   525
   51   1701   681
   54   1706   843
   58   1710   1002
   62   1711   1155
   66   1715   1305
   70   1716   1460
   75   1719   1625
   80   1720   1802
   86   1723   1993
   92   1724   2191
   98   1727   2397
   45   1965   5
   48   1981   29
   52   1994   122
   57   2001   264
   61   2007   416
   65   2010   571
   69   2013   733
   74   2017   899
   79   2019   1059
   85   2020   1214
   90   2023   1366
   96   2024   1525
   103   2025   1694
   110   2026   1876
   118   2028   2067
   127   2029   2265
   137   2031   2471
   60   2285   6
   66   2303   44
   71   2311   156
   77   2319   307
   82   2323   464
   88   2329   625
   94   2330   793
   101   2331   961
   108   2331   1124
   116   2333   1279
   124   2335   1435
   133   2333   1599
   143   2336   1772
   153   2333   1958
   165   2336   2148
   177   2337   2347
   190   2338   2551
   81   2619   7
   90   2635   66
   97   2643   200
   105   2649   359
   112   2650   522
   121   2652   689
   130   2652   863
   139   2655   1034
   150   2652   1196
   161   2651   1352
   173   2651   1512
   185   2651   1681
   198   2651   1862
   211   2649   2047
   226   2648   2238
   240   2647   2433
   256   2646   2637
   112   2947   8
   125   2963   100
   135   2967   257
   146   2968   423
   158   2970   592
   170   2969   768
   181   2967   947
   195   2967   1118
   207   2965   1282
   222   2964   1441
   236   2962   1606
   251   2958   1780
   266   2956   1964
   283   2954   2149
   300   2950   2340
   318   2948   2535
   336   2945   2728
   160   3254   25
   177   3260   153
   190   3260   327
   205   3260   501
   219   3260   680
   233   3259   864
   249   3254   1043
   264   3253   1216
   281   3250   1380
   297   3247   1544
   315   3245   1716
   333   3240   1897
   352   3235   2078
   372   3231   2262
   392   3225   2452
   414   3223   2645
   436   3219   2833
   228   3523   65
   246   3525   232
   262   3525   415
   279   3523   599
   297   3519   788
   315   3516   977
   333   3511   1158
   352   3507   1331
   371   3504   1498
   391   3498   1669
   413   3496   1849
   434   3491   2029
   457   3485   2210
   481   3477   2392
   506   3475   2580
   531   3467   2764
   560   3464   2944
   316   3753   136
   336   3751   335
   357   3747   529
   375   3744   725
   397   3740   924
   418   3737   1116
   440   3731   1297
   463   3728   1472
   486   3722   1645
   510   3716   1823
   536   3710   2004
   563   3705   2182
   590   3699   2361
   619   3693   2541
   650   3685   2720
   682   3677   2894
   715   3669   3063
   22   0   0
   22   0   0
   23   0   20
   24   0   57
   24   0   118
   25   0   209
   25   0   310
   26   0   417
   26   0   526
   26   0   637
   27   0   753
   27   0   876
   28   0   1005
   29   0   1138
   29   0   1285
   30   0   1438
   31   0   1615
   35   25   0
   36   25   0
   38   26   29
   39   27   82
   40   27   170
   40   27   281
   41   28   398
   42   28   519
   43   28   644
   44   28   771
   45   28   902
   46   29   1036
   47   29   1174
   48   29   1317
   49   29   1471
   50   29   1640
   51   30   1833
   46   94   0
   46   94   0
   49   98   35
   50   100   98
   51   101   199
   53   102   317
   54   103   442
   55   103   571
   56   104   703
   58   105   839
   59   106   976
   60   106   1113
   62   107   1254
   63   108   1402
   65   108   1563
   67   109   1741
   68   109   1940
   56   237   0
   57   237   0
   61   245   41
   62   248   112
   64   251   224
   66   253   349
   67   254   480
   69   256   614
   71   257   753
   72   259   895
   74   260   1034
   76   260   1175
   78   262   1320
   80   263   1473
   82   264   1640
   85   266   1823
   87   267   2029
   68   422   1
   69   422   1
   74   434   47
   76   437   128
   78   441   249
   81   444   380
   83   445   515
   85   448   655
   87   450   801
   90   451   946
   92   452   1088
   94   454   1231
   97   455   1379
   100   457   1536
   103   458   1708
   106   460   1898
   110   461   2106
   82   636   2
   83   637   2
   89   651   55
   92   657   146
   95   661   275
   98   665   410
   101   667   551
   104   670   697
   107   672   846
   110   674   995
   113   675   1139
   117   677   1284
   120   679   1435
   124   681   1598
   128   682   1774
   133   683   1967
   138   686   2177
   98   884   2
   100   884   2
   107   902   64
   111   909   167
   115   913   302
   119   917   442
   122   921   588
   126   924   739
   130   926   892
   135   929   1042
   139   930   1189
   144   932   1336
   149   934   1492
   155   936   1658
   160   938   1838
   166   939   2036
   173   942   2243
   117   1146   3
   121   1151   9
   128   1167   76
   134   1172   191
   139   1178   331
   144   1183   476
   149   1186   626
   155   1190   782
   160   1192   939
   165   1194   1091
   171   1194   1239
   178   1197   1389
   184   1199   1547
   191   1201   1719
   198   1203   1904
   205   1204   2101
   213   1206   2312
   140   1416   4
   146   1423   15
   155   1437   91
   162   1445   218
   168   1450   363
   174   1455   513
   181   1459   668
   187   1461   828
   194   1464   988
   201   1468   1141
   208   1469   1290
   216   1470   1444
   223   1472   1606
   232   1474   1780
   240   1475   1971
   249   1477   2167
   258   1478   2373
   168   1700   4
   177   1713   23
   186   1726   111
   194   1735   249
   202   1741   400
   209   1745   554
   217   1749   713
   225   1751   878
   233   1754   1038
   241   1757   1192
   250   1757   1344
   259   1759   1501
   268   1761   1668
   278   1762   1847
   288   1763   2038
   299   1765   2234
   309   1766   2439
   201   2011   5
   212   2027   35
   223   2040   138
   232   2045   287
   241   2050   442
   250   2054   602
   260   2057   766
   269   2059   934
   278   2060   1096
   288   2062   1251
   299   2061   1405
   309   2062   1565
   320   2066   1737
   332   2065   1920
   343   2066   2113
   356   2066   2307
   369   2066   2513
   240   2329   7
   254   2344   53
   266   2355   175
   277   2360   332
   287   2364   492
   298   2367   657
   309   2368   828
   320   2368   998
   332   2369   1161
   343   2369   1317
   355   2370   1474
   368   2369   1640
   382   2369   1814
   395   2369   2001
   409   2369   2191
   423   2369   2386
   439   2367   2589
   287   2655   8
   304   2671   79
   317   2680   223
   329   2683   387
   342   2684   553
   354   2685   724
   367   2685   900
   381   2685   1071
   394   2684   1235
   408   2684   1391
   422   2682   1553
   437   2682   1723
   452   2680   1904
   468   2676   2090
   486   2675   2279
   503   2673   2474
   522   2670   2673
   343   2975   9
   363   2990   118
   379   2993   283
   393   2995   453
   408   2994   627
   423   2993   806
   437   2991   985
   453   2990   1156
   468   2987   1320
   486   2985   1481
   503   2984   1646
   520   2980   1823
   539   2975   2006
   558   2974   2192
   579   2969   2378
   600   2967   2572
   621   2963   2764
   416   3272   37
   435   3279   180
   453   3280   357
   471   3278   536
   488   3277   717
   505   3277   904
   523   3272   1083
   542   3268   1257
   560   3265   1421
   579   3261   1587
   600   3258   1760
   621   3253   1940
   644   3249   2120
   667   3246   2305
   692   3241   2492
   717   3235   2677
   744   3229   2864
   504   3536   85
   525   3537   263
   545   3535   451
   566   3533   637
   586   3529   830
   607   3527   1019
   629   3523   1201
   650   3519   1373
   673   3513   1541
   697   3508   1714
   721   3502   1893
   748   3497   2073
   774   3493   2252
   802   3486   2433
   832   3478   2618
   862   3475   2796
   894   3467   2972
   616   3759   170
   640   3757   372
   664   3753   570
   689   3749   769
   713   3745   969
   738   3740   1161
   764   3734   1342
   790   3731   1516
   816   3726   1692
   846   3719   1870
   876   3713   2048
   905   3707   2224
   935   3701   2401
   968   3693   2580
   1002   3687   2754
   1037   3679   2923
   1071   3671   3090
   78   0   0
   79   0   0
   82   0   21
   84   0   60
   85   0   124
   87   0   217
   88   0   320
   89   0   429
   90   0   540
   92   0   653
   93   0   772
   95   0   899
   96   0   1030
   99   0   1168
   100   0   1312
   102   0   1466
   104   0   1644
   122   27   0
   123   27   0
   129   28   31
   132   29   87
   135   29   178
   137   29   291
   139   30   410
   141   30   534
   143   30   661
   146   30   792
   148   31   924
   150   31   1058
   153   31   1197
   155   31   1342
   158   31   1498
   161   32   1670
