Resources/LUT/Warm Beauty.3dl
# 17x17x17 .3dl lookup table from LUT Buddy
0 128 256 384 512 640 768 896 1023
   0   0   0
   0   0   18
   0   0   105
   0   0   281
   0   0   486
   0   0   701
   0   0   943
   0   0   1209
   0   0   1522
   0   79   0
   0   82   30
   0   84   172
   0   85   400
   0   86   645
   0   87   904
   0   88   1175
   0   89   1472
   0   90   1834
   0   374   0
   0   383   38
   0   390   213
   0   394   462
   0   396   730
   0   399   1005
   0   401   1287
   0   403   1600
   0   405   1982
   0   803   1
   0   818   50
   0   828   256
   0   833   523
   0   837   808
   0   840   1094
   0   843   1385
   0   845   1712
   0   846   2109
   0   1309   2
   0   1328   69
   0   1339   307
   0   1344   589
   0   1348   891
   0   1350   1182
   0   1352   1481
   0   1352   1825
   0   1354   2226
   0   1882   3
   0   1905   101
   0   1914   372
   0   1920   671
   0   1921   984
   0   1920   1282
   1   1922   1591
   5   1944   1973
   12   1962   2395
   1   2529   5
   1   2552   161
   1   2555   463
   4   2568   791
   12   2588   1131
   20   2594   1448
   28   2599   1793
   39   2602   2178
   53   2602   2583
   19   3213   10
   27   3227   290
   35   3227   631
   45   3226   990
   57   3224   1325
   75   3218   1658
   97   3214   2023
   125   3207   2401
   160   3200   2791
   90   3745   108
   111   3740   486
   133   3733   874
   159   3726   1246
   187   3715   1590
   229   3705   1948
   276   3693   2309
   328   3681   2677
   385   3667   3029
   22   0   0
   23   0   20
   24   0   118
   25   0   310
   26   0   526
   27   0   753
   28   0   1005
   29   0   1285
   31   0   1615
   46   94   0
   49   98   35
   51   101   199
   54   103   442
   56   104   703
   59   106   976
   62   107   1254
   65   108   1563
   68   109   1940
   68   422   1
   74   434   47
   78   441   249
   83   445   515
   87   450   801
   92   452   1088
   97   455   1379
   103   458   1708
   110   461   2106
   98   884   2
   107   902   64
   115   913   302
   122   921   588
   130   926   892
   139   930   1189
   149   934   1492
   160   938   1838
   173   942   2243
   140   1416   4
   155   1437   91
   168   1450   363
   181   1459   668
   194   1464   988
   208   1469   1290
   223   1472   1606
   240   1475   1971
   258   1478   2373
   201   2011   5
   223   2040   138
   241   2050   442
   260   2057   766
   278   2060   1096
   299   2061   1405
   320   2066   1737
   343   2066   2113
   369   2066   2513
   287   2655   8
   317   2680   223
   342   2684   553
   367   2685   900
   394   2684   1235
   422   2682   1553
   452   2680   1904
   486   2675   2279
   522   2670   2673
   416   3272   37
   453   3280   357
   488   3277   717
   523   3272   1083
   560   3265   1421
   600   3258   1760
   644   3249   2120
   692   3241   2492
   744   3229   2864
   616   3759   170
   664   3753   570
   713   3745   969
   764   3734   1342
   816   3726   1692
   876   3713   2048
   935   3701   2401
   1002   3687   2754
   1071   3671   3090
   192   0   0
   201   0   22
   208   0   127
   213   0   328
   219   0   552
   224   0   789
   230   0   1048
   237   0   1334
   244   0   1668
   326   105   0
   340   110   39
   350   113   217
   358   115   468
   366   117   738
   373   118   1015
   381   120   1298
   390   121   1613
   400   123   1997
   411   452   2
   427   463   53
   440   471   272
   452   476   547
   463   480   841
   473   483   1132
   484   486   1427
   497   489   1764
   511   492   2165
   493   930   3
   513   948   74
   530   960   329
   546   966   624
   560   972   938
   576   975   1236
   592   979   1544
   609   981   1897
   628   985   2300
   581   1470   5
   608   1493   107
   630   1505   397
   650   1513   710
   670   1518   1036
   691   1521   1340
   713   1524   1662
   737   1528   2029
   764   1529   2428
   684   2068   7
   720   2096   167
   749   2105   483
   775   2111   817
   802   2112   1150
   831   2115   1462
   861   2115   1798
   894   2115   2171
   929   2115   2567
   818   2702   9
   866   2724   264
   902   2729   604
   937   2729   959
   972   2726   1294
   1009   2722   1617
   1047   2717   1971
   1089   2714   2340
   1134   2708   2724
   1015   3302   64
   1063   3304   413
   1106   3301   783
   1149   3293   1152
   1195   3287   1489
   1243   3278   1833
   1293   3267   2192
   1346   3259   2554
   1404   3247   2913
   1283   3765   240
   1339   3759   647
   1391   3749   1052
   1447   3738   1421
   1504   3729   1773
   1565   3715   2123
   1629   3701   2471
   1696   3687   2814
   1767   3670   3132
   525   0   0
   541   0   22
   553   0   135
   562   0   343
   573   0   574
   583   0   818
   592   0   1080
   602   0   1366
   613   0   1708
   752   114   1
   772   119   42
   788   123   229
   800   125   486
   813   127   762
   824   129   1042
   836   131   1329
   847   132   1647
   862   134   2034
   884   475   2
   909   487   59
   930   495   288
   945   500   570
   959   503   870
   976   507   1163
   991   509   1462
   1007   511   1801
   1026   514   2201
   1005   964   4
   1035   983   84
   1059   994   351
   1078   1001   652
   1098   1006   970
   1116   1009   1270
   1136   1013   1581
   1159   1016   1939
   1182   1018   2337
   1124   1511   6
   1162   1536   124
   1189   1547   424
   1213   1554   746
   1238   1558   1074
   1262   1561   1380
   1289   1564   1705
   1316   1567   2074
   1347   1570   2467
   1254   2112   8
   1300   2138   194
   1333   2147   519
   1362   2151   859
   1394   2152   1193
   1425   2152   1507
   1460   2152   1848
   1495   2152   2217
   1535   2152   2606
   1414   2736   12
   1471   2759   303
   1510   2760   650
   1547   2759   1009
   1588   2758   1343
   1627   2752   1669
   1670   2747   2024
   1714   2740   2388
   1761   2735   2764
   1641   3322   98
   1693   3323   467
   1738   3317   846
   1782   3311   1214
   1827   3302   1550
   1874   3292   1896
   1923   3281   2247
   1976   3269   2605
   2031   3259   2952
   1923   3771   312
   1974   3763   725
   2023   3753   1130
   2073   3740   1496
   2123   3729   1849
   2175   3715   2194
   2232   3699   2535
   2290   3684   2863
   2352   3667   3170
   954   0   0
   977   0   24
   995   0   144
   1009   0   358
   1022   0   594
   1031   0   841
   1046   0   1107
   1059   0   1394
   1075   1   1738
   1250   123   1
   1274   128   44
   1294   132   240
   1309   136   502
   1323   137   782
   1337   139   1065
   1349   141   1353
   1364   143   1672
   1380   145   2060
   1410   494   2
   1440   506   64
   1465   515   303
   1483   520   589
   1501   524   895
   1517   528   1189
   1535   530   1488
   1555   534   1830
   1576   537   2227
   1555   993   4
   1591   1012   93
   1618   1023   371
   1641   1030   677
   1664   1037   999
   1686   1039   1300
   1707   1042   1613
   1731   1045   1973
   1756   1048   2367
   1692   1545   6
   1735   1573   141
   1766   1584   450
   1792   1591   777
   1819   1595   1107
   1842   1598   1414
   1871   1600   1740
   1899   1602   2106
   1929   1604   2497
   1833   2148   8
   1883   2174   222
   1916   2183   553
   1947   2187   899
   1976   2188   1231
   2006   2188   1546
   2040   2187   1888
   2075   2185   2253
   2109   2185   2634
   2000   2772   29
   2049   2788   342
   2085   2788   696
   2121   2787   1057
   2156   2784   1389
   2192   2778   1718
   2230   2773   2071
   2272   2766   2429
   2314   2760   2794
   2208   3339   141
   2250   3339   523
   2292   3333   907
   2330   3326   1272
   2370   3316   1608
   2412   3305   1954
   2458   3293   2298
   2506   3281   2650
   2554   3267   2983
   2457   3776   389
   2502   3766   809
   2546   3756   1209
   2587   3742   1572
   2631   3729   1920
   2679   3715   2258
   2726   3699   2593
   2777   3681   2909
   2830   3663   3203
   1425   0   0
   1454   0   25
   1474   0   152
   1490   0   372
   1505   0   610
   1519   1   864
   1533   1   1130
   1549   1   1418
   1567   1   1765
   1775   132   1
   1803   138   47
   1825   142   250
   1843   146   516
   1857   148   801
   1872   150   1085
   1888   152   1373
   1903   154   1695
   1919   156   2082
   1952   513   3
   1984   526   70
   2007   535   317
   2027   541   607
   2044   544   916
   2061   549   1210
   2078   552   1512
   2096   554   1855
   2118   557   2249
   2093   1021   5
   2129   1041   103
   2155   1053   389
   2177   1059   700
   2197   1065   1023
   2219   1068   1325
   2238   1071   1641
   2261   1074   1999
   2284   1077   2387
   2221   1579   7
   2261   1606   160
   2291   1619   475
   2315   1625   806
   2340   1629   1136
   2363   1632   1445
   2387   1635   1774
   2414   1636   2136
   2445   1640   2519
   2349   2181   9
   2397   2209   249
   2427   2218   585
   2453   2221   935
   2483   2221   1266
   2513   2221   1582
   2542   2219   1927
   2575   2219   2287
   2609   2216   2658
   2505   2804   50
   2546   2816   383
   2580   2817   742
   2612   2814   1103
   2645   2809   1433
   2676   2803   1763
   2712   2798   2114
   2749   2792   2464
   2789   2784   2820
   2684   3356   194
   2722   3354   583
   2758   3349   970
   2792   3341   1330
   2828   3331   1667
   2866   3319   2008
   2904   3307   2349
   2948   3293   2688
   2989   3279   3012
   2891   3781   473
   2928   3771   898
   2966   3759   1292
   3001   3744   1652
   3038   3730   1995
   3076   3715   2326
   3121   3697   2652
   3165   3677   2953
   3212   3657   3233
   1961   0   0
   1992   1   27
   2014   1   161
   2033   1   386
   2049   1   630
   2064   1   886
   2077   2   1153
   2094   2   1443
   2112   2   1789
   2301   142   1
   2332   149   50
   2351   154   260
   2368   157   530
   2384   160   819
   2399   163   1105
   2414   165   1393
   2429   167   1716
   2447   169   2102
   2468   534   3
   2499   548   76
   2523   556   331
   2541   563   625
   2558   567   937
   2575   571   1233
   2593   573   1534
   2611   576   1879
   2632   580   2268
   2602   1051   5
   2633   1071   114
   2658   1082   408
   2677   1089   723
   2698   1095   1048
   2718   1099   1350
   2737   1103   1667
   2758   1105   2025
   2781   1110   2407
   2713   1618   8
   2750   1644   180
   2775   1656   500
   2797   1663   835
   2819   1668   1165
   2842   1671   1473
   2865   1674   1804
   2889   1675   2165
   2915   1677   2540
   2821   2221   13
   2862   2248   279
   2887   2254   619
   2912   2257   973
   2938   2257   1303
   2963   2257   1620
   2987   2256   1963
   3017   2256   2319
   3045   2254   2680
   2948   2839   83
   2982   2847   426
   3008   2848   790
   3034   2843   1151
   3063   2841   1481
   3091   2834   1811
   3123   2826   2153
   3154   2821   2502
   3187   2813   2844
   3086   3379   254
   3117   3374   648
   3146   3368   1037
   3176   3359   1394
   3207   3348   1729
   3237   3336   2069
   3271   3323   2402
   3306   3307   2732
   3342   3293   3038
   3243   3788   569
   3273   3778   997
   3303   3764   1383
   3334   3749   1742
   3366   3733   2077
   3400   3717   2400
   3437   3698   2713
   3473   3675   3002
   3512   3653   3265
   2543   1   0
   2570   1   29
   2593   2   171
   2610   2   402
   2624   2   650
   2640   3   911
   2653   3   1179
   2667   3   1472
   2682   4   1818
   2833   155   2
   2856   162   54
   2874   168   272
   2890   172   546
   2904   175   838
   2915   177   1125
   2927   180   1414
   2941   183   1740
   2958   186   2123
   2965   558   4
   2990   573   82
   3009   582   347
   3021   588   645
   3037   593   960
   3050   598   1256
   3064   600   1559
   3080   605   1902
   3098   608   2289
   3061   1086   6
   3087   1107   126
   3106   1118   428
   3125   1127   748
   3139   1132   1074
   3155   1137   1377
   3171   1140   1693
   3188   1145   2049
   3207   1148   2427
   3142   1659   8
   3172   1688   201
   3192   1700   526
   3211   1707   868
   3227   1713   1197
   3245   1716   1506
   3264   1719   1837
   3284   1722   2192
   3306   1723   2561
   3227   2275   42
   3253   2289   311
   3272   2298   657
   3293   2302   1012
   3314   2304   1342
   3334   2301   1660
   3356   2301   2000
   3378   2301   2350
   3402   2298   2704
   3315   2879   141
   3337   2884   473
   3360   2884   845
   3383   2883   1204
   3404   2877   1531
   3428   2869   1864
   3452   2863   2202
   3479   2858   2540
   3505   2850   2868
   3411   3405   344
   3435   3397   721
   3459   3391   1112
   3483   3381   1464
   3507   3370   1802
   3534   3358   2133
   3561   3344   2459
   3587   3330   2775
   3615   3314   3067
   3523   3799   679
   3547   3786   1107
   3571   3772   1489
   3596   3756   1841
   3622   3737   2170
   3650   3720   2487
   3678   3698   2784
   3709   3673   3052
   3741   3645   3300
   3091   2   0
   3113   3   31
   3127   3   183
   3139   4   419
   3151   4   673
   3161   5   938
   3175   5   1208
   3184   5   1502
   3195   6   1852
   3289   171   2
   3305   179   58
   3319   185   285
   3328   190   563
   3340   193   859
   3349   196   1148
   3359   199   1438
   3369   202   1764
   3381   205   2145
   3379   587   4
   3395   602   90
   3407   614   364
   3418   619   666
   3430   626   984
   3440   631   1281
   3451   634   1586
   3461   638   1931
   3477   642   2311
   3440   1126   7
   3460   1150   141
   3473   1161   450
   3487   1170   776
   3498   1175   1103
   3509   1180   1406
   3522   1186   1724
   3536   1188   2077
   3551   1193   2449
   3494   1712   13
   3514   1739   224
   3528   1752   557
   3543   1760   902
   3556   1764   1232
   3568   1769   1540
   3584   1771   1871
   3598   1775   2222
   3613   1777   2582
   3550   2329   80
   3565   2340   346
   3579   2349   698
   3594   2354   1056
   3610   2354   1383
   3626   2355   1703
   3643   2354   2040
   3660   2351   2382
   3677   2352   2725
   3603   2927   226
   3619   2927   527
   3635   2926   904
   3653   2924   1260
   3668   2919   1586
   3688   2915   1920
   3704   2907   2250
   3726   2900   2579
   3744   2891   2894
   3664   3434   469
   3680   3426   808
   3700   3418   1194
   3716   3409   1544
   3735   3397   1881
   3754   3386   2204
   3777   3369   2522
   3797   3353   2822
   3820   3335   3099
   3733   3813   857
   3751   3798   1238
   3770   3781   1613
   3790   3764   1959
   3810   3742   2278
   3831   3721   2585
   3854   3693   2867
   3880   3663   3117
   3905   3621   3345
