Resources/LUT/Warm Beauty.3dl
# 17x17x17 .3dl lookup table from LUT Buddy
0 256 512 768 1023
   0   0   0
   0   0   105
   0   0   486
   0   0   943
   0   0   1522
   0   374   0
   0   390   213
   0   396   730
   0   401   1287
   0   405   1982
   0   1309   2
   0   1339   307
   0   1348   891
   0   1352   1481
   0   1354   2226
   1   2529   5
   1   2555   463
   12   2588   1131
   28   2599   1793
   53   2602   2583
   90   3745   108
   133   3733   874
   187   3715   1590
   276   3693   2309
   385   3667   3029
   192   0   0
   208   0   127
   219   0   552
   230   0   1048
   244   0   1668
   411   452   2
   440   471   272
   463   480   841
   484   486   1427
   511   492   2165
   581   1470   5
   630   1505   397
   670   1518   1036
   713   1524   1662
   764   1529   2428
   818   2702   9
   902   2729   604
   972   2726   1294
   1047   2717   1971
   1134   2708   2724
   1283   3765   240
   1391   3749   1052
   1504   3729   1773
   1629   3701   2471
   1767   3670   3132
   954   0   0
   995   0   144
   1022   0   594
   1046   0   1107
   1075   1   1738
   1410   494   2
   1465   515   303
   1501   524   895
   1535   530   1488
   1576   537   2227
   1692   1545   6
   1766   1584   450
   1819   1595   1107
   1871   1600   1740
   1929   1604   2497
   2000   2772   29
   2085   2788   696
   2156   2784   1389
   2230   2773   2071
   2314   2760   2794
   2457   3776   389
   2546   3756   1209
   2631   3729   1920
   2726   3699   2593
   2830   3663   3203
   1961   0   0
   2014   1   161
   2049   1   630
   2077   2   1153
   2112   2   1789
   2468   534   3
   2523   556   331
   2558   567   937
   2593   573   1534
   2632   580   2268
   2713   1618   8
   2775   1656   500
   2819   1668   1165
   2865   1674   1804
   2915   1677   2540
   2948   2839   83
   3008   2848   790
   3063   2841   1481
   3123   2826   2153
   3187   2813   2844
   3243   3788   569
   3303   3764   1383
   3366   3733   2077
   3437   3698   2713
   3512   3653   3265
   3091   2   0
   3127   3   183
   3151   4   673
   3175   5   1208
   3195   6   1852
   3379   587   4
   3407   614   364
   3430   626   984
   3451   634   1586
   3477   642   2311
   3494   1712   13
   3528   1752   557
   3556   1764   1232
   3584   1771   1871
   3613   1777   2582
   3603   2927   226
   3635   2926   904
   3668   2919   1586
   3704   2907   2250
   3744   2891   2894
   3733   3813   857
   3770   3781   1613
   3810   3742   2278
   3854   3693   2867
   3905   3621   3345
