Resources/LUT/Warm and Fuzzy.3dl
# 17x17x17 .3dl lookup table from LUT Buddy
0 128 256 384 512 640 768 896 1023
   0   0   0
   8   7   299
   34   32   707
   82   78   1101
   149   143   1465
   215   208   1782
   273   267   2059
   325   319   2302
   371   365   2515
   47   454   61
   56   460   329
   84   478   720
   135   508   1106
   197   545   1465
   256   584   1782
   310   622   2058
   359   659   2299
   403   694   2512
   162   967   169
   171   970   404
   198   980   767
   239   996   1140
   287   1018   1491
   336   1042   1802
   384   1066   2074
   427   1090   2312
   467   1113   2521
   321   1501   298
   327   1503   515
   347   1508   850
   377   1519   1204
   415   1532   1540
   454   1547   1843
   493   1562   2108
   530   1577   2340
   564   1591   2543
   489   2031   432
   495   2030   649
   511   2032   960
   535   2040   1295
   564   2046   1614
   597   2057   1903
   628   2066   2160
   659   2076   2383
   689   2084   2581
   658   2505   559
   663   2503   792
   678   2504   1089
   698   2507   1404
   722   2512   1706
   749   2516   1982
   776   2522   2225
   838   2526   2440
   901   2532   2628
   822   2907   676
   828   2903   942
   841   2903   1230
   877   2905   1526
   944   2907   1814
   994   2909   2076
   1038   2910   2306
   1079   2910   2507
   1118   2913   2687
   1071   3274   798
   1095   3269   1112
   1121   3266   1390
   1150   3264   1671
   1183   3263   1943
   1219   3261   2188
   1255   3258   2400
   1291   3256   2587
   1329   3254   2757
   1309   3581   1040
   1326   3576   1295
   1350   3572   1563
   1377   3568   1831
   1405   3564   2086
   1442   3560   2311
   1479   3555   2506
   1519   3550   2680
   1562   3543   2837
   291   12   19
   302   20   303
   331   46   706
   374   93   1097
   424   161   1460
   476   225   1778
   526   283   2054
   573   334   2297
   616   380   2509
   372   470   82
   383   476   341
   408   494   725
   447   523   1109
   493   559   1466
   541   598   1782
   588   636   2058
   633   673   2298
   676   708   2509
   492   979   190
   503   982   421
   527   993   779
   561   1009   1149
   602   1031   1496
   646   1055   1806
   689   1078   2077
   732   1102   2314
   774   1126   2522
   646   1510   317
   658   1512   535
   681   1518   866
   712   1529   1218
   750   1543   1550
   790   1557   1850
   831   1573   2114
   871   1589   2345
   911   1603   2546
   825   2037   449
   839   2038   673
   861   2040   982
   891   2048   1314
   926   2056   1630
   964   2067   1916
   1002   2075   2170
   1039   2084   2391
   1077   2093   2586
   1012   2509   577
   1028   2509   821
   1051   2510   1117
   1082   2514   1428
   1115   2518   1727
   1151   2523   2000
   1188   2529   2241
   1225   2533   2450
   1263   2538   2637
   1199   2911   694
   1219   2909   977
   1245   2908   1264
   1275   2909   1557
   1309   2911   1840
   1345   2912   2098
   1383   2913   2324
   1421   2915   2521
   1460   2915   2697
   1399   3274   883
   1422   3271   1151
   1450   3267   1427
   1483   3266   1706
   1519   3264   1973
   1557   3263   2213
   1596   3260   2421
   1637   3258   2605
   1679   3254   2769
   1608   3581   1086
   1636   3575   1341
   1669   3571   1608
   1705   3566   1874
   1745   3562   2124
   1787   3558   2342
   1830   3552   2532
   1875   3548   2701
   1923   3538   2853
   802   61   80
   810   72   342
   827   102   725
   854   152   1108
   885   212   1466
   921   270   1782
   956   323   2058
   992   372   2300
   1025   415   2511
   867   512   146
   875   518   383
   894   535   750
   919   562   1125
   952   597   1478
   986   634   1791
   1022   670   2064
   1057   706   2303
   1092   739   2514
   964   1007   242
   975   1011   463
   995   1022   808
   1020   1038   1170
   1051   1059   1511
   1086   1083   1818
   1121   1107   2086
   1157   1130   2321
   1191   1153   2526
   1093   1531   359
   1106   1533   576
   1126   1540   899
   1153   1551   1243
   1184   1565   1571
   1218   1580   1866
   1252   1596   2127
   1287   1611   2353
   1322   1626   2553
   1246   2053   486
   1260   2054   714
   1283   2059   1018
   1309   2065   1343
   1341   2074   1653
   1375   2083   1936
   1410   2094   2186
   1445   2102   2403
   1481   2110   2595
   1411   2521   609
   1429   2523   863
   1453   2524   1156
   1482   2527   1461
   1515   2532   1755
   1549   2536   2023
   1586   2543   2260
   1623   2547   2465
   1660   2551   2649
   1584   2921   725
   1607   2918   1022
   1634   2918   1306
   1665   2919   1595
   1700   2921   1873
   1737   2922   2125
   1775   2924   2346
   1814   2924   2540
   1855   2926   2712
   1775   3280   943
   1801   3277   1202
   1832   3273   1475
   1866   3272   1749
   1905   3271   2011
   1945   3269   2245
   1986   3266   2447
   2030   3264   2626
   2073   3259   2787
   1978   3584   1145
   2008   3579   1399
   2043   3574   1664
   2082   3570   1923
   2124   3565   2167
   2167   3559   2378
   2212   3555   2562
   2257   3547   2726
   2307   3540   2874
   1331   168   186
   1336   179   410
   1350   204   764
   1368   243   1134
   1390   291   1484
   1416   340   1796
   1443   387   2068
   1470   431   2308
   1497   471   2517
   1381   576   237
   1389   582   450
   1403   598   793
   1423   624   1155
   1448   655   1499
   1474   689   1807
   1502   723   2077
   1530   756   2313
   1559   788   2521
   1460   1051   317
   1470   1055   526
   1486   1066   853
   1508   1083   1203
   1533   1103   1537
   1562   1126   1837
   1591   1149   2102
   1621   1172   2333
   1651   1194   2536
   1568   1564   421
   1579   1566   635
   1598   1574   945
   1621   1585   1279
   1649   1598   1599
   1679   1613   1889
   1709   1629   2145
   1740   1644   2368
   1773   1658   2565
   1699   2080   538
   1714   2080   769
   1734   2085   1066
   1760   2092   1382
   1789   2100   1685
   1820   2109   1961
   1854   2120   2207
   1887   2130   2420
   1922   2138   2608
   1846   2542   656
   1864   2541   919
   1888   2543   1206
   1916   2547   1503
   1948   2552   1789
   1981   2558   2052
   2017   2563   2283
   2051   2567   2485
   2088   2572   2665
   2003   2936   771
   2025   2933   1080
   2051   2934   1359
   2083   2935   1641
   2118   2937   1913
   2152   2938   2159
   2190   2939   2373
   2226   2939   2561
   2265   2940   2730
   2172   3292   1008
   2199   3288   1263
   2228   3285   1531
   2263   3282   1800
   2299   3281   2055
   2337   3280   2281
   2377   3276   2477
   2417   3273   2652
   2460   3269   2807
   2350   3591   1213
   2381   3586   1466
   2415   3580   1726
   2454   3576   1981
   2493   3572   2215
   2536   3565   2419
   2579   3560   2596
   2623   3552   2754
   2671   3545   2898
   1843   291   298
   1848   299   495
   1859   319   820
   1874   349   1173
   1894   387   1511
   1913   428   1817
   1935   468   2086
   1958   507   2322
   1980   544   2530
   1887   658   338
   1894   664   533
   1906   678   851
   1923   701   1197
   1943   729   1530
   1966   760   1831
   1988   792   2097
   2012   822   2329
   2037   851   2533
   1954   1109   404
   1962   1113   604
   1977   1123   912
   1995   1139   1247
   2017   1160   1570
   2042   1181   1864
   2066   1204   2124
   2092   1226   2350
   2119   1247   2551
   2044   1607   496
   2054   1610   707
   2071   1617   1004
   2092   1628   1325
   2115   1642   1635
   2141   1657   1918
   2168   1672   2169
   2196   1687   2388
   2224   1701   2581
   2151   2113   602
   2167   2114   836
   2185   2120   1124
   2210   2127   1429
   2234   2135   1724
   2261   2144   1994
   2291   2153   2232
   2321   2162   2441
   2350   2171   2626
   2274   2568   711
   2291   2568   982
   2313   2570   1262
   2339   2575   1551
   2368   2581   1832
   2397   2585   2086
   2428   2591   2310
   2460   2595   2507
   2493   2598   2682
   2402   2955   873
   2425   2954   1144
   2450   2955   1416
   2479   2956   1691
   2509   2956   1956
   2543   2959   2194
   2577   2959   2402
   2610   2961   2586
   2646   2960   2750
   2546   3305   1076
   2571   3303   1329
   2600   3301   1592
   2632   3299   1853
   2666   3297   2101
   2701   3294   2320
   2738   3291   2509
   2777   3288   2678
   2817   3283   2829
   2696   3601   1286
   2727   3596   1538
   2761   3591   1793
   2798   3585   2041
   2835   3580   2266
   2874   3573   2461
   2916   3566   2631
   2959   3559   2784
   3004   3550   2922
   2325   410   405
   2329   417   587
   2337   433   886
   2349   458   1220
   2363   489   1547
   2380   524   1846
   2397   559   2108
   2414   593   2340
   2433   626   2545
   2356   747   437
   2361   753   622
   2372   766   918
   2386   786   1246
   2403   812   1568
   2419   839   1861
   2440   868   2121
   2459   896   2349
   2478   923   2549
   2408   1175   494
   2416   1179   687
   2428   1190   978
   2444   1206   1298
   2462   1224   1609
   2481   1245   1896
   2501   1266   2150
   2524   1287   2371
   2546   1307   2568
   2478   1658   574
   2488   1661   784
   2503   1669   1068
   2520   1680   1376
   2540   1693   1676
   2562   1708   1951
   2586   1722   2197
   2609   1737   2410
   2634   1751   2599
   2564   2153   670
   2577   2154   907
   2594   2160   1185
   2613   2166   1480
   2636   2175   1765
   2660   2185   2027
   2686   2194   2260
   2711   2203   2463
   2738   2212   2645
   2661   2600   770
   2677   2599   1050
   2698   2602   1323
   2720   2607   1603
   2744   2610   1874
   2770   2615   2122
   2798   2622   2341
   2828   2627   2532
   2857   2629   2701
   2766   2981   957
   2787   2979   1211
   2809   2979   1477
   2835   2979   1744
   2863   2982   2001
   2892   2982   2232
   2924   2984   2434
   2954   2984   2611
   2988   2984   2770
   2885   3324   1149
   2908   3322   1399
   2934   3319   1656
   2964   3316   1912
   2996   3314   2150
   3028   3310   2360
   3063   3307   2543
   3099   3304   2705
   3135   3300   2850
   3014   3614   1366
   3041   3608   1614
   3072   3602   1863
   3106   3597   2104
   3141   3591   2320
   3178   3583   2506
   3215   3576   2667
   3255   3566   2813
   3295   3556   2944
   2742   518   500
   2747   524   673
   2754   539   954
   2763   561   1272
   2773   589   1586
   2787   618   1876
   2802   649   2134
   2816   678   2360
   2831   707   2562
   2766   836   528
   2772   841   706
   2779   854   985
   2791   873   1299
   2805   895   1607
   2819   921   1894
   2835   947   2148
   2851   972   2369
   2868   997   2567
   2806   1245   578
   2813   1249   768
   2822   1260   1044
   2835   1274   1350
   2851   1293   1651
   2867   1312   1929
   2886   1332   2177
   2903   1352   2393
   2923   1371   2585
   2860   1713   649
   2869   1717   859
   2882   1725   1132
   2896   1735   1429
   2914   1748   1718
   2932   1762   1985
   2952   1777   2224
   2972   1791   2432
   2995   1805   2618
   2927   2198   736
   2939   2200   978
   2953   2205   1248
   2970   2211   1531
   2991   2221   1808
   3012   2230   2063
   3034   2239   2289
   3056   2247   2486
   3082   2256   2663
   3004   2635   839
   3020   2635   1118
   3037   2637   1384
   3057   2641   1655
   3079   2646   1918
   3103   2651   2159
   3126   2656   2370
   3152   2661   2556
   3178   2664   2720
   3090   3008   1040
   3107   3006   1280
   3128   3007   1539
   3151   3008   1799
   3177   3009   2048
   3203   3011   2271
   3230   3011   2465
   3257   3013   2636
   3286   3010   2790
   3184   3345   1224
   3205   3343   1470
   3231   3340   1722
   3257   3338   1970
   3284   3335   2200
   3312   3332   2402
   3343   3328   2577
   3374   3322   2733
   3406   3318   2870
   3288   3628   1449
   3314   3622   1694
   3342   3617   1938
   3372   3609   2170
   3403   3603   2375
   3436   3594   2551
   3470   3585   2706
   3507   3574   2843
   3543   3561   2968
   3107   618   586
   3110   625   752
   3115   638   1020
   3123   657   1323
   3134   682   1626
   3144   709   1908
   3154   736   2161
   3168   763   2383
   3179   788   2579
   3124   923   611
   3127   927   784
   3135   939   1051
   3144   956   1351
   3155   978   1648
   3168   1001   1926
   3180   1025   2174
   3194   1049   2392
   3208   1071   2584
   3152   1316   656
   3158   1320   843
   3165   1331   1108
   3177   1345   1403
   3190   1362   1692
   3204   1381   1962
   3220   1399   2204
   3235   1419   2416
   3251   1437   2603
   3194   1772   720
   3201   1776   930
   3211   1783   1195
   3224   1794   1480
   3238   1807   1760
   3254   1820   2020
   3270   1834   2252
   3287   1847   2453
   3306   1861   2635
   3244   2245   800
   3254   2247   1045
   3266   2252   1308
   3281   2259   1582
   3296   2267   1850
   3316   2277   2098
   3335   2287   2317
   3353   2295   2508
   3373   2302   2680
   3304   2673   967
   3316   2674   1184
   3331   2675   1443
   3347   2680   1706
   3365   2684   1962
   3387   2690   2194
   3407   2695   2399
   3429   2698   2577
   3451   2703   2739
   3367   3040   1129
   3382   3039   1347
   3400   3038   1600
   3420   3038   1853
   3442   3040   2094
   3465   3041   2308
   3488   3041   2495
   3512   3042   2659
   3537   3040   2807
   3441   3370   1312
   3458   3365   1542
   3480   3362   1788
   3504   3360   2030
   3529   3357   2251
   3554   3353   2442
   3579   3348   2611
   3606   3343   2759
   3635   3337   2892
   3521   3643   1535
   3546   3637   1777
   3570   3630   2016
   3598   3624   2240
   3625   3613   2433
   3655   3604   2599
   3683   3592   2745
   3716   3580   2875
   3749   3563   2991
   3414   709   661
   3417   715   823
   3422   727   1081
   3428   745   1372
   3437   768   1665
   3445   792   1939
   3453   817   2186
   3463   842   2402
   3475   866   2596
   3426   1003   684
   3429   1009   854
   3434   1020   1111
   3443   1036   1400
   3451   1056   1687
   3461   1078   1958
   3472   1100   2199
   3483   1122   2413
   3493   1144   2602
   3446   1387   725
   3450   1391   911
   3456   1402   1168
   3466   1415   1451
   3477   1431   1731
   3487   1449   1994
   3500   1467   2230
   3514   1485   2436
   3527   1502   2619
   3473   1832   784
   3481   1837   996
   3489   1844   1253
   3499   1854   1528
   3512   1866   1799
   3524   1880   2052
   3539   1894   2277
   3553   1907   2474
   3569   1920   2651
   3511   2297   869
   3518   2297   1109
   3530   2303   1365
   3542   2311   1631
   3557   2318   1891
   3571   2328   2131
   3586   2336   2343
   3603   2344   2529
   3620   2353   2696
   3556   2714   1059
   3564   2713   1248
   3577   2717   1501
   3591   2720   1755
   3608   2724   2003
   3625   2731   2229
   3643   2735   2427
   3661   2738   2599
   3680   2742   2753
   3603   3074   1221
   3614   3072   1413
   3630   3071   1660
   3647   3073   1906
   3664   3073   2139
   3683   3075   2345
   3705   3073   2524
   3725   3073   2682
   3745   3073   2824
   3658   3398   1415
   3671   3392   1615
   3689   3387   1856
   3710   3385   2090
   3731   3381   2302
   3751   3377   2484
   3774   3371   2643
   3797   3364   2784
   3823   3355   2910
   3719   3662   1649
   3737   3654   1868
   3758   3645   2100
   3781   3635   2312
   3804   3626   2495
   3831   3611   2651
   3856   3597   2789
   3884   3578   2908
   3915   3553   3017
