Resources/LUT/Warm and Fuzzy.3dl
# 17x17x17 .3dl lookup table from LUT Buddy
   0   64   128   192   256   320   384   448   512   576   640   704   768   832   896   960   1023
   0   0   0
   0   0   32
   8   7   299
   18   17   506
   34   32   707
   55   52   906
   82   78   1101
   114   109   1288
   149   143   1465
   183   177   1629
   215   208   1782
   245   237   1925
   273   267   2059
   300   294   2186
   325   319   2302
   348   343   2411
   371   365   2515
   19   227   28
   19   227   28
   27   236   310
   38   248   512
   55   264   711
   76   283   907
   104   306   1101
   136   331   1287
   170   357   1463
   202   382   1628
   233   407   1781
   262   431   1922
   289   455   2057
   315   478   2183
   339   499   2299
   363   520   2409
   385   539   2513
   47   454   61
   47   454   61
   56   460   329
   67   468   525
   84   478   720
   106   492   914
   135   508   1106
   166   525   1291
   197   545   1465
   227   564   1630
   256   584   1782
   284   603   1925
   310   622   2058
   336   641   2184
   359   659   2299
   382   677   2408
   403   694   2512
   93   702   108
   93   702   108
   102   706   361
   115   711   549
   133   719   739
   155   728   930
   181   740   1120
   208   754   1301
   236   769   1474
   264   783   1637
   291   799   1789
   316   814   1930
   341   829   2063
   365   844   2188
   388   859   2303
   410   874   2412
   430   888   2515
   162   967   169
   162   966   169
   171   970   404
   183   975   584
   198   980   767
   217   988   955
   239   996   1140
   262   1007   1320
   287   1018   1491
   312   1029   1651
   336   1042   1802
   360   1053   1942
   384   1066   2074
   406   1078   2198
   427   1090   2312
   447   1101   2419
   467   1113   2521
   240   1235   233
   240   1234   233
   248   1237   456
   257   1240   627
   270   1245   804
   286   1251   986
   305   1257   1169
   325   1265   1345
   347   1274   1512
   369   1283   1671
   391   1292   1820
   413   1302   1958
   434   1312   2089
   455   1322   2211
   475   1331   2324
   493   1340   2430
   512   1349   2531
   321   1501   298
   321   1501   298
   327   1503   515
   336   1505   678
   347   1508   850
   361   1513   1027
   377   1519   1204
   395   1525   1376
   415   1532   1540
   434   1539   1697
   454   1547   1843
   473   1554   1979
   493   1562   2108
   512   1570   2228
   530   1577   2340
   547   1584   2444
   564   1591   2543
   404   1766   365
   404   1766   378
   410   1766   579
   418   1769   736
   427   1771   902
   440   1775   1074
   454   1780   1246
   470   1785   1413
   487   1790   1574
   505   1796   1727
   523   1803   1870
   540   1809   2005
   558   1815   2132
   575   1820   2249
   592   1826   2360
   608   1832   2463
   624   1839   2559
   489   2031   432
   489   2029   480
   495   2030   649
   502   2032   800
   511   2032   960
   522   2036   1128
   535   2040   1295
   549   2043   1457
   564   2046   1614
   581   2053   1763
   597   2057   1903
   613   2061   2036
   628   2066   2160
   644   2070   2276
   659   2076   2383
   674   2081   2484
   689   2084   2581
   574   2278   497
   575   2277   568
   580   2276   720
   586   2276   866
   595   2277   1023
   605   2281   1186
   617   2283   1347
   629   2286   1505
   643   2288   1658
   658   2292   1804
   672   2296   1941
   687   2298   2071
   702   2303   2192
   716   2306   2304
   730   2310   2409
   744   2312   2508
   757   2316   2603
   658   2505   559
   659   2504   651
   663   2503   792
   670   2505   936
   678   2504   1089
   687   2506   1247
   698   2507   1404
   710   2510   1557
   722   2512   1706
   735   2513   1849
   749   2516   1982
   763   2519   2109
   776   2522   2225
   800   2524   2337
   838   2526   2440
   872   2529   2536
   901   2532   2628
   740   2712   618
   741   2710   732
   746   2711   866
   751   2710   1007
   759   2710   1158
   768   2711   1311
   778   2712   1463
   789   2713   1612
   801   2715   1758
   821   2718   1896
   854   2718   2027
   891   2721   2151
   920   2723   2265
   946   2724   2372
   970   2727   2472
   992   2727   2566
   1014   2730   2656
   822   2907   676
   824   2905   810
   828   2903   942
   834   2904   1082
   841   2903   1230
   855   2903   1378
   877   2905   1526
   914   2905   1672
   944   2907   1814
   970   2908   1950
   994   2909   2076
   1016   2908   2195
   1038   2910   2306
   1058   2910   2411
   1079   2910   2507
   1098   2912   2600
   1118   2913   2687
   911   3094   734
   933   3095   894
   956   3092   1024
   976   3092   1164
   994   3090   1308
   1012   3090   1453
   1029   3090   1596
   1048   3090   1738
   1069   3090   1876
   1089   3090   2007
   1109   3090   2130
   1128   3090   2246
   1147   3090   2351
   1166   3090   2452
   1184   3089   2546
   1202   3088   2635
   1220   3088   2720
   1071   3274   798
   1083   3271   981
   1095   3269   1112
   1107   3268   1249
   1121   3266   1390
   1135   3265   1530
   1150   3264   1671
   1165   3263   1808
   1183   3263   1943
   1201   3262   2069
   1219   3261   2188
   1237   3260   2298
   1255   3258   2400
   1273   3259   2498
   1291   3256   2587
   1311   3256   2674
   1329   3254   2757
   1195   3434   943
   1203   3431   1071
   1214   3429   1202
   1225   3427   1337
   1237   3426   1474
   1250   3425   1612
   1263   3423   1749
   1277   3421   1883
   1293   3420   2012
   1310   3418   2134
   1328   3417   2248
   1346   3415   2354
   1365   3414   2453
   1384   3413   2545
   1403   3410   2631
   1423   3408   2715
   1443   3405   2794
   1309   3581   1040
   1317   3580   1166
   1326   3576   1295
   1338   3573   1428
   1350   3572   1563
   1363   3571   1698
   1377   3568   1831
   1391   3566   1962
   1405   3564   2086
   1423   3562   2204
   1442   3560   2311
   1460   3557   2412
   1479   3555   2506
   1499   3553   2595
   1519   3550   2680
   1539   3545   2759
   1562   3543   2837
   38   0   2
   41   0   2
   52   8   294
   66   18   501
   84   33   702
   108   53   900
   139   79   1096
   174   110   1284
   210   145   1460
   245   180   1625
   278   212   1779
   309   243   1922
   339   271   2056
   368   298   2183
   394   323   2298
   419   347   2409
   444   370   2512
   74   230   31
   77   230   31
   88   239   308
   102   251   510
   122   267   708
   147   286   904
   178   309   1098
   212   334   1284
   246   359   1460
   278   385   1625
   310   410   1779
   340   434   1920
   368   458   2055
   396   480   2180
   422   502   2296
   447   522   2405
   471   542   2509
   119   457   64
   122   457   65
   134   463   329
   150   470   525
   170   481   719
   196   495   913
   225   511   1105
   256   529   1290
   287   548   1464
   318   568   1628
   347   587   1781
   376   607   1923
   403   626   2056
   430   645   2182
   456   663   2298
   480   681   2407
   504   698   2511
   186   704   113
   189   704   113
   202   708   363
   217   714   550
   236   722   740
   259   732   930
   284   744   1120
   312   758   1302
   340   772   1475
   368   787   1637
   396   802   1789
   423   818   1930
   451   833   2063
   477   849   2188
   501   864   2302
   525   878   2410
   548   892   2512
   268   969   174
   271   969   174
   282   972   408
   296   977   587
   312   983   770
   332   991   956
   355   1000   1143
   380   1010   1321
   406   1022   1491
   433   1033   1652
   459   1046   1803
   484   1057   1942
   509   1069   2074
   534   1082   2198
   557   1093   2311
   580   1105   2419
   602   1117   2521
   354   1237   238
   358   1237   238
   368   1239   462
   381   1243   632
   397   1248   809
   415   1253   991
   436   1261   1173
   458   1269   1348
   482   1277   1514
   506   1287   1673
   530   1296   1822
   553   1306   1960
   576   1316   2090
   599   1326   2212
   622   1335   2324
   643   1344   2431
   664   1354   2531
   447   1503   304
   450   1503   304
   461   1505   522
   472   1507   685
   486   1511   855
   503   1517   1033
   522   1522   1209
   542   1528   1380
   564   1535   1544
   586   1543   1700
   608   1551   1846
   629   1558   1982
   651   1566   2111
   673   1573   2229
   694   1582   2341
   714   1589   2446
   734   1596   2545
   542   1770   371
   546   1767   398
   556   1771   588
   566   1771   744
   580   1775   910
   595   1778   1081
   612   1782   1253
   631   1788   1420
   651   1794   1580
   671   1799   1732
   692   1807   1875
   712   1812   2009
   733   1818   2135
   754   1825   2252
   774   1831   2362
   794   1836   2464
   813   1842   2562
   639   2031   438
   644   2032   495
   653   2032   658
   664   2034   809
   676   2036   970
   691   2039   1137
   707   2042   1302
   725   2047   1464
   744   2051   1621
   763   2055   1769
   782   2060   1910
   802   2065   2041
   822   2071   2165
   841   2075   2279
   861   2079   2385
   881   2084   2487
   900   2089   2582
   738   2279   504
   743   2278   582
   751   2277   731
   762   2280   878
   774   2281   1034
   788   2282   1196
   804   2285   1357
   821   2288   1514
   839   2291   1666
   858   2296   1811
   877   2298   1948
   896   2303   2076
   915   2306   2197
   934   2310   2309
   953   2314   2414
   972   2316   2513
   991   2319   2606
   835   2507   567
   841   2506   666
   850   2506   805
   860   2506   949
   873   2507   1102
   887   2508   1259
   903   2510   1415
   920   2512   1567
   937   2514   1715
   955   2516   1858
   973   2519   1990
   992   2522   2116
   1011   2525   2234
   1029   2527   2342
   1047   2529   2445
   1067   2532   2540
   1085   2535   2632
   931   2713   626
   938   2712   747
   947   2711   880
   958   2712   1022
   971   2712   1172
   985   2714   1325
   1000   2715   1477
   1017   2716   1625
   1034   2718   1769
   1052   2720   1907
   1070   2721   2036
   1089   2722   2159
   1107   2725   2272
   1126   2726   2378
   1144   2728   2477
   1163   2729   2571
   1181   2730   2659
   1028   2908   684
   1036   2908   827
   1046   2906   958
   1057   2905   1099
   1070   2905   1246
   1084   2906   1394
   1100   2906   1542
   1116   2907   1685
   1134   2908   1827
   1151   2909   1961
   1170   2911   2087
   1187   2910   2204
   1206   2911   2315
   1225   2912   2417
   1243   2912   2513
   1262   2913   2603
   1281   2914   2692
   1128   3097   743
   1137   3094   911
   1148   3094   1041
   1160   3092   1181
   1173   3093   1325
   1188   3091   1469
   1203   3090   1611
   1219   3090   1753
   1237   3091   1890
   1255   3091   2019
   1273   3090   2142
   1291   3090   2255
   1310   3090   2361
   1328   3091   2461
   1347   3090   2552
   1366   3089   2641
   1386   3088   2725
   1230   3271   849
   1240   3269   998
   1252   3270   1129
   1264   3267   1267
   1278   3265   1407
   1293   3266   1548
   1309   3264   1687
   1326   3263   1824
   1344   3263   1957
   1362   3262   2081
   1381   3262   2199
   1400   3260   2308
   1418   3259   2410
   1437   3258   2506
   1457   3257   2596
   1476   3255   2682
   1497   3254   2762
   1335   3432   963
   1345   3431   1090
   1357   3429   1221
   1371   3427   1357
   1386   3425   1493
   1401   3423   1630
   1418   3422   1767
   1436   3422   1900
   1454   3419   2028
   1473   3418   2149
   1492   3417   2261
   1511   3415   2365
   1531   3413   2463
   1551   3412   2556
   1572   3408   2642
   1592   3407   2723
   1614   3404   2801
   1440   3580   1059
   1452   3577   1186
   1465   3575   1316
   1480   3572   1449
   1495   3571   1584
   1512   3568   1718
   1530   3567   1851
   1548   3565   1980
   1568   3563   2104
   1588   3560   2219
   1608   3559   2326
   1628   3556   2425
   1648   3553   2520
   1670   3551   2607
   1691   3546   2691
   1713   3544   2768
   1735   3541   2845
   291   12   19
   292   12   19
   302   20   303
   315   30   507
   331   46   706
   351   66   902
   374   93   1097
   399   126   1284
   424   161   1460
   451   194   1625
   476   225   1778
   501   255   1921
   526   283   2054
   550   310   2181
   573   334   2297
   595   358   2407
   616   380   2509
   329   247   48
   330   247   48
   340   256   319
   352   267   517
   367   282   713
   386   301   908
   407   323   1100
   431   347   1286
   456   372   1462
   481   397   1625
   505   421   1778
   530   445   1921
   554   468   2054
   577   490   2180
   600   512   2297
   622   532   2406
   643   551   2510
   372   470   82
   373   470   82
   383   476   341
   394   484   533
   408   494   725
   426   507   918
   447   523   1109
   469   540   1292
   493   559   1466
   517   579   1630
   541   598   1782
   564   617   1923
   588   636   2058
   611   655   2183
   633   673   2298
   655   690   2407
   676   708   2509
   426   714   131
   429   714   131
   437   719   375
   448   725   560
   462   733   747
   479   742   936
   498   755   1125
   520   768   1306
   541   782   1478
   565   797   1640
   588   813   1791
   611   827   1932
   633   843   2064
   656   859   2189
   677   873   2305
   699   888   2412
   719   902   2514
   492   979   190
   494   978   191
   503   982   421
   513   986   597
   527   993   779
   542   1000   964
   561   1009   1149
   581   1019   1326
   602   1031   1496
   624   1042   1656
   646   1055   1806
   668   1066   1945
   689   1078   2077
   711   1090   2199
   732   1102   2314
   753   1114   2420
   774   1126   2522
   565   1244   252
   568   1244   253
   577   1247   475
   587   1251   643
   600   1255   819
   615   1261   999
   633   1268   1180
   652   1276   1354
   672   1286   1521
   692   1294   1678
   713   1304   1826
   735   1314   1963
   756   1324   2092
   777   1334   2215
   797   1343   2327
   817   1352   2432
   837   1361   2531
   646   1510   317
   649   1510   317
   658   1512   535
   668   1515   696
   681   1518   866
   696   1523   1042
   712   1529   1218
   730   1535   1388
   750   1543   1550
   769   1549   1705
   790   1557   1850
   810   1565   1986
   831   1573   2114
   851   1581   2234
   871   1589   2345
   891   1596   2448
   911   1603   2546
   733   1774   383
   737   1774   422
   746   1775   601
   756   1778   757
   768   1781   921
   783   1785   1092
   799   1789   1262
   816   1793   1427
   835   1800   1587
   854   1805   1740
   874   1812   1881
   894   1819   2014
   914   1825   2141
   933   1830   2256
   953   1836   2365
   972   1843   2468
   991   1849   2564
   825   2037   449
   830   2036   514
   839   2038   673
   849   2039   823
   861   2040   982
   876   2044   1148
   891   2048   1314
   908   2051   1474
   926   2056   1630
   945   2062   1778
   964   2067   1916
   983   2071   2047
   1002   2075   2170
   1021   2080   2284
   1039   2084   2391
   1058   2088   2490
   1077   2093   2586
   919   2282   515
   925   2282   599
   934   2284   746
   944   2283   892
   956   2285   1048
   971   2287   1209
   986   2289   1369
   1003   2293   1525
   1020   2296   1676
   1039   2301   1820
   1057   2303   1956
   1075   2306   2084
   1094   2311   2204
   1112   2314   2315
   1131   2317   2419
   1150   2321   2517
   1169   2324   2610
   1012   2509   577
   1019   2509   684
   1028   2509   821
   1039   2509   964
   1051   2510   1117
   1066   2512   1273
   1082   2514   1428
   1098   2515   1580
   1115   2518   1727
   1133   2521   1868
   1151   2523   2000
   1169   2525   2125
   1188   2529   2241
   1207   2532   2349
   1225   2533   2450
   1244   2536   2546
   1263   2538   2637
   1105   2717   636
   1113   2715   764
   1123   2715   898
   1135   2716   1039
   1147   2716   1188
   1161   2716   1340
   1177   2717   1490
   1194   2719   1638
   1211   2722   1782
   1229   2723   1918
   1247   2724   2047
   1266   2727   2169
   1284   2727   2280
   1302   2730   2385
   1321   2731   2484
   1341   2732   2576
   1360   2734   2665
   1199   2911   694
   1208   2910   845
   1219   2909   977
   1231   2908   1117
   1245   2908   1264
   1259   2908   1411
   1275   2909   1557
   1291   2910   1701
   1309   2911   1840
   1327   2911   1972
   1345   2912   2098
   1364   2914   2215
   1383   2913   2324
   1401   2913   2425
   1421   2915   2521
   1440   2915   2610
   1460   2915   2697
   1298   3098   753
   1307   3096   930
   1318   3096   1061
   1332   3094   1200
   1345   3093   1343
   1361   3093   1486
   1377   3093   1629
   1394   3092   1768
   1412   3092   1904
   1430   3092   2033
   1449   3093   2154
   1468   3093   2265
   1487   3093   2370
   1506   3092   2469
   1526   3091   2561
   1546   3090   2648
   1566   3089   2732
   1399   3274   883
   1410   3271   1020
   1422   3271   1151
   1435   3267   1288
   1450   3267   1427
   1465   3267   1567
   1483   3266   1706
   1500   3264   1841
   1519   3264   1973
   1538   3264   2097
   1557   3263   2213
   1577   3261   2320
   1596   3260   2421
   1617   3259   2515
   1637   3258   2605
   1658   3255   2690
   1679   3254   2769
   1502   3432   987
   1514   3431   1113
   1528   3429   1244
   1542   3428   1379
   1558   3426   1516
   1574   3424   1652
   1593   3423   1787
   1611   3422   1920
   1630   3420   2046
   1650   3418   2165
   1670   3417   2276
   1690   3415   2378
   1711   3413   2475
   1732   3411   2566
   1753   3409   2652
   1775   3407   2732
   1797   3403   2811
   1608   3581   1086
   1622   3578   1212
   1636   3575   1341
   1652   3573   1474
   1669   3571   1608
   1686   3569   1742
   1705   3566   1874
   1724   3564   2001
   1745   3562   2124
   1766   3560   2236
   1787   3558   2342
   1809   3555   2441
   1830   3552   2532
   1853   3550   2619
   1875   3548   2701
   1899   3543   2779
   1923   3538   2853
   540   30   44
   542   31   44
   549   39   318
   559   50   516
   570   67   712
   585   89   907
   602   118   1101
   621   150   1286
   641   182   1461
   663   214   1626
   683   244   1779
   704   272   1922
   725   300   2056
   746   325   2182
   766   350   2298
   785   372   2407
   805   395   2510
   573   270   73
   574   270   73
   582   279   335
   592   289   528
   603   304   721
   618   322   914
   634   343   1106
   653   366   1290
   672   389   1464
   693   413   1628
   714   437   1781
   735   460   1922
   755   483   2056
   776   505   2181
   796   525   2296
   815   545   2406
