Resources/LUT/White Diffusion.3dl
# 17x17x17 .3dl lookup table from LUT Buddy
   0   64   128   192   256   320   384   448   512   576   640   704   768   832   896   960   1023
   0   0   0
   0   0   0
   0   0   5
   0   0   37
   0   0   203
   0   0   505
   0   0   849
   0   0   1208
   0   0   1582
   0   0   1945
   0   0   2262
   0   0   2544
   1   1   2800
   1   1   3023
   1   1   3215
   1   1   3376
   1   1   3513
   0   3   0
   0   3   0
   0   3   4
   0   3   36
   0   2   189
   0   2   487
   0   2   830
   0   2   1188
   0   1   1559
   0   0   1924
   0   0   2243
   0   0   2527
   1   1   2784
   1   1   3010
   1   1   3201
   1   1   3366
   1   1   3506
   0   21   0
   0   21   0
   0   17   3
   0   16   30
   0   16   175
   0   16   470
   0   15   812
   0   15   1170
   0   15   1542
   0   14   1907
   0   13   2228
   1   13   2514
   1   13   2770
   1   12   2996
   1   11   3191
   1   11   3356
   2   10   3496
   0   129   0
   0   128   0
   0   115   3
   0   93   26
   0   92   163
   0   92   454
   0   92   796
   0   91   1155
   1   90   1525
   1   89   1891
   1   88   2215
   1   87   2504
   1   85   2759
   1   84   2988
   1   82   3181
   2   80   3348
   2   79   3490
   1   406   1
   1   405   1
   1   390   4
   1   341   26
   1   320   152
   1   318   441
   1   317   782
   1   317   1140
   1   316   1512
   1   315   1879
   1   314   2204
   1   312   2493
   2   310   2751
   2   308   2979
   2   306   3175
   2   304   3342
   2   301   3484
   1   754   1
   1   753   1
   1   742   5
   1   689   29
   1   638   147
   1   627   431
   1   627   774
   1   625   1131
   1   623   1500
   2   623   1869
   2   622   2194
   2   620   2483
   2   619   2743
   2   616   2972
   2   614   3168
   3   612   3336
   3   609   3481
   2   1133   2
   2   1132   2
   2   1124   8
   2   1072   36
   2   1009   158
   2   971   425
   2   967   769
   2   964   1127
   2   961   1495
   2   960   1862
   2   959   2187
   3   957   2477
   3   955   2737
   3   953   2966
   3   951   3163
   3   949   3331
   4   946   3475
   3   1540   3
   3   1538   3
   3   1531   12
   3   1481   47
   3   1415   181
   3   1355   438
   3   1329   767
   3   1326   1126
   3   1324   1498
   3   1321   1863
   3   1317   2188
   3   1316   2476
   4   1313   2732
   4   1312   2963
   4   1309   3160
   4   1306   3329
   5   1303   3471
   5   1955   5
   5   1953   5
   5   1948   18
   4   1903   64
   4   1837   214
   4   1771   468
   4   1724   779
   4   1710   1134
   4   1706   1505
   4   1703   1871
   5   1698   2193
   5   1695   2478
   5   1691   2735
   5   1688   2963
   6   1684   3160
   6   1681   3328
   6   1677   3471
   7   2332   7
   7   2331   8
   7   2325   28
   7   2286   90
   7   2231   257
   6   2165   509
   6   2110   811
   6   2079   1148
   6   2072   1518
   6   2068   1884
   7   2064   2204
   7   2060   2489
   7   2055   2742
   8   2051   2968
   8   2046   3162
   9   2044   3329
   9   2040   3471
   11   2673   11
   11   2672   14
   11   2666   44
   11   2633   127
   10   2582   309
   10   2521   562
   9   2467   857
   9   2423   1182
   9   2405   1540
   10   2400   1903
   10   2395   2221
   10   2389   2503
   11   2389   2756
   11   2381   2980
   12   2376   3170
   12   2371   3334
   13   2369   3475
   18   2980   18
   18   2977   25
   18   2971   69
   17   2939   179
   16   2896   372
   15   2841   626
   14   2787   916
   14   2743   1233
   14   2710   1579
   14   2700   1931
   15   2696   2246
   15   2691   2526
   16   2686   2776
   16   2680   2995
   17   2674   3183
   17   2669   3343
   18   2663   3483
   27   3238   27
   27   3236   42
   27   3229   106
   26   3205   244
   25   3165   446
   23   3119   700
   22   3073   987
   21   3029   1300
   20   2994   1635
   21   2977   1969
   21   2969   2279
   22   2965   2553
   22   2961   2798
   23   2953   3016
   24   2947   3202
   24   2941   3359
   25   2935   3492
   41   3459   41
   41   3457   70
   41   3450   168
   39   3429   328
   37   3398   543
   35   3362   797
   33   3322   1080
   32   3284   1388
   31   3250   1713
   30   3226   2027
   30   3210   2319
   31   3206   2587
   32   3198   2831
   33   3193   3042
   34   3188   3224
   34   3180   3378
   35   3174   3508
   62   3639   61
   63   3635   117
   60   3629   254
   58   3612   433
   56   3589   656
   53   3558   909
   50   3525   1189
   47   3494   1493
   45   3462   1806
   44   3438   2098
   44   3419   2374
   44   3411   2630
   45   3407   2868
   46   3399   3073
   47   3393   3249
   48   3387   3398
   49   3379   3524
   100   3789   100
   102   3786   192
   87   3780   355
   84   3766   554
   81   3746   782
   77   3720   1037
   73   3692   1316
   69   3663   1614
   66   3635   1912
   64   3610   2188
   63   3592   2445
   62   3581   2684
   63   3573   2915
   64   3567   3112
   65   3560   3280
   66   3556   3424
   67   3548   3546
   154   3907   165
   156   3905   290
   123   3902   479
   119   3890   691
   114   3871   925
   109   3851   1182
   103   3829   1461
   98   3804   1754
   93   3778   2032
   90   3759   2290
   88   3740   2530
   86   3724   2756
   86   3713   2967
   87   3707   3156
   88   3699   3316
   89   3693   3455
   90   3687   3573
   0   0   0
   0   0   0
   0   0   4
   0   0   35
   0   0   195
   0   0   495
   0   0   838
   0   0   1197
   0   0   1568
   0   0   1932
   0   0   2252
   0   0   2535
   1   1   2789
   1   1   3015
   1   1   3207
   1   1   3370
   1   1   3509
   0   3   0
   0   3   0
   0   3   4
   0   3   35
   0   2   184
   0   2   480
   0   2   821
   0   2   1178
   0   1   1551
   0   0   1913
   0   0   2234
   0   0   2520
   1   1   2775
   1   1   3001
   1   1   3195
   1   1   3360
   1   1   3500
   0   21   0
   0   21   0
   0   18   3
   0   17   31
   0   16   172
   0   16   465
   0   15   808
   0   15   1165
   0   15   1536
   0   14   1899
   0   14   2222
   1   13   2508
   1   13   2764
   1   12   2992
   1   11   3185
   1   11   3352
   2   10   3492
   0   128   0
   0   128   0
   0   118   4
   0   93   25
   0   92   161
   0   92   452
   0   92   794
   0   91   1151
   1   90   1521
   1   89   1888
   1   88   2211
   1   87   2499
   1   85   2756
   1   84   2983
   1   82   3178
   2   81   3345
   2   79   3486
   1   405   1
   1   405   1
   1   396   5
   1   345   27
   1   320   151
   1   318   441
   1   317   781
   1   317   1139
   1   316   1509
   1   316   1878
   1   314   2203
   1   312   2490
   2   310   2747
   2   308   2977
   2   306   3172
   2   304   3339
   2   301   3481
   2   753   1
   2   752   1
   1   748   6
   1   698   32
   1   642   151
   1   627   432
   1   626   775
   1   623   1132
   1   623   1500
   2   622   1868
   2   622   2194
   2   620   2484
   2   618   2741
   2   616   2970
   2   614   3168
   3   611   3334
   3   609   3478
   3   1131   2
   3   1130   2
   2   1127   9
   2   1084   41
   2   1019   168
   2   971   430
   2   965   772
   2   963   1130
   2   960   1497
   2   959   1864
   2   958   2187
   3   956   2478
   3   956   2737
   3   953   2965
   3   951   3162
   3   949   3330
   4   946   3474
   4   1539   3
   4   1537   3
   4   1536   14
   3   1497   56
   3   1428   198
   3   1362   451
   3   1328   772
   3   1324   1132
   3   1323   1502
   3   1318   1867
   3   1316   2192
   3   1314   2477
   4   1312   2736
   4   1310   2964
   4   1308   3160
   4   1306   3328
   5   1302   3471
   7   1953   5
   7   1951   5
   7   1949   21
   5   1919   79
   4   1856   241
   4   1784   490
   4   1728   793
   4   1707   1140
   4   1704   1511
   4   1700   1876
   5   1696   2197
   5   1692   2483
   5   1688   2738
   5   1685   2967
   6   1683   3161
   6   1680   3328
   6   1677   3471
   12   2331   7
   12   2328   8
   12   2325   32
   7   2301   113
   7   2249   293
   6   2182   542
   6   2120   834
   6   2078   1162
   6   2070   1528
   6   2065   1892
   7   2060   2210
   7   2057   2494
   7   2052   2748
   8   2049   2971
   8   2044   3165
   9   2041   3331
   9   2038   3471
   19   2672   11
   20   2670   15
   20   2667   51
   11   2648   163
   11   2603   357
   10   2540   607
   9   2480   891
   9   2429   1205
   9   2400   1554
   9   2396   1915
   10   2392   2231
   10   2387   2509
   11   2383   2761
   11   2377   2983
   12   2373   3173
   12   2366   3337
   13   2362   3477
   30   2977   18
   31   2972   26
   32   2970   80
   17   2954   227
   17   2915   433
   16   2864   683
   15   2806   962
   14   2752   1268
   14   2712   1603
   14   2697   1943
   14   2691   2257
   15   2686   2534
   15   2683   2784
   16   2675   2999
   17   2669   3187
   17   2664   3347
   18   2660   3485
   47   3236   27
   48   3233   45
   49   3230   126
   28   3217   303
   25   3184   521
   24   3141   771
   23   3092   1048
   21   3043   1348
   21   3001   1670
   21   2975   1990
   21   2964   2291
   22   2959   2562
   22   2955   2809
   23   2947   3021
   24   2941   3206
   24   2935   3361
   25   2931   3496
   72   3456   41
   73   3453   75
   76   3449   196
   52   3438   394
   39   3414   623
   37   3379   874
   34   3337   1147
   33   3294   1443
   31   3256   1755
   30   3227   2054
   30   3208   2337
   31   3201   2601
   32   3194   2843
   32   3188   3050
   33   3183   3230
   34   3176   3381
   35   3169   3512
   108   3635   61
   111   3633   126
   115   3627   286
   87   3620   503
   57   3599   737
   54   3571   991
   51   3538   1264
   49   3504   1558
   46   3469   1856
   45   3440   2135
   44   3417   2398
   44   3407   2647
   45   3401   2881
   46   3393   3081
   47   3387   3257
   48   3381   3404
   49   3375   3528
   161   3785   106
   166   3782   206
   171   3778   395
   135   3772   628
   83   3754   866
   79   3729   1123
   75   3701   1397
   71   3671   1687
   67   3642   1970
   65   3614   2230
   63   3592   2476
   62   3577   2707
   62   3567   2928
   63   3562   3122
   64   3556   3288
   65   3550   3430
   66   3542   3552
   227   3905   175
   233   3903   309
   239   3899   526
   198   3892   766
   117   3878   1013
   111   3857   1272
   105   3834   1548
   100   3810   1831
   95   3784   2094
   91   3761   2338
   88   3740   2566
   86   3722   2784
   85   3708   2985
   86   3701   3168
   87   3693   3328
   88   3687   3465
   89   3683   3579
   3   0   0
   3   0   0
   3   0   4
   4   0   39
   3   0   198
   3   0   489
   3   0   828
   3   0   1186
   3   0   1558
   2   0   1922
   2   0   2241
   2   0   2525
   1   1   2781
   1   1   3008
   1   1   3201
   1   1   3364
   1   1   3505
   4   3   0
   4   3   0
   4   3   4
   4   3   38
   3   2   181
   3   2   473
   3   2   815
   3   2   1171
   3   1   1542
   2   0   1905
   2   0   2228
   2   0   2513
   1   1   2769
   1   1   2995
   1   1   3191
   1   1   3354
   1   1   3496
   4   21   0
   4   21   0
   4   21   4
   4   21   38
   3   18   195
   3   16   463
   3   15   804
   3   15   1160
   3   15   1529
   2   14   1893
   2   14   2217
   2   13   2504
   1   12   2758
   1   12   2986
   1   11   3181
   1   11   3346
   2   10   3490
   5   129   0
   5   129   0
   5   129   4
   3   113   31
   3   106   182
   2   93   452
   2   92   793
   2   92   1151
   2   91   1520
   2   89   1886
   1   88   2209
   1   86   2495
   1   85   2752
   1   83   2981
   1   82   3175
   2   80   3341
   2   79   3484
   6   406   1
   6   405   1
   7   405   5
   4   377   34
   1   319   151
   1   317   440
   1   317   781
   1   317   1139
   1   317   1511
   1   316   1878
   1   314   2203
   1   313   2489
   2   310   2747
   2   308   2974
   2   306   3170
   2   303   3338
   2   300   3481
   8   753   1
   9   753   1
   9   752   7
   7   736   44
   1   661   167
   1   626   434
   1   625   775
   1   623   1132
   1   623   1503
   2   622   1870
   2   622   2195
   2   620   2484
   2   619   2741
   2   617   2970
   2   614   3166
   3   612   3334
   3   609   3477
   12   1132   2
   12   1130   2
   12   1129   10
   11   1118   58
   2   1050   198
   2   979   442
   2   964   775
   2   961   1131
   2   959   1500
   2   958   1866
   2   958   2192
   3   957   2481
   3   955   2738
   3   954   2968
   3   951   3163
   3   948   3330
   4   945   3474
   17   1538   3
   17   1537   3
   18   1535   14
   17   1528   77
   6   1468   240
   3   1384   479
   3   1330   780
   3   1324   1137
   3   1320   1507
   3   1318   1869
   3   1315   2194
   3   1313   2482
   4   1312   2738
   4   1310   2967
   4   1308   3162
   4   1305   3329
   5   1302   3471
   25   1952   5
   25   1950   5
   26   1948   22
   26   1943   105
   11   1895   291
   4   1815   531
   4   1740   814
   4   1705   1149
   4   1701   1519
   4   1696   1882
   5   1693   2203
   5   1689   2487
   5   1686   2741
   5   1685   2968
   6   1681   3163
   6   1679   3329
   6   1676   3471
   37   2329   7
   38   2325   9
   39   2324   35
   39   2322   146
   21   2282   350
   7   2215   594
   6   2142   869
   6   2085   1180
   6   2066   1539
   6   2062   1899
   7   2058   2215
   7   2052   2500
   7   2049   2750
   8   2046   2974
   8   2043   3169
   8   2039   3333
   9   2036   3473
   53   2671   12
   55   2667   16
   57   2664   55
   59   2662   200
   36   2631   420
   11   2571   666
   10   2504   938
   9   2442   1235
   9   2403   1570
   9   2393   1924
   10   2389   2237
   10   2383   2516
   11   2381   2767
   11   2375   2987
   12   2370   3176
   12   2362   3338
   13   2359   3478
   77   2975   18
   80   2970   28
   83   2968   86
   85   2965   266
   58   2941   501
   17   2891   749
   15   2830   1018
   14   2768   1310
   14   2718   1628
   14   2693   1960
   14   2688   2266
   15   2682   2543
   15   2676   2789
   16   2672   3003
   17   2666   3190
   17   2659   3349
   18   2655   3487
   111   3234   28
   115   3230   48
   119   3227   136
   123   3224   346
   90   3204   593
   30   3164   843
   24   3112   1111
   22   3058   1399
   21   3008   1707
   21   2975   2012
   21   2960   2305
   21   2956   2574
   22   2948   2815
   23   2943   3028
   23   2936   3210
   24   2930   3364
   25   2924   3497
   159   3455   42
   165   3451   81
   171   3447   212
   177   3445   443
   136   3426   697
   63   3396   951
   36   3354   1219
   33   3307   1503
   32   3265   1801
   31   3229   2084
   30   3205   2354
   31   3196   2612
   31   3189   2853
   32   3182   3056
   33   3175   3235
   34   3168   3385
   35   3162   3512
   220   3633   65
   227   3629   137
   235   3625   306
   241   3623   557
   199   3609   815
   109   3584   1074
   53   3552   1342
   50   3514   1626
   47   3477   1909
   45   3444   2174
   44   3417   2423
   44   3402   2664
   45   3395   2894
   45   3387   3092
   46   3381   3265
   47   3375   3408
   48   3368   3532
   290   3783   114
   298   3780   223
   307   3776   421
   313   3772   686
   269   3761   949
   174   3739   1212
   77   3712   1483
   72   3680   1763
   69   3650   2028
   65   3617   2276
   63   3594   2507
   62   3574   2730
   62   3562   2941
   63   3556   3134
   64   3550   3296
   65   3542   3438
   66   3536   3557
   367   3903   188
   377   3901   333
   388   3898   559
   394   3894   833
   346   3882   1100
   250   3864   1368
   118   3840   1641
   102   3817   1911
   97   3790   2159
   92   3764   2389
   88   3741   2605
   86   3719   2812
   85   3703   3005
   85   3695   3183
   86   3688   3338
   87   3683   3471
   88   3676   3585
   23   0   0
   23   0   0
   23   0   4
   24   0   38
   24   0   215
   24   0   524
   22   0   857
   21   0   1202
   20   0   1562
   19   0   1918
   19   0   2234
   18   1   2520
   18   1   2775
   18   1   3001
   18   1   3195
   17   1   3358
   17   2   3499
   24   3   0
   25   3   0
   25   3   4
   26   3   36
   25   3   204
   22   2   484
   21   2   812
   21   2   1165
   20   1   1533
   20   0   1898
   20   0   2220
   20   1   2506
   20   1   2762
   19   1   2992
   19   1   3185
   19   1   3352
