Resources/LUT/White Diffusion.3dl
# 17x17x17 .3dl lookup table from LUT Buddy
0 128 256 384 512 640 768 896 1023
   0   0   0
   0   0   5
   0   0   203
   0   0   849
   0   0   1582
   0   0   2262
   1   1   2800
   1   1   3215
   1   1   3513
   0   21   0
   0   17   3
   0   16   175
   0   15   812
   0   15   1542
   0   13   2228
   1   13   2770
   1   11   3191
   2   10   3496
   1   406   1
   1   390   4
   1   320   152
   1   317   782
   1   316   1512
   1   314   2204
   2   310   2751
   2   306   3175
   2   301   3484
   2   1133   2
   2   1124   8
   2   1009   158
   2   967   769
   2   961   1495
   2   959   2187
   3   955   2737
   3   951   3163
   4   946   3475
   5   1955   5
   5   1948   18
   4   1837   214
   4   1724   779
   4   1706   1505
   5   1698   2193
   5   1691   2735
   6   1684   3160
   6   1677   3471
   11   2673   11
   11   2666   44
   10   2582   309
   9   2467   857
   9   2405   1540
   10   2395   2221
   11   2389   2756
   12   2376   3170
   13   2369   3475
   27   3238   27
   27   3229   106
   25   3165   446
   22   3073   987
   20   2994   1635
   21   2969   2279
   22   2961   2798
   24   2947   3202
   25   2935   3492
   62   3639   61
   60   3629   254
   56   3589   656
   50   3525   1189
   45   3462   1806
   44   3419   2374
   45   3407   2868
   47   3393   3249
   49   3379   3524
   154   3907   165
   123   3902   479
   114   3871   925
   103   3829   1461
   93   3778   2032
   88   3740   2530
   86   3713   2967
   88   3699   3316
   90   3687   3573
   3   0   0
   3   0   4
   3   0   198
   3   0   828
   3   0   1558
   2   0   2241
   1   1   2781
   1   1   3201
   1   1   3505
   4   21   0
   4   21   4
   3   18   195
   3   15   804
   3   15   1529
   2   14   2217
   1   12   2758
   1   11   3181
   2   10   3490
   6   406   1
   7   405   5
   1   319   151
   1   317   781
   1   317   1511
   1   314   2203
   2   310   2747
   2   306   3170
   2   300   3481
   12   1132   2
   12   1129   10
   2   1050   198
   2   964   775
   2   959   1500
   2   958   2192
   3   955   2738
   3   951   3163
   4   945   3474
   25   1952   5
   26   1948   22
   11   1895   291
   4   1740   814
   4   1701   1519
   5   1693   2203
   5   1686   2741
   6   1681   3163
   6   1676   3471
   53   2671   12
   57   2664   55
   36   2631   420
   10   2504   938
   9   2403   1570
   10   2389   2237
   11   2381   2767
   12   2370   3176
   13   2359   3478
   111   3234   28
   119   3227   136
   90   3204   593
   24   3112   1111
   21   3008   1707
   21   2960   2305
   22   2948   2815
   23   2936   3210
   25   2924   3497
   220   3633   65
   235   3625   306
   199   3609   815
   53   3552   1342
   47   3477   1909
   44   3417   2423
   45   3395   2894
   46   3381   3265
   48   3368   3532
   367   3903   188
   388   3898   559
   346   3882   1100
   118   3840   1641
   97   3790   2159
   88   3741   2605
   85   3703   3005
   86   3688   3338
   88   3676   3585
   118   0   0
   120   0   4
   123   0   213
   128   0   887
   119   0   1610
   110   1   2264
   104   1   2783
   101   1   3193
   100   2   3495
   132   22   0
   135   22   4
   140   23   209
   116   17   813
   110   14   1519
   111   13   2208
   112   12   2751
   113   11   3173
   115   10   3482
   161   411   1
   167   410   6
   170   412   228
   130   358   849
   116   320   1513
   119   316   2200
   122   311   2741
   126   306   3164
   130   301   3474
   209   1134   2
   217   1132   11
   226   1131   281
   105   969   788
   110   960   1509
   119   962   2200
   128   959   2742
   136   954   3164
   146   947   3471
   279   1953   5
   289   1949   26
   302   1946   369
   170   1804   894
   103   1697   1532
   111   1690   2210
   126   1687   2748
   142   1683   3166
   159   1676   3472
   370   2670   13
   385   2664   65
   402   2657   501
   297   2574   1062
   117   2414   1616
   111   2383   2253
   127   2373   2776
   149   2364   3182
   177   2356   3482
   486   3232   30
   506   3224   164
   529   3217   680
   441   3165   1262
   222   3040   1800
   123   2954   2333
   148   2940   2833
   179   2928   3219
   215   2917   3502
   630   3629   78
   656   3621   353
   685   3614   921
   608   3581   1516
   387   3503   2033
   218   3422   2484
   193   3385   2917
   244   3371   3278
   298   3356   3538
   800   3899   223
   834   3892   633
   871   3884   1239
   794   3857   1833
   599   3806   2301
   416   3747   2694
   325   3696   3048
   368   3678   3357
   449   3660   3597
   637   0   0
   640   0   5
   644   0   214
   651   0   882
   660   1   1643
   666   1   2337
   655   1   2856
   644   2   3245
   632   2   3523
   657   25   1
   661   25   5
   669   26   215
   677   27   879
   686   28   1632
   658   21   2277
   637   16   2781
   627   12   3180
   625   10   3480
   692   421   1
   701   421   7
   710   422   242
   721   425   906
   629   329   1524
   627   316   2197
   635   311   2735
   645   306   3159
   656   301   3469
   746   1143   3
   757   1142   14
   770   1140   300
   763   1143   956
   691   1043   1625
   650   967   2208
   663   961   2744
   678   954   3161
   694   947   3466
   820   1959   6
   834   1955   32
   851   1950   396
   860   1939   1054
   657   1729   1580
   660   1692   2222
   689   1693   2759
   715   1687   3172
   741   1679   3473
   912   2673   15
   932   2665   80
   955   2660   539
   977   2655   1207
   756   2466   1706
   689   2379   2271
   717   2370   2785
   754   2365   3190
   794   2356   3485
   1028   3232   33
   1053   3224   201
   1082   3217   733
   1113   3209   1407
   941   3100   1939
   759   2960   2370
   779   2934   2851
   821   2922   3227
   870   2910   3507
   1171   3627   97
   1203   3620   411
   1240   3611   992
   1278   3605   1677
   1140   3540   2187
   944   3443   2566
   873   3377   2942
   929   3361   3290
   990   3346   3546
   1346   3895   271
   1389   3888   719
   1437   3880   1339
   1478   3870   2008
   1363   3828   2462
   1191   3762   2802
   1075   3697   3099
   1094   3666   3379
   1180   3648   3607
   1273   1   1
   1277   1   6
   1281   1   219
   1287   1   882
   1295   2   1638
   1305   2   2334
   1316   2   2879
   1325   3   3285
   1322   3   3562
   1292   30   1
   1298   30   6
   1305   31   227
   1314   32   886
   1325   34   1638
   1339   36   2328
   1348   37   2869
   1335   31   3253
   1319   24   3527
   1326   437   2
   1334   437   9
   1345   439   260
   1357   441   919
   1371   446   1666
   1380   441   2338
   1335   387   2818
   1307   346   3192
   1296   321   3477
   1375   1157   4
   1388   1155   18
   1403   1155   324
   1419   1155   986
   1435   1149   1727
   1273   974   2215
   1284   962   2742
   1302   956   3156
   1322   948   3461
   1444   1969   8
   1462   1966   41
   1481   1962   429
   1504   1958   1094
   1488   1960   1819
   1404   1828   2371
   1329   1702   2766
   1355   1693   3171
   1381   1681   3470
   1535   2678   18
   1557   2672   102
   1583   2668   583
   1613   2660   1251
   1579   2609   1908
   1384   2449   2356
   1367   2372   2796
   1414   2371   3196
   1458   2363   3487
   1646   3235   39
   1676   3228   244
   1709   3220   791
   1745   3212   1467
   1748   3186   2121
   1479   2999   2446
   1441   2931   2865
   1489   2919   3235
   1550   2910   3512
   1783   3627   123
   1821   3620   480
   1863   3612   1071
   1906   3605   1758
   1925   3585   2356
   1732   3485   2688
   1570   3378   2975
   1617   3354   3302
   1686   3338   3552
   1948   3893   334
   1994   3885   818
   2045   3878   1449
   2098   3868   2112
   2119   3850   2627
   1989   3790   2937
   1835   3707   3167
   1804   3653   3399
   1891   3635   3616
   1957   2   2
   1959   2   7
   1964   2   232
   1968   2   888
   1976   3   1639
   1984   3   2330
   1996   3   2872
   2005   4   3280
   2017   4   3567
   1970   37   2
   1976   38   9
   1982   39   244
   1992   40   897
   2002   42   1643
   2013   45   2330
   2027   48   2869
   2042   52   3274
   2057   55   3560
   1997   460   3
   2006   461   13
   2015   462   281
   2029   465   936
   2042   469   1677
   2057   475   2351
   2075   480   2881
   2089   481   3277
   2078   450   3543
   2039   1177   5
   2050   1175   25
   2065   1175   353
   2080   1176   1010
   2097   1176   1746
   2118   1177   2397
   2130   1167   2904
   2077   1085   3241
   2045   1024   3497
   2093   1986   11
   2111   1982   55
   2128   1979   467
   2148   1976   1128
   2171   1973   1853
   2184   1951   2473
   1990   1716   2779
   2006   1697   3170
   2035   1687   3464
   2164   2690   23
   2184   2684   132
   2209   2680   632
   2236   2673   1297
   2264   2666   2003
   2261   2668   2588
   2193   2554   2981
   2080   2389   3209
   2112   2371   3486
   2252   3241   54
   2278   3234   297
   2309   3226   854
   2341   3219   1530
   2378   3211   2196
   2321   3143   2650
   2210   3047   2998
   2189   2969   3286
   2204   2917   3514
   2360   3629   163
   2394   3623   558
   2431   3614   1158
   2472   3606   1840
   2515   3596   2439
   2497   3557   2862
   2266   3405   3040
   2256   3349   3316
   2316   3334   3556
   2493   3893   416
   2535   3884   931
   2581   3875   1574
   2632   3866   2216
   2686   3855   2731
   2683   3827   3091
   2530   3736   3261
   2429   3645   3422
   2501   3623   3626
   2561   3   3
   2564   3   11
   2569   3   250
   2573   4   898
   2578   4   1641
   2585   4   2326
   2594   5   2868
   2603   5   3274
   2613   6   3561
   2571   48   4
   2575   49   12
   2582   50   265
   2589   52   913
   2598   55   1652
   2607   58   2330
   2619   62   2864
   2630   66   3270
   2644   70   3555
   2590   489   5
   2596   490   18
   2605   492   308
   2616   495   957
   2627   499   1690
   2641   505   2355
   2655   511   2881
   2672   517   3275
   2688   523   3556
   2618   1203   8
   2628   1202   34
   2640   1201   385
   2655   1203   1038
   2671   1204   1765
   2687   1205   2408
   2706   1207   2916
   2726   1210   3295
   2749   1209   3567
   2658   2008   15
   2672   2004   73
   2689   2001   509
   2707   1998   1165
   2728   1996   1881
   2750   1994   2491
   2774   1990   2973
   2793   1981   3329
   2754   1890   3550
   2710   2708   30
   2729   2701   172
   2751   2696   684
   2774   2690   1346
   2799   2685   2040
   2826   2679   2608
   2854   2662   3058
   2708   2467   3269
   2664   2377   3481
   2777   3252   78
   2801   3244   356
   2827   3238   923
   2857   3230   1597
   2887   3221   2246
   2922   3214   2764
   2934   3209   3168
   2909   3135   3431
   2806   2984   3560
   2859   3636   217
   2890   3627   647
   2923   3619   1254
   2958   3609   1927
   2997   3601   2502
   3036   3590   2960
   2999   3541   3245
   2965   3495   3476
   2969   3438   3650
   2964   3893   520
   2998   3885   1062
   3039   3874   1715
   3082   3864   2324
   3127   3852   2813
   3172   3841   3189
   3146   3792   3403
   3026   3693   3515
   3092   3679   3704
   3076   5   5
   3080   5   15
   3082   5   271
   3084   6   911
   3088   6   1646
   3095   7   2325
   3100   8   2864
   3108   9   3268
   3114   10   3555
   3080   64   6
   3082   65   18
   3088   67   291
   3094   69   930
   3101   72   1661
   3108   76   2331
   3116   81   2862
   3126   86   3264
   3136   91   3549
   3089   524   8
   3097   526   26
   3103   529   338
   3110   532   979
   3119   537   1705
   3129   542   2360
   3140   548   2881
   3153   555   3272
   3166   561   3551
   3107   1237   12
   3114   1236   47
   3124   1236   422
   3134   1237   1067
   3147   1239   1786
   3159   1240   2416
   3175   1242   2919
   3190   1245   3292
   3207   1246   3562
   3131   2037   22
   3141   2034   98
   3154   2031   554
   3169   2029   1203
   3183   2026   1909
   3201   2024   2507
   3219   2021   2980
   3238   2018   3332
   3259   2015   3585
   3162   2730   45
   3177   2724   219
   3194   2718   740
   3213   2712   1397
   3231   2707   2078
   3251   2702   2632
   3274   2694   3068
   3295   2688   3389
   3321   2678   3620
   3206   3267   119
   3223   3260   426
   3244   3252   998
   3266   3243   1668
   3290   3237   2295
   3313   3227   2797
   3340   3219   3184
   3368   3207   3467
   3325   3102   3625
   3257   3644   301
   3281   3635   746
   3305   3626   1361
   3332   3617   2020
   3361   3607   2569
   3393   3596   3006
   3422   3584   3329
   3446   3574   3567
   3461   3538   3740
   3322   3895   645
   3354   3886   1215
   3385   3876   1869
   3416   3864   2443
   3452   3852   2905
   3489   3837   3250
   3523   3823   3500
   3531   3792   3664
   3573   3777   3827
   3459   9   9
   3461   9   23
   3463   9   298
   3465   10   927
   3469   10   1653
   3472   11   2327
   3475   13   2860
   3482   14   3261
   3485   16   3549
   3459   87   10
   3463   88   27
   3465   90   319
   3469   93   950
   3473   97   1672
   3478   102   2334
   3484   108   2858
   3491   114   3258
   3497   121   3541
   3461   568   13
   3465   569   38
   3471   571   371
   3477   576   1004
   3483   581   1719
   3491   586   2366
   3498   593   2880
   3505   599   3266
   3514   606   3543
   3469   1277   19
   3474   1276   65
   3483   1277   462
   3489   1278   1098
   3498   1281   1805
   3506   1284   2426
   3515   1286   2920
   3525   1288   3289
   3537   1291   3555
   3480   2074   31
   3487   2069   131
   3496   2068   602
   3507   2064   1243
   3515   2063   1936
   3528   2062   2521
   3539   2059   2985
   3554   2057   3330
   3569   2055   3579
   3497   2759   74
   3507   2751   272
   3516   2747   800
   3528   2742   1451
   3542   2736   2115
   3558   2731   2653
   3574   2724   3078
   3591   2718   3391
   3607   2709   3618
   3516   3287   189
   3528   3278   503
   3543   3271   1079
   3560   3264   1743
   3577   3255   2347
   3596   3246   2831
   3612   3237   3202
   3634   3227   3474
   3655   3214   3673
   3546   3656   433
   3562   3646   858
   3581   3638   1480
   3600   3626   2120
   3621   3617   2642
   3643   3606   3053
   3667   3593   3357
   3691   3577   3578
   3718   3562   3749
   3585   3899   849
   3605   3890   1400
   3628   3878   2043
   3654   3865   2581
   3681   3850   3005
   3709   3835   3318
   3738   3815   3545
   3770   3791   3714
   3805   3763   3845
