Resources/LUT/White Diffusion.3dl
# 17x17x17 .3dl lookup table from LUT Buddy
0 256 512 768 1023
   0   0   0
   0   0   203
   0   0   1582
   1   1   2800
   1   1   3513
   1   406   1
   1   320   152
   1   316   1512
   2   310   2751
   2   301   3484
   5   1955   5
   4   1837   214
   4   1706   1505
   5   1691   2735
   6   1677   3471
   27   3238   27
   25   3165   446
   20   2994   1635
   22   2961   2798
   25   2935   3492
   154   3907   165
   114   3871   925
   93   3778   2032
   86   3713   2967
   90   3687   3573
   118   0   0
   123   0   213
   119   0   1610
   104   1   2783
   100   2   3495
   161   411   1
   170   412   228
   116   320   1513
   122   311   2741
   130   301   3474
   279   1953   5
   302   1946   369
   103   1697   1532
   126   1687   2748
   159   1676   3472
   486   3232   30
   529   3217   680
   222   3040   1800
   148   2940   2833
   215   2917   3502
   800   3899   223
   871   3884   1239
   599   3806   2301
   325   3696   3048
   449   3660   3597
   1273   1   1
   1281   1   219
   1295   2   1638
   1316   2   2879
   1322   3   3562
   1326   437   2
   1345   439   260
   1371   446   1666
   1335   387   2818
   1296   321   3477
   1444   1969   8
   1481   1962   429
   1488   1960   1819
   1329   1702   2766
   1381   1681   3470
   1646   3235   39
   1709   3220   791
   1748   3186   2121
   1441   2931   2865
   1550   2910   3512
   1948   3893   334
   2045   3878   1449
   2119   3850   2627
   1835   3707   3167
   1891   3635   3616
   2561   3   3
   2569   3   250
   2578   4   1641
   2594   5   2868
   2613   6   3561
   2590   489   5
   2605   492   308
   2627   499   1690
   2655   511   2881
   2688   523   3556
   2658   2008   15
   2689   2001   509
   2728   1996   1881
   2774   1990   2973
   2754   1890   3550
   2777   3252   78
   2827   3238   923
   2887   3221   2246
   2934   3209   3168
   2806   2984   3560
   2964   3893   520
   3039   3874   1715
   3127   3852   2813
   3146   3792   3403
   3092   3679   3704
   3459   9   9
   3463   9   298
   3469   10   1653
   3475   13   2860
   3485   16   3549
   3461   568   13
   3471   571   371
   3483   581   1719
   3498   593   2880
   3514   606   3543
   3480   2074   31
   3496   2068   602
   3515   2063   1936
   3539   2059   2985
   3569   2055   3579
   3516   3287   189
   3543   3271   1079
   3577   3255   2347
   3612   3237   3202
   3655   3214   3673
   3585   3899   849
   3628   3878   2043
   3681   3850   3005
   3738   3815   3545
   3805   3763   3845
